;FLAVOR:Marlin
;TIME:17224
;Filament used: 22.9065m
;Layer height: 0.3
;MINX:9.014
;MINY:13.68
;MINZ:0.3
;MAXX:199.595
;MAXY:188.95
;MAXZ:27.3
;Generated with Cura_SteamEngine 4.11.0
M82 ;absolute extrusion mode
G21                                        ; metric values 
G90                                        ; absolute positioning 
M82                                        ; set extruder to absolute mode 
M107                                       ; start with the fan off 
M140 S80.0           ; Start heating the bed 
G4 S60                                     ; wait 1 minute 
M104 S240.0         ; start heating the hot end 
M190 S80.0           ; wait for bed 
M109 S240.0         ; wait for hotend 
M300 S1000 P500                            ; BEEP heating done 
G28 X0 Y10 Z0                              ; move X/Y to min endstops 
M420 S1                                    ; Enable leveling 
M420 Z2.0                                  ; Set leveling fading height to 2 mm 
G0 Z0.15                                   ; lift nozzle a bit 
G92 E0                                     ; zero the extruded length 
G1 X50 E25 F500                            ; Extrude 25mm of filament in a 5cm line. 
G92 E0                                     ; zero the extruded length again 
G1 E-2 F500                                ; Retract a little 
G1 X120 F4000                              ; Quickly wipe away from the filament line`
G92 E0
G92 E0
;LAYER_COUNT:91
;LAYER:0
M107
M205 X10 Y10
G0 F1800 X44.089 Y21.594 Z0.3
M205 X8 Y8
;TYPE:SKIRT
G1 F480 X44.507 Y20.975 E0.03726
G1 X44.803 Y20.567 E0.06241
G1 X45.209 Y20.053 E0.09509
G1 X45.728 Y19.481 E0.13362
G1 X46.193 Y19.026 E0.16608
G1 X46.54 Y18.706 E0.18963
G1 X47.059 Y18.287 E0.22291
G1 X47.505 Y17.974 E0.25009
G1 X48.191 Y17.538 E0.29064
G1 X48.754 Y17.241 E0.3224
G1 X49.039 Y17.107 E0.33811
G1 X49.53 Y16.891 E0.36487
G1 X50.229 Y16.631 E0.40208
G1 X50.676 Y16.5 E0.42532
G1 X51.188 Y16.366 E0.45173
G1 X51.888 Y16.224 E0.48736
G1 X52.427 Y16.153 E0.51448
G1 X53.15 Y16.087 E0.5507
G1 X53.386 Y16.074 E0.5625
G1 X53.962 Y16.05 E0.59126
G1 X132.034 Y13.692 E4.48806
G1 X132.785 Y13.68 E4.52553
G1 X133.514 Y13.699 E4.56192
G1 X134.065 Y13.735 E4.58946
G1 X134.77 Y13.822 E4.6249
G1 X135.298 Y13.923 E4.65172
G1 X136.021 Y14.099 E4.68885
G1 X136.69 Y14.314 E4.7239
G1 X137.347 Y14.571 E4.7591
G1 X137.79 Y14.767 E4.78327
G1 X138.302 Y15.033 E4.81205
G1 X139.038 Y15.471 E4.85478
G1 X139.614 Y15.869 E4.88971
G1 X140.021 Y16.194 E4.9157
G1 X140.368 Y16.49 E4.93845
G1 X140.768 Y16.861 E4.96567
G1 X140.933 Y17.028 E4.97738
G1 X141.287 Y17.417 E5.00362
G1 X141.689 Y17.897 E5.03486
G1 X142.139 Y18.504 E5.07256
G1 X142.414 Y18.937 E5.09815
G1 X142.69 Y19.405 E5.12526
G1 X142.856 Y19.705 E5.14236
G1 X143.183 Y20.335 E5.17777
G1 X198.144 Y129.475 E11.27424
G1 X198.473 Y130.15 E11.3117
G1 X198.682 Y130.614 E11.33709
G1 X198.945 Y131.271 E11.37239
G1 X199.175 Y131.971 E11.40915
G1 X199.306 Y132.486 E11.43567
G1 X199.409 Y132.954 E11.45957
G1 X199.524 Y133.658 E11.49516
G1 X199.571 Y134.178 E11.52121
G1 X199.595 Y134.592 E11.5419
G1 X199.594 Y135.351 E11.57977
G1 X199.55 Y136.073 E11.61585
G1 X199.51 Y136.504 E11.63745
G1 X199.411 Y137.118 E11.66848
G1 X199.3 Y137.61 E11.69364
G1 X199.202 Y137.989 E11.71317
G1 X198.963 Y138.727 E11.75187
G1 X198.736 Y139.305 E11.78285
G1 X198.565 Y139.706 E11.8046
G1 X198.22 Y140.375 E11.84216
G1 X197.902 Y140.912 E11.87329
G1 X197.686 Y141.254 E11.89347
G1 X197.32 Y141.765 E11.92483
G1 X196.954 Y142.21 E11.95358
G1 X196.681 Y142.517 E11.97407
G1 X196.139 Y143.057 E12.01224
G1 X195.604 Y143.524 E12.04767
G1 X195.324 Y143.754 E12.06575
G1 X194.697 Y144.209 E12.1044
G1 X194.228 Y144.503 E12.13202
G1 X193.742 Y144.788 E12.16012
G1 X193.122 Y145.117 E12.19514
G1 X108.995 Y187.484 E16.89445
G1 X108.293 Y187.825 E16.93338
G1 X107.764 Y188.059 E16.96224
G1 X107.244 Y188.267 E16.99018
G1 X106.496 Y188.51 E17.02942
G1 X105.84 Y188.679 E17.06322
G1 X105.157 Y188.815 E17.09796
G1 X104.845 Y188.86 E17.11369
G1 X104.324 Y188.914 E17.13982
G1 X103.788 Y188.947 E17.16661
G1 X103.063 Y188.95 E17.20278
G1 X102.532 Y188.916 E17.22933
G1 X102.038 Y188.867 E17.2541
G1 X101.324 Y188.755 E17.29015
G1 X100.821 Y188.641 E17.31588
G1 X100.433 Y188.54 E17.33589
G1 X99.703 Y188.302 E17.37419
G1 X99.225 Y188.114 E17.39982
G1 X98.79 Y187.929 E17.4234
G1 X98.078 Y187.566 E17.46327
G1 X97.492 Y187.219 E17.49725
G1 X97.101 Y186.969 E17.52041
G1 X96.642 Y186.631 E17.54884
G1 X96.24 Y186.297 E17.57492
G1 X95.933 Y186.024 E17.59541
G1 X95.401 Y185.491 E17.63299
G1 X94.925 Y184.955 E17.66875
G1 X94.595 Y184.553 E17.6947
G1 X94.296 Y184.133 E17.72042
G1 X94.031 Y183.715 E17.74511
G1 X93.688 Y183.131 E17.7789
G1 X93.291 Y182.38 E17.82128
G1 X70.08 Y136.292 E20.39576
G1 X68.832 Y133.898 E20.53045
G1 X67.544 Y131.59 E20.66231
G1 X66.195 Y129.325 E20.79384
G1 X64.77 Y127.078 E20.92658
G1 X63.302 Y124.904 E21.05746
G1 X61.739 Y122.723 E21.19132
G1 X60.156 Y120.643 E21.32173
G1 X58.477 Y118.562 E21.45513
G1 X56.774 Y116.567 E21.58599
G1 X54.989 Y114.595 E21.71869
G1 X53.156 Y112.679 E21.85098
G1 X51.278 Y110.824 E21.98268
G1 X49.336 Y109.011 E22.11522
G1 X47.341 Y107.255 E22.24782
G1 X45.321 Y105.573 E22.37896
G1 X43.247 Y103.943 E22.51056
G1 X41.12 Y102.369 E22.64258
G1 X38.895 Y100.815 E22.77798
G1 X37.81 Y100.092 E22.84302
G1 X32.482 Y96.596 E23.16095
G1 X31.959 Y96.237 E23.1926
G1 X31.307 Y95.764 E23.23279
G1 X30.818 Y95.372 E23.26405
G1 X30.318 Y94.909 E23.29805
G1 X29.688 Y94.245 E23.34372
G1 X29.357 Y93.838 E23.36989
G1 X29.158 Y93.573 E23.38642
G1 X28.838 Y93.104 E23.41475
G1 X28.534 Y92.614 E23.44352
G1 X28.312 Y92.226 E23.46582
G1 X27.759 Y91.177 E23.52498
G1 X18.169 Y72.134 E24.58871
G1 X17.856 Y71.49 E24.62444
G1 X17.59 Y70.89 E24.65718
G1 X17.444 Y70.524 E24.67684
G1 X17.207 Y69.812 E24.71428
G1 X17.043 Y69.201 E24.74584
G1 X16.966 Y68.887 E24.76197
G1 X16.845 Y68.172 E24.79815
G1 X16.775 Y67.548 E24.82947
G1 X16.746 Y67.221 E24.84585
G1 X16.735 Y66.515 E24.88108
G1 X16.758 Y65.927 E24.91044
G1 X16.78 Y65.578 E24.92788
G1 X16.875 Y64.859 E24.96407
G1 X16.972 Y64.35 E24.98992
G1 X17.058 Y63.952 E25.01023
G1 X17.253 Y63.27 E25.04562
G1 X17.462 Y62.679 E25.07689
G1 X17.569 Y62.403 E25.09166
G1 X17.868 Y61.743 E25.12781
G1 X18.185 Y61.15 E25.16136
G1 X18.45 Y60.692 E25.18776
G1 X18.759 Y60.2 E25.21674
G1 X44.089 Y21.594 E27.52037
M205 X10 Y10
G0 F1800 X44.376 Y21.885
M205 X8 Y8
G1 F480 X44.839 Y21.199 E27.56166
G1 X45.251 Y20.64 E27.59631
G1 X45.521 Y20.303 E27.61785
G1 X46.008 Y19.766 E27.65402
G1 X46.473 Y19.311 E27.68647
G1 X46.807 Y19.004 E27.70911
G1 X47.294 Y18.611 E27.74033
G1 X47.723 Y18.309 E27.7665
G1 X48.392 Y17.884 E27.80604
G1 X48.933 Y17.598 E27.83657
G1 X49.2 Y17.473 E27.85128
G1 X49.691 Y17.257 E27.87804
G1 X50.347 Y17.013 E27.91296
G1 X50.777 Y16.887 E27.93532
G1 X51.289 Y16.753 E27.96172
G1 X51.945 Y16.619 E27.99513
G1 X52.465 Y16.551 E28.02129
G1 X53.174 Y16.486 E28.05681
G1 X53.403 Y16.473 E28.06825
G1 X53.974 Y16.45 E28.09676
G1 X132.04 Y14.092 E31.99327
G1 X132.791 Y14.08 E32.03074
G1 X133.497 Y14.099 E32.06598
G1 X134.038 Y14.134 E32.09302
G1 X134.699 Y14.216 E32.12625
G1 X135.21 Y14.314 E32.15221
G1 X135.909 Y14.483 E32.18809
G1 X136.549 Y14.688 E32.22162
G1 X137.197 Y14.941 E32.25632
G1 X137.622 Y15.13 E32.27953
G1 X138.102 Y15.38 E32.30653
G1 X138.829 Y15.812 E32.34872
G1 X139.369 Y16.186 E32.38149
G1 X139.762 Y16.498 E32.40653
G1 X140.109 Y16.794 E32.42928
G1 X140.483 Y17.142 E32.45477
G1 X140.98 Y17.674 E32.49109
G1 X141.382 Y18.154 E32.52233
G1 X141.804 Y18.723 E32.55767
G1 X142.069 Y19.14 E32.58232
G1 X142.345 Y19.608 E32.60942
G1 X142.501 Y19.889 E32.62546
G1 X142.826 Y20.515 E32.66065
G1 X197.784 Y129.65 E38.75682
G1 X198.113 Y130.325 E38.79428
G1 X198.398 Y130.974 E38.82965
G1 X198.573 Y131.418 E38.85346
G1 X198.789 Y132.074 E38.88791
G1 X198.916 Y132.572 E38.91355
G1 X199.019 Y133.04 E38.93746
G1 X199.126 Y133.7 E38.97082
G1 X199.172 Y134.201 E38.99592
G1 X199.196 Y134.615 E39.01661
G1 X199.195 Y135.327 E39.05213
G1 X199.151 Y136.049 E39.08822
G1 X199.113 Y136.46 E39.10881
G1 X199.02 Y137.035 E39.13787
G1 X198.815 Y137.889 E39.18169
G1 X198.591 Y138.58 E39.21793
G1 X198.364 Y139.158 E39.24891
G1 X198.199 Y139.544 E39.26985
G1 X197.876 Y140.171 E39.30504
G1 X197.558 Y140.708 E39.33617
G1 X197.351 Y141.037 E39.35557
G1 X197.007 Y141.516 E39.38499
G1 X196.655 Y141.944 E39.41263
G1 X196.382 Y142.251 E39.43313
G1 X195.874 Y142.757 E39.4689
G1 X195.35 Y143.215 E39.50362
G1 X195.07 Y143.445 E39.5217
G1 X194.482 Y143.872 E39.55796
G1 X194.025 Y144.158 E39.58485
G1 X193.546 Y144.439 E39.61256
G1 X192.938 Y144.762 E39.64691
G1 X108.736 Y187.166 E44.35038
G1 X108.118 Y187.466 E44.38466
G1 X107.607 Y187.691 E44.41251
G1 X107.097 Y187.895 E44.43992
G1 X106.396 Y188.122 E44.47668
G1 X105.74 Y188.291 E44.51048
G1 X105.1 Y188.42 E44.54305
G1 X104.3 Y188.515 E44.58324
G1 X103.764 Y188.548 E44.61003
G1 X103.084 Y188.551 E44.64396
G1 X102.572 Y188.518 E44.66955
G1 X102.078 Y188.469 E44.69432
G1 X101.408 Y188.364 E44.72816
G1 X100.534 Y188.152 E44.77302
G1 X99.849 Y187.93 E44.80895
G1 X99.371 Y187.742 E44.83457
G1 X98.949 Y187.563 E44.85744
G1 X98.282 Y187.222 E44.89482
G1 X97.696 Y186.875 E44.92879
G1 X97.324 Y186.637 E44.95083
G1 X96.894 Y186.32 E44.97748
G1 X96.506 Y185.998 E45.00263
G1 X96.199 Y185.725 E45.02313
G1 X95.7 Y185.225 E45.05837
G1 X95.224 Y184.689 E45.09414
G1 X94.631 Y183.914 E45.14282
G1 X94.376 Y183.511 E45.16661
G1 X94.037 Y182.935 E45.19996
G1 X93.646 Y182.196 E45.24167
G1 X70.435 Y136.107 E47.81619
G1 X69.179 Y133.7 E47.95164
G1 X67.888 Y131.385 E48.08388
G1 X66.524 Y129.096 E48.21682
G1 X65.117 Y126.878 E48.34786
G1 X63.632 Y124.677 E48.48033
G1 X62.067 Y122.493 E48.61437
G1 X60.452 Y120.373 E48.74733
G1 X58.795 Y118.318 E48.87904
G1 X57.076 Y116.304 E49.01114
G1 X55.274 Y114.313 E49.14511
G1 X53.444 Y112.4 E49.27719
G1 X51.549 Y110.529 E49.41005
G1 X49.626 Y108.735 E49.54125
G1 X47.598 Y106.948 E49.67611
G1 X45.558 Y105.25 E49.80853
G1 X43.486 Y103.623 E49.93996
G1 X41.365 Y102.052 E50.07164
G1 X39.113 Y100.48 E50.20866
G1 X38.03 Y99.758 E50.2736
G1 X32.706 Y96.264 E50.5913
G1 X32.194 Y95.914 E50.62225
G1 X31.542 Y95.441 E50.66243
G1 X31.083 Y95.072 E50.69181
G1 X30.603 Y94.628 E50.72444
G1 X29.993 Y93.986 E50.76862
G1 X29.677 Y93.598 E50.79358
G1 X29.478 Y93.333 E50.81012
G1 X29.178 Y92.893 E50.83669
G1 X28.874 Y92.403 E50.86545
G1 X28.665 Y92.04 E50.88635
G1 X28.116 Y90.997 E50.94516
G1 X18.529 Y71.959 E52.0086
G1 X18.216 Y71.315 E52.04432
G1 X17.961 Y70.742 E52.07561
G1 X17.815 Y70.376 E52.09527
G1 X17.593 Y69.708 E52.13039
G1 X17.429 Y69.097 E52.16195
G1 X17.356 Y68.798 E52.1773
G1 X17.242 Y68.128 E52.21121
G1 X17.172 Y67.504 E52.24254
G1 X17.145 Y67.192 E52.25816
G1 X17.135 Y66.53 E52.29119
G1 X17.158 Y65.942 E52.32055
G1 X17.179 Y65.608 E52.33725
G1 X17.268 Y64.934 E52.37117
G1 X17.365 Y64.425 E52.39702
G1 X17.448 Y64.04 E52.41667
G1 X17.631 Y63.4 E52.44987
G1 X17.835 Y62.823 E52.48041
G1 X17.942 Y62.547 E52.49518
G1 X18.223 Y61.929 E52.52905
G1 X18.532 Y61.348 E52.56188
G1 X18.791 Y60.901 E52.58765
G1 X19.096 Y60.416 E52.61623
G1 X44.376 Y21.885 E54.91536
M205 X10 Y10
G0 F1800 X44.752 Y22.042
M205 X8 Y8
G1 F480 X45.17 Y21.423 E54.95263
G1 X45.564 Y20.891 E54.98566
G1 X45.834 Y20.554 E55.0072
G1 X46.287 Y20.052 E55.04093
G1 X46.752 Y19.597 E55.07339
G1 X47.074 Y19.301 E55.09521
G1 X47.529 Y18.934 E55.12438
G1 X47.941 Y18.645 E55.14948
G1 X48.593 Y18.23 E55.18804
G1 X49.112 Y17.956 E55.21732
G1 X49.361 Y17.839 E55.23105
G1 X49.852 Y17.623 E55.25781
G1 X50.464 Y17.395 E55.29039
G1 X50.878 Y17.273 E55.31192
G1 X51.39 Y17.139 E55.33833
G1 X52.003 Y17.015 E55.36953
G1 X52.504 Y16.949 E55.39474
G1 X53.199 Y16.885 E55.42956
G1 X53.419 Y16.873 E55.44055
G1 X53.986 Y16.85 E55.46887
G1 X132.047 Y14.492 E59.36512
G1 X132.798 Y14.48 E59.40259
G1 X133.481 Y14.499 E59.43668
G1 X134.011 Y14.533 E59.46318
G1 X134.628 Y14.609 E59.49419
G1 X135.122 Y14.704 E59.51929
G1 X135.797 Y14.867 E59.55393
G1 X136.408 Y15.062 E59.58593
G1 X137.046 Y15.312 E59.62012
G1 X137.454 Y15.493 E59.64239
G1 X137.902 Y15.726 E59.66758
G1 X138.62 Y16.154 E59.70928
G1 X139.124 Y16.502 E59.73984
G1 X139.849 Y17.099 E59.78669
G1 X140.364 Y17.59 E59.82219
G1 X140.673 Y17.93 E59.84511
G1 X141.075 Y18.41 E59.87635
G1 X141.469 Y18.941 E59.90934
G1 X141.725 Y19.343 E59.93312
G1 X142.001 Y19.811 E59.96022
G1 X142.146 Y20.074 E59.97521
G1 X142.469 Y20.695 E60.01013
G1 X197.425 Y129.825 E66.10603
G1 X197.754 Y130.5 E66.1435
G1 X198.026 Y131.121 E66.17732
G1 X198.201 Y131.565 E66.20113
G1 X198.402 Y132.176 E66.23322
G1 X198.628 Y133.126 E66.28194
G1 X198.728 Y133.742 E66.31307
G1 X198.797 Y134.638 E66.35791
G1 X198.796 Y135.303 E66.39108
G1 X198.752 Y136.025 E66.42717
G1 X198.715 Y136.415 E66.44671
G1 X198.628 Y136.952 E66.47385
G1 X198.428 Y137.789 E66.51679
G1 X198.218 Y138.434 E66.55063
G1 X197.991 Y139.012 E66.58161
G1 X197.833 Y139.382 E66.60168
G1 X197.532 Y139.967 E66.63451
G1 X197.214 Y140.504 E66.66564
G1 X197.015 Y140.82 E66.68427
G1 X196.694 Y141.267 E66.71173
G1 X196.356 Y141.678 E66.73828
G1 X196.083 Y141.985 E66.75877
G1 X195.609 Y142.458 E66.79218
G1 X195.097 Y142.906 E66.82612
G1 X194.817 Y143.136 E66.8442
G1 X194.267 Y143.534 E66.87807
G1 X193.822 Y143.814 E66.9043
G1 X193.349 Y144.091 E66.93165
G1 X192.755 Y144.407 E66.96522
G1 X108.562 Y186.806 E71.66818
G1 X107.944 Y187.106 E71.70245
G1 X107.45 Y187.323 E71.72937
G1 X106.951 Y187.523 E71.75619
G1 X106.296 Y187.735 E71.79054
G1 X105.64 Y187.904 E71.82434
G1 X105.042 Y188.024 E71.85477
G1 X104.275 Y188.115 E71.8933
G1 X103.739 Y188.148 E71.92009
G1 X103.104 Y188.151 E71.95177
G1 X102.117 Y188.071 E72.00117
G1 X101.492 Y187.973 E72.03274
G1 X100.634 Y187.765 E72.07678
G1 X99.995 Y187.557 E72.11031
G1 X99.517 Y187.369 E72.13593
G1 X99.109 Y187.196 E72.15804
G1 X98.486 Y186.878 E72.19294
G1 X97.9 Y186.531 E72.22692
G1 X97.145 Y186.009 E72.27271
G1 X96.465 Y185.426 E72.3174
G1 X95.999 Y184.959 E72.35031
G1 X95.523 Y184.423 E72.38608
G1 X94.966 Y183.696 E72.43177
G1 X94.72 Y183.308 E72.45469
G1 X94.386 Y182.739 E72.4876
G1 X94.001 Y182.013 E72.5286
G1 X70.774 Y135.892 E75.10491
G1 X69.532 Y133.51 E75.23893
G1 X68.253 Y131.218 E75.36988
G1 X66.871 Y128.898 E75.5046
G1 X65.442 Y126.645 E75.63771
G1 X63.939 Y124.418 E75.77175
G1 X62.399 Y122.269 E75.90365
G1 X60.78 Y120.143 E76.03697
G1 X59.094 Y118.053 E76.17094
G1 X57.376 Y116.039 E76.30301
G1 X55.577 Y114.052 E76.43674
G1 X53.713 Y112.104 E76.57125
G1 X51.838 Y110.253 E76.7027
G1 X49.862 Y108.408 E76.83757
G1 X47.894 Y106.675 E76.9684
G1 X45.815 Y104.944 E77.10336
G1 X43.726 Y103.303 E77.2359
G1 X41.586 Y101.718 E77.36876
G1 X39.332 Y100.144 E77.50591
G1 X38.249 Y99.423 E77.57082
G1 X32.93 Y95.933 E77.88821
G1 X32.429 Y95.59 E77.9185
G1 X31.777 Y95.117 E77.95869
G1 X31.349 Y94.773 E77.98608
G1 X30.888 Y94.348 E78.01737
G1 X30.297 Y93.727 E78.06014
G1 X29.798 Y93.093 E78.10039
G1 X29.517 Y92.682 E78.12523
G1 X29.213 Y92.192 E78.154
G1 X29.019 Y91.853 E78.17348
G1 X28.474 Y90.817 E78.23188
G1 X18.888 Y71.784 E79.29508
G1 X18.575 Y71.14 E79.3308
G1 X18.333 Y70.594 E79.3606
G1 X18.187 Y70.228 E79.38026
G1 X17.979 Y69.605 E79.41303
G1 X17.815 Y68.994 E79.44459
G1 X17.746 Y68.709 E79.45922
G1 X17.64 Y68.083 E79.49089
G1 X17.57 Y67.459 E79.52222
G1 X17.544 Y67.164 E79.537
G1 X17.534 Y66.546 E79.56783
G1 X17.557 Y65.958 E79.59719
G1 X17.578 Y65.638 E79.61319
G1 X17.661 Y65.009 E79.64484
G1 X17.758 Y64.5 E79.67069
G1 X17.839 Y64.129 E79.68964
G1 X18.009 Y63.531 E79.72065
G1 X18.208 Y62.968 E79.75045
G1 X18.315 Y62.692 E79.76521
G1 X18.577 Y62.115 E79.79683
G1 X18.879 Y61.547 E79.82892
G1 X19.132 Y61.11 E79.85412
G1 X19.433 Y60.631 E79.88234
G1 X44.752 Y22.042 E82.18496
M205 X10 Y10
G0 F1800 X45.084 Y22.266
M205 X8 Y8
G1 F480 X45.502 Y21.647 E82.22222
G1 X45.876 Y21.141 E82.25361
G1 X46.146 Y20.804 E82.27516
G1 X46.567 Y20.338 E82.30649
G1 X47.032 Y19.883 E82.33894
G1 X47.342 Y19.599 E82.35992
G1 X47.763 Y19.258 E82.38695
G1 X48.576 Y18.71 E82.43586
G1 X49.11 Y18.404 E82.46657
