;FLAVOR:Marlin
;TIME:10304
;Filament used: 5.09429m
;Layer height: 0.1
;MINX:29.081
;MINY:51.656
;MINZ:0.3
;MAXX:179.875
;MAXY:99.164
;MAXZ:3.6
;Generated with Cura_SteamEngine 4.11.0
M82 ;absolute extrusion mode
G21                                        ; metric values 
G90                                        ; absolute positioning 
M82                                        ; set extruder to absolute mode 
M107                                       ; start with the fan off 
M140 S70           ; Start heating the bed 
G4 S60                                     ; wait 1 minute 
M104 S225         ; start heating the hot end 
M190 S70           ; wait for bed 
M109 S225         ; wait for hotend 
M300 S1000 P500                            ; BEEP heating done 
G28 X0 Y10 Z0                              ; move X/Y to min endstops 
M420 S1                                    ; Enable leveling 
M420 Z2.0                                  ; Set leveling fading height to 2 mm 
G0 Z0.15                                   ; lift nozzle a bit 
G92 E0                                     ; zero the extruded length 
G1 X50 E25 F500                            ; Extrude 25mm of filament in a 5cm line. 
G92 E0                                     ; zero the extruded length again 
G1 E-2 F500                                ; Retract a little 
G1 X120 F4000                              ; Quickly wipe away from the filament line`
G92 E0
G92 E0
G1 F1500 E-6
;LAYER_COUNT:34
;LAYER:0
M107
M205 X10 Y10
G1 F600 Z0.5
G0 F6000 X33.409 Y52.843 Z0.5
M205 X8 Y8
;TYPE:SKIRT
G1 F600 Z0.3
G1 F1500 E0
G1 F900 X33.776 Y52.645 E0.0208
G1 X34.49 Y52.306 E0.06024
G1 X35.233 Y52.041 E0.09959
G1 X36 Y51.852 E0.139
G1 X36.59 Y51.761 E0.16879
G1 X37.008 Y51.713 E0.18978
G1 X37.783 Y51.663 E0.22852
G1 X38.322 Y51.656 E0.25542
G1 X158.432 Y51.923 E6.24774
G1 X162.385 Y51.922 E6.44496
G1 X163.174 Y51.962 E6.48437
G1 X163.954 Y52.081 E6.52374
G1 X164.719 Y52.279 E6.56316
G1 X165.46 Y52.553 E6.60258
G1 X166.169 Y52.9 E6.64196
G1 X166.839 Y53.317 E6.68133
G1 X167.464 Y53.8 E6.72074
G1 X168.037 Y54.344 E6.76016
G1 X168.551 Y54.943 E6.79953
G1 X169.003 Y55.591 E6.83895
G1 X169.387 Y56.281 E6.87835
G1 X169.699 Y57.006 E6.91772
G1 X169.844 Y57.443 E6.94069
G1 X170.442 Y59.325 E7.03921
G1 X178.583 Y85.994 E8.43035
G1 X178.956 Y87.181 E8.49242
G1 X179.512 Y88.997 E8.58717
G1 X179.638 Y89.417 E8.60905
G1 X179.796 Y90.191 E8.64846
G1 X179.875 Y90.977 E8.68787
G1 X179.875 Y91.766 E8.72724
G1 X179.794 Y92.552 E8.76666
G1 X179.634 Y93.325 E8.80604
G1 X179.397 Y94.079 E8.84547
G1 X179.085 Y94.804 E8.88485
G1 X178.702 Y95.494 E8.92422
G1 X178.25 Y96.142 E8.96364
G1 X177.736 Y96.741 E9.00302
G1 X177.163 Y97.285 E9.04243
G1 X176.538 Y97.768 E9.08184
G1 X175.868 Y98.185 E9.12121
G1 X175.159 Y98.533 E9.16062
G1 X174.418 Y98.807 E9.20003
G1 X173.654 Y99.005 E9.23941
G1 X172.873 Y99.124 E9.27882
G1 X172.085 Y99.164 E9.31819
G1 X36.883 Y99.164 E16.06344
G1 X36.094 Y99.124 E16.10285
G1 X35.314 Y99.005 E16.14222
G1 X34.549 Y98.807 E16.18164
G1 X33.809 Y98.533 E16.22101
G1 X33.1 Y98.185 E16.26041
G1 X32.429 Y97.767 E16.29986
G1 X31.805 Y97.284 E16.33922
G1 X31.232 Y96.741 E16.37861
G1 X30.717 Y96.142 E16.41802
G1 X30.266 Y95.494 E16.45741
G1 X29.882 Y94.803 E16.49685
G1 X29.57 Y94.078 E16.53622
G1 X29.333 Y93.325 E16.57561
G1 X29.174 Y92.551 E16.61503
G1 X29.083 Y91.372 E16.67402
G1 X29.081 Y89.489 E16.76797
G1 X29.081 Y60.828 E18.19787
G1 X29.088 Y60.393 E18.21958
G1 X29.129 Y59.708 E18.25381
G1 X29.173 Y59.287 E18.27493
G1 X29.295 Y58.507 E18.31432
G1 X29.495 Y57.743 E18.35372
G1 X29.863 Y56.799 E18.40427
G1 X30.045 Y56.409 E18.42574
G1 X30.415 Y55.712 E18.46511
G1 X30.853 Y55.055 E18.5045
G1 X31.355 Y54.446 E18.54388
G1 X31.917 Y53.891 E18.58328
G1 X32.532 Y53.395 E18.6227
G1 X33.409 Y52.843 E18.6744
M205 X10 Y10
G0 F6000 X33.599 Y53.195
M205 X8 Y8
G1 F900 X33.966 Y52.997 E18.6952
G1 X34.661 Y52.668 E18.73357
G1 X35.387 Y52.412 E18.77197
G1 X36.135 Y52.233 E18.81034
G1 X36.636 Y52.158 E18.83562
G1 X37.054 Y52.11 E18.85661
G1 X37.789 Y52.063 E18.89335
G1 X38.321 Y52.056 E18.9199
G1 X158.431 Y52.323 E24.91222
G1 X162.385 Y52.322 E25.10949
G1 X163.153 Y52.362 E25.14786
G1 X163.913 Y52.481 E25.18624
G1 X164.656 Y52.679 E25.2246
G1 X165.375 Y52.952 E25.26297
G1 X166.062 Y53.299 E25.30137
G1 X166.709 Y53.715 E25.33974
G1 X167.309 Y54.196 E25.37811
G1 X167.856 Y54.737 E25.41649
G1 X168.344 Y55.331 E25.45484
G1 X168.767 Y55.974 E25.49324
G1 X169.122 Y56.656 E25.5316
G1 X169.457 Y57.566 E25.57998
G1 X169.463 Y57.564 E25.58029
G1 X170.06 Y59.441 E25.67856
G1 X178.221 Y86.175 E27.07309
G1 X178.574 Y87.298 E27.13182
G1 X179.13 Y89.114 E27.22657
G1 X179.256 Y89.536 E27.24854
G1 X179.407 Y90.291 E27.28695
G1 X179.479 Y91.056 E27.32529
G1 X179.471 Y91.825 E27.36366
G1 X179.383 Y92.59 E27.40207
G1 X179.216 Y93.341 E27.44046
G1 X178.972 Y94.07 E27.47881
G1 X178.654 Y94.77 E27.51717
G1 X178.265 Y95.434 E27.55556
G1 X177.809 Y96.053 E27.59392
G1 X177.292 Y96.622 E27.63227
G1 X176.718 Y97.134 E27.67065
G1 X176.094 Y97.584 E27.70903
G1 X175.427 Y97.967 E27.7474
G1 X174.723 Y98.278 E27.7858
G1 X173.991 Y98.514 E27.82417
G1 X173.239 Y98.673 E27.86252
G1 X172.474 Y98.754 E27.9009
G1 X172.085 Y98.764 E27.92031
G1 X36.883 Y98.764 E34.66556
G1 X36.115 Y98.724 E34.70393
G1 X35.355 Y98.605 E34.74231
G1 X34.612 Y98.407 E34.78067
G1 X33.893 Y98.133 E34.81906
G1 X33.207 Y97.786 E34.85741
G1 X32.56 Y97.37 E34.89579
G1 X31.96 Y96.889 E34.93416
G1 X31.413 Y96.348 E34.97254
G1 X30.925 Y95.753 E35.01093
G1 X30.502 Y95.111 E35.04929
G1 X30.147 Y94.428 E35.08769
G1 X29.866 Y93.713 E35.12602
G1 X29.66 Y92.971 E35.16444
G1 X29.532 Y92.213 E35.20279
G1 X29.483 Y91.372 E35.24482
G1 X29.481 Y89.489 E35.33876
G1 X29.481 Y60.835 E36.76831
G1 X29.488 Y60.4 E36.79002
G1 X29.527 Y59.75 E36.82251
G1 X29.571 Y59.329 E36.84362
G1 X29.691 Y58.569 E36.88201
G1 X29.889 Y57.826 E36.92037
G1 X30.225 Y56.969 E36.9663
G1 X30.407 Y56.579 E36.98777
G1 X30.768 Y55.899 E37.02618
G1 X31.198 Y55.261 E37.06456
G1 X31.691 Y54.672 E37.10288
G1 X32.243 Y54.136 E37.14127
G1 X32.848 Y53.661 E37.17964
G1 X33.599 Y53.195 E37.22374
M205 X10 Y10
G0 F6000 X33.789 Y53.547
M205 X8 Y8
G1 F900 X34.156 Y53.349 E37.24454
G1 X34.833 Y53.03 E37.28188
G1 X35.539 Y52.784 E37.31918
G1 X36.268 Y52.616 E37.3565
G1 X37.099 Y52.508 E37.39831
G1 X37.795 Y52.463 E37.43311
G1 X38.321 Y52.456 E37.45935
G1 X158.431 Y52.723 E43.45168
G1 X162.385 Y52.722 E43.64894
G1 X163.132 Y52.762 E43.68627
G1 X163.871 Y52.881 E43.72361
G1 X164.592 Y53.078 E43.7609
G1 X165.289 Y53.352 E43.79826
G1 X165.952 Y53.698 E43.83557
G1 X166.574 Y54.113 E43.87288
G1 X167.149 Y54.591 E43.91018
G1 X167.669 Y55.129 E43.94751
G1 X168.129 Y55.719 E43.98484
G1 X168.524 Y56.355 E44.02219
G1 X168.848 Y57.029 E44.0595
G1 X169.078 Y57.686 E44.09423
G1 X169.653 Y59.481 E44.18826
G1 X177.838 Y86.292 E45.58681
G1 X178.191 Y87.415 E45.64554
G1 X178.747 Y89.231 E45.74029
G1 X178.873 Y89.655 E45.76236
G1 X179.017 Y90.389 E45.79968
G1 X179.081 Y91.135 E45.83703
G1 X179.066 Y91.882 E45.87431
G1 X178.971 Y92.624 E45.91163
G1 X178.797 Y93.352 E45.94897
G1 X178.546 Y94.057 E45.98631
G1 X178.222 Y94.731 E46.02362
G1 X177.828 Y95.367 E46.06094
G1 X177.368 Y95.957 E46.09827
G1 X176.847 Y96.494 E46.13559
G1 X176.273 Y96.973 E46.17289
G1 X175.65 Y97.388 E46.21024
G1 X174.987 Y97.734 E46.24755
G1 X174.291 Y98.007 E46.28485
G1 X173.569 Y98.205 E46.3222
G1 X172.831 Y98.324 E46.35949
G1 X172.085 Y98.364 E46.39677
G1 X36.883 Y98.364 E53.14202
G1 X36.136 Y98.324 E53.17934
G1 X35.398 Y98.205 E53.21664
G1 X34.676 Y98.007 E53.25399
G1 X33.98 Y97.734 E53.29129
G1 X33.317 Y97.387 E53.32862
G1 X32.694 Y96.972 E53.36597
G1 X32.12 Y96.493 E53.40326
G1 X31.599 Y95.956 E53.44059
G1 X31.14 Y95.366 E53.47789
G1 X30.745 Y94.73 E53.51524
G1 X30.421 Y94.056 E53.55255
G1 X30.171 Y93.351 E53.58987
G1 X29.997 Y92.623 E53.62721
G1 X29.902 Y91.881 E53.66453
G1 X29.883 Y91.371 E53.68999
G1 X29.881 Y89.489 E53.78389
G1 X29.881 Y60.841 E55.21314
G1 X29.888 Y60.406 E55.23484
G1 X29.925 Y59.791 E55.26558
G1 X29.969 Y59.37 E55.2867
G1 X30.086 Y58.632 E55.32398
G1 X30.282 Y57.91 E55.3613
G1 X30.588 Y57.138 E55.40273
G1 X30.77 Y56.748 E55.42421
G1 X31.122 Y56.088 E55.46152
G1 X31.542 Y55.469 E55.49884
G1 X32.027 Y54.899 E55.53618
G1 X32.569 Y54.384 E55.57348
G1 X33.163 Y53.929 E55.61081
G1 X33.789 Y53.547 E55.6474
M205 X10 Y10
G0 F6000 X33.979 Y53.899
M205 X8 Y8
G1 F900 X34.346 Y53.701 E55.6682
G1 X35.003 Y53.392 E55.70443
G1 X35.691 Y53.157 E55.7407
G1 X36.727 Y52.953 E55.79338
G1 X37.145 Y52.905 E55.81437
G1 X37.801 Y52.863 E55.84716
G1 X38.32 Y52.856 E55.87306
G1 X158.43 Y53.123 E61.86539
G1 X162.385 Y53.122 E62.0627
G1 X163.111 Y53.162 E62.09898
G1 X163.827 Y53.281 E62.13519
G1 X164.526 Y53.478 E62.17142
G1 X165.199 Y53.751 E62.20765
G1 X165.838 Y54.096 E62.24388
G1 X166.436 Y54.51 E62.28017
G1 X166.984 Y54.986 E62.31638
G1 X167.477 Y55.52 E62.35264
G1 X167.907 Y56.105 E62.38886
G1 X168.272 Y56.733 E62.4251
G1 X168.564 Y57.398 E62.46134
G1 X168.701 Y57.806 E62.48281
G1 X169.294 Y59.675 E62.58063
G1 X177.439 Y86.355 E63.97235
G1 X177.809 Y87.532 E64.0339
G1 X178.365 Y89.348 E64.12866
G1 X178.49 Y89.773 E64.15076
G1 X178.626 Y90.487 E64.18702
G1 X178.683 Y91.211 E64.22325
G1 X178.66 Y91.937 E64.25949
G1 X178.557 Y92.656 E64.29573
G1 X178.376 Y93.359 E64.33194
G1 X178.119 Y94.039 E64.36821
G1 X177.788 Y94.685 E64.40443
G1 X177.389 Y95.292 E64.44067
G1 X176.925 Y95.851 E64.47691
G1 X176.403 Y96.356 E64.51314
G1 X175.828 Y96.8 E64.54939
G1 X175.208 Y97.178 E64.58562
G1 X174.55 Y97.486 E64.62186
G1 X173.862 Y97.72 E64.65812
G1 X173.153 Y97.877 E64.69435
G1 X172.085 Y97.964 E64.74781
G1 X36.883 Y97.964 E71.49306
G1 X36.158 Y97.924 E71.52929
G1 X35.441 Y97.805 E71.56555
G1 X34.742 Y97.607 E71.60179
G1 X34.069 Y97.334 E71.63803
G1 X33.43 Y96.989 E71.67426
G1 X32.833 Y96.575 E71.7105
G1 X32.285 Y96.099 E71.74671
G1 X31.792 Y95.565 E71.78297
G1 X31.362 Y94.98 E71.8192
G1 X30.998 Y94.351 E71.85545
G1 X30.705 Y93.686 E71.89171
G1 X30.487 Y92.993 E71.92795
G1 X30.347 Y92.281 E71.96415
G1 X30.283 Y91.371 E72.00966
G1 X30.281 Y89.489 E72.10356
G1 X30.281 Y60.848 E73.53246
G1 X30.288 Y60.413 E73.55417
G1 X30.323 Y59.833 E73.58316
G1 X30.367 Y59.412 E73.60428
G1 X30.482 Y58.695 E73.6405
G1 X30.675 Y57.995 E73.67673
G1 X30.95 Y57.307 E73.7137
G1 X31.132 Y56.917 E73.73517
G1 X31.475 Y56.277 E73.77139
G1 X31.886 Y55.678 E73.80764
G1 X32.361 Y55.128 E73.84389
G1 X32.893 Y54.633 E73.88015
G1 X33.476 Y54.2 E73.91638
G1 X33.979 Y53.899 E73.94562
M205 X10 Y10
G0 F6000 X34.536 Y54.053
M205 X8 Y8
G1 F900 X35.174 Y53.755 E73.98075
G1 X35.841 Y53.531 E74.01586
G1 X36.773 Y53.35 E74.06322
G1 X37.191 Y53.302 E74.08421
G1 X37.807 Y53.263 E74.11501
G1 X38.319 Y53.256 E74.14055
G1 X158.429 Y53.523 E80.13288
G1 X162.385 Y53.522 E80.33025
G1 X163.088 Y53.562 E80.36537
G1 X163.782 Y53.681 E80.4005
G1 X164.458 Y53.878 E80.43563
G1 X165.107 Y54.151 E80.47076
G1 X165.721 Y54.495 E80.50587
G1 X166.292 Y54.906 E80.54097
G1 X166.813 Y55.38 E80.57611
G1 X167.277 Y55.91 E80.61126
G1 X167.677 Y56.489 E80.64636
G1 X168.01 Y57.109 E80.68148
G1 X168.314 Y57.929 E80.72511
G1 X168.32 Y57.927 E80.72542
G1 X168.912 Y59.792 E80.82304
G1 X177.057 Y86.475 E82.2149
G1 X177.426 Y87.649 E82.2763
G1 X177.982 Y89.465 E82.37105
G1 X178.107 Y89.891 E82.3932
G1 X178.236 Y90.583 E82.42832
G1 X178.284 Y91.285 E82.46342
G1 X178.253 Y91.988 E82.49853
G1 X178.143 Y92.684 E82.53368
G1 X177.954 Y93.362 E82.5688
G1 X177.69 Y94.014 E82.60389
G1 X177.353 Y94.633 E82.63906
G1 X176.949 Y95.209 E82.67416
G1 X176.482 Y95.735 E82.70925
G1 X175.958 Y96.206 E82.7444
G1 X175.384 Y96.614 E82.77953
G1 X174.767 Y96.954 E82.81468
G1 X174.117 Y97.222 E82.84976
G1 X173.439 Y97.414 E82.88491
G1 X172.745 Y97.529 E82.92001
G1 X172.085 Y97.564 E82.95298
G1 X36.883 Y97.564 E89.69824
G1 X36.18 Y97.524 E89.73337
G1 X35.486 Y97.405 E89.7685
G1 X34.811 Y97.207 E89.80359
G1 X34.162 Y96.935 E89.8387
G1 X33.548 Y96.59 E89.87384
G1 X32.977 Y96.179 E89.90894
G1 X32.456 Y95.705 E89.94408
G1 X31.992 Y95.175 E89.97922
G1 X31.592 Y94.596 E90.01433
G1 X31.26 Y93.975 E90.04946
G1 X31 Y93.321 E90.08457
G1 X30.816 Y92.641 E90.11972
G1 X30.71 Y91.945 E90.15484
G1 X30.683 Y91.371 E90.18351
G1 X30.681 Y89.489 E90.2774
G1 X30.681 Y60.854 E91.70601
G1 X30.688 Y60.419 E91.72771
G1 X30.721 Y59.875 E91.7549
G1 X30.765 Y59.454 E91.77602
G1 X30.877 Y58.759 E91.81114
G1 X31.068 Y58.081 E91.84629
G1 X31.313 Y57.476 E91.87885
G1 X31.495 Y57.086 E91.90032
G1 X31.828 Y56.466 E91.93543
G1 X32.23 Y55.888 E91.97056
G1 X32.694 Y55.359 E92.00566
G1 X33.216 Y54.886 E92.04081
G1 X33.788 Y54.475 E92.07595
G1 X34.536 Y54.053 E92.1188
M205 X10 Y10
G0 F6000 X34.359 Y54.604
M205 X8 Y8
G1 F900 X34.726 Y54.406 E92.1396
G1 X35.343 Y54.118 E92.17357
G1 X35.99 Y53.905 E92.20755
G1 X36.818 Y53.748 E92.2496
G1 X37.236 Y53.7 E92.27059
G1 X37.813 Y53.663 E92.29944
G1 X38.318 Y53.656 E92.32463
G1 X158.429 Y53.923 E98.31701
G1 X162.386 Y53.922 E98.51442
G1 X163.065 Y53.962 E98.54836
G1 X163.736 Y54.081 E98.58236
G1 X164.387 Y54.278 E98.61629
G1 X165.012 Y54.55 E98.6503
G1 X165.6 Y54.893 E98.68426
G1 X166.143 Y55.303 E98.7182
G1 X166.635 Y55.773 E98.75215
G1 X167.069 Y56.299 E98.78617
G1 X167.438 Y56.871 E98.82013
G1 X167.737 Y57.482 E98.85407
G1 X167.936 Y58.05 E98.8841
G1 X167.969 Y58.147 E98.88921
G1 X168.529 Y59.909 E98.98145
G1 X176.675 Y86.595 E100.37346
G1 X177.044 Y87.766 E100.43472
G1 X177.6 Y89.582 E100.52947
G1 X177.724 Y90.007 E100.55156
G1 X177.844 Y90.678 E100.58556
G1 X177.885 Y91.357 E100.6195
G1 X177.846 Y92.037 E100.65348
G1 X177.727 Y92.708 E100.68748
G1 X177.531 Y93.359 E100.7214
G1 X177.26 Y93.984 E100.75539
G1 X176.917 Y94.572 E100.78935
G1 X176.508 Y95.116 E100.8233
G1 X176.037 Y95.609 E100.85732
G1 X175.513 Y96.043 E100.89126
G1 X174.941 Y96.412 E100.92522
G1 X174.329 Y96.712 E100.95923
G1 X173.687 Y96.938 E100.99318
G1 X173.023 Y97.088 E101.02715
G1 X172.085 Y97.164 E101.0741
G1 X36.883 Y97.164 E107.81935
G1 X36.203 Y97.124 E107.85334
G1 X35.533 Y97.005 E107.88729
G1 X34.881 Y96.808 E107.92127
G1 X34.257 Y96.536 E107.95523
G1 X33.669 Y96.192 E107.98921
G1 X33.125 Y95.782 E108.0232
G1 X32.634 Y95.311 E108.05714
G1 X32.2 Y94.786 E108.09113
G1 X31.831 Y94.214 E108.12509
G1 X31.532 Y93.602 E108.15907
G1 X31.307 Y92.96 E108.19301
G1 X31.158 Y92.295 E108.22701
G1 X31.083 Y91.37 E108.27331
G1 X31.081 Y89.489 E108.36715
G1 X31.081 Y60.861 E109.79541
G1 X31.088 Y60.426 E109.81711
G1 X31.118 Y59.916 E109.8426
G1 X31.162 Y59.495 E109.86372
G1 X31.273 Y58.823 E109.8977
G1 X31.461 Y58.169 E109.93165
G1 X31.675 Y57.645 E109.95989
G1 X31.857 Y57.255 E109.98136
G1 X32.181 Y56.656 E110.01533
G1 X32.572 Y56.099 E110.04929
G1 X33.027 Y55.592 E110.08327
G1 X33.537 Y55.141 E110.11724
G1 X34.359 Y54.604 E110.16622
M205 X10 Y10
G0 F6000 X34.549 Y54.956
M205 X8 Y8
G1 F900 X34.916 Y54.758 E110.18703
G1 X35.512 Y54.481 E110.21982
G1 X36.137 Y54.28 E110.25257
G1 X36.864 Y54.145 E110.28946
G1 X37.282 Y54.097 E110.31045
G1 X37.818 Y54.063 E110.33725
G1 X38.317 Y54.056 E110.36215
G1 X158.428 Y54.323 E116.35452
G1 X162.386 Y54.322 E116.55199
G1 X163.041 Y54.362 E116.58473
G1 X163.687 Y54.481 E116.6175
G1 X164.314 Y54.678 E116.65029
G1 X164.913 Y54.949 E116.68309
G1 X165.473 Y55.291 E116.71582
G1 X165.989 Y55.699 E116.74864
G1 X166.451 Y56.166 E116.78142
G1 X166.852 Y56.686 E116.81418
G1 X167.188 Y57.25 E116.84693
G1 X167.453 Y57.852 E116.87975
G1 X167.557 Y58.17 E116.89644
G1 X168.147 Y60.025 E116.99355
G1 X176.308 Y86.759 E118.38808
G1 X176.661 Y87.883 E118.44686
G1 X177.217 Y89.699 E118.54161
G1 X177.341 Y90.123 E118.56365
G1 X177.452 Y90.771 E118.59645
G1 X177.485 Y91.427 E118.62922
G1 X177.437 Y92.082 E118.66198
G1 X177.31 Y92.727 E118.69478
G1 X177.106 Y93.351 E118.72753
G1 X176.828 Y93.946 E118.7603
G1 X176.479 Y94.503 E118.79309
G1 X176.065 Y95.013 E118.82586
G1 X175.593 Y95.47 E118.85864
G1 X175.068 Y95.865 E118.89142
G1 X174.499 Y96.194 E118.92421
G1 X173.895 Y96.452 E118.95698
G1 X173.264 Y96.634 E118.98974
G1 X172.615 Y96.738 E119.02253
G1 X172.085 Y96.764 E119.04901
