;FLAVOR:Marlin
;TIME:7050
;Filament used: 24.7046m
;Layer height: 0.6
;MINX:6.401
;MINY:21.212
;MINZ:0.3
;MAXX:197.403
;MAXY:193.713
;MAXZ:27.3
;Generated with Cura_SteamEngine 4.11.0
M82 ;absolute extrusion mode
G21                                        ; metric values 
G90                                        ; absolute positioning 
M82                                        ; set extruder to absolute mode 
M107                                       ; start with the fan off 
M140 S60           ; Start heating the bed 
G4 S60                                     ; wait 1 minute 
M104 S260.0         ; start heating the hot end 
M190 S60           ; wait for bed 
M109 S260.0         ; wait for hotend 
M300 S1000 P500                            ; BEEP heating done 
G28 X0 Y10 Z0                              ; move X/Y to min endstops 
M420 S1                                    ; Enable leveling 
M420 Z2.0                                  ; Set leveling fading height to 2 mm 
G0 Z0.15                                   ; lift nozzle a bit 
G92 E0                                     ; zero the extruded length 
G1 X50 E25 F500                            ; Extrude 25mm of filament in a 5cm line. 
G92 E0                                     ; zero the extruded length again 
G1 E-2 F500                                ; Retract a little 
G1 X120 F4000                              ; Quickly wipe away from the filament line`
G92 E0
G92 E0
G1 F1800 E-6
;LAYER_COUNT:46
;LAYER:0
M107
G1 F1800 Z0.375
G0 F3600 X15.397 Y41.967 Z0.375
;TYPE:SKIRT
G1 F1800 Z0.3
G1 F1800 E0
G1 F1200 X15.84 Y41.846 E0.04468
G1 X16.539 Y41.677 E0.11464
G1 X17.334 Y41.526 E0.19336
G1 X17.829 Y41.473 E0.2418
G1 X18.549 Y41.417 E0.31205
G1 X19.18 Y41.392 E0.37349
G1 X95.407 Y41.351 E7.7893
G1 X95.982 Y41.294 E7.84551
G1 X96.518 Y41.054 E7.90265
G1 X123.348 Y25.544 E10.91758
G1 X123.806 Y25.298 E10.96816
G1 X124.35 Y25.028 E11.02724
G1 X125.381 Y24.601 E11.13581
G1 X125.952 Y24.409 E11.19442
G1 X126.948 Y24.143 E11.29471
G1 X127.545 Y24.023 E11.35395
G1 X128.631 Y23.879 E11.46053
G1 X129.235 Y23.84 E11.51941
G1 X129.758 Y23.823 E11.57032
G1 X152.609 Y23.81 E13.7934
G1 X153.228 Y23.833 E13.85366
G1 X153.92 Y23.885 E13.92117
G1 X154.723 Y23.985 E13.99989
G1 X155.12 Y24.065 E14.03929
G1 X155.798 Y24.219 E14.10693
G1 X156.577 Y24.437 E14.18563
G1 X157.062 Y24.615 E14.23589
G1 X161.058 Y22.308 E14.68478
G1 X161.778 Y21.939 E14.76349
G1 X162.531 Y21.642 E14.84224
G1 X163.309 Y21.421 E14.92092
G1 X164.106 Y21.278 E14.9997
G1 X164.779 Y21.22 E15.06541
G1 X164.954 Y21.212 E15.08246
G1 X165.763 Y21.215 E15.16116
G1 X166.568 Y21.297 E15.23988
G1 X167.361 Y21.459 E15.31862
G1 X168.134 Y21.699 E15.39737
G1 X168.88 Y22.013 E15.47611
G1 X169.59 Y22.4 E15.55478
G1 X170.26 Y22.854 E15.63351
G1 X170.881 Y23.373 E15.71225
G1 X171.448 Y23.95 E15.79095
G1 X172.179 Y24.906 E15.90803
G1 X172.512 Y25.438 E15.96909
G1 X195.917 Y65.948 E20.52063
G1 X196.287 Y66.668 E20.59938
G1 X196.584 Y67.42 E20.67804
G1 X196.805 Y68.199 E20.75681
G1 X196.912 Y68.742 E20.81066
G1 X196.946 Y68.953 E20.83145
G1 X197.035 Y69.757 E20.91014
G1 X197.044 Y70.567 E20.98895
G1 X196.974 Y71.373 E21.06766
G1 X196.824 Y72.168 E21.14636
G1 X196.596 Y72.944 E21.22505
G1 X196.293 Y73.695 E21.30383
G1 X195.918 Y74.411 E21.38247
G1 X195.473 Y75.088 E21.46128
G1 X194.964 Y75.717 E21.54
G1 X194.395 Y76.292 E21.6187
G1 X193.99 Y76.641 E21.67071
G1 X193.339 Y77.123 E21.74951
G1 X192.888 Y77.404 E21.80121
G1 X188.894 Y79.71 E22.24988
G1 X188.753 Y80.419 E22.32021
G1 X188.556 Y81.204 E22.39895
G1 X188.396 Y81.678 E22.44762
G1 X188.136 Y82.377 E22.52017
G1 X187.883 Y82.983 E22.58406
G1 X154.63 Y154.291 E30.23854
G1 X145.97 Y185.837 E33.42107
G1 X145.841 Y186.261 E33.46418
G1 X145.227 Y188.101 E33.65289
G1 X144.933 Y188.855 E33.73162
G1 X144.566 Y189.577 E33.81042
G1 X144.13 Y190.258 E33.88909
G1 X143.629 Y190.894 E33.96785
G1 X143.068 Y191.476 E34.04649
G1 X142.451 Y192.001 E34.12531
G1 X141.786 Y192.462 E34.20403
G1 X141.079 Y192.855 E34.28272
G1 X140.336 Y193.177 E34.3615
G1 X139.566 Y193.423 E34.44014
G1 X138.774 Y193.592 E34.51893
G1 X137.97 Y193.683 E34.59764
G1 X137.458 Y193.699 E34.64748
G1 X57.403 Y193.699 E42.4357
G1 X54.435 Y193.713 E42.72445
G1 X14.663 Y193.689 E46.5937
G1 X13.855 Y193.649 E46.67241
G1 X13.055 Y193.529 E46.75111
G1 X11.926 Y193.216 E46.86508
G1 X11.85 Y193.189 E46.87293
G1 X11.102 Y192.881 E46.95163
G1 X10.388 Y192.501 E47.03031
G1 X9.715 Y192.051 E47.10908
G1 X9.089 Y191.538 E47.18781
G1 X8.518 Y190.965 E47.26651
G1 X8.005 Y190.339 E47.34525
G1 X7.557 Y189.665 E47.42398
G1 X7.178 Y188.951 E47.50263
G1 X6.87 Y188.202 E47.58141
G1 X6.639 Y187.427 E47.66009
G1 X6.485 Y186.632 E47.73887
G1 X6.406 Y185.736 E47.82637
G1 X6.401 Y185.257 E47.87298
G1 X6.422 Y184.13 E47.98264
G1 X6.422 Y146.27 E51.66588
G1 X6.406 Y54.174 E60.62552
G1 X6.431 Y53.539 E60.68735
G1 X6.487 Y52.818 E60.7577
G1 X6.589 Y52.015 E60.83645
G1 X6.69 Y51.533 E60.88436
G1 X6.858 Y50.836 E60.95411
G1 X7.086 Y50.06 E61.0328
G1 X7.25 Y49.629 E61.07766
G1 X7.525 Y48.963 E61.14776
G1 X7.87 Y48.231 E61.22648
G1 X8.111 Y47.812 E61.27351
G1 X8.487 Y47.198 E61.34355
G1 X8.943 Y46.53 E61.42224
G1 X9.242 Y46.157 E61.46874
G1 X9.709 Y45.61 E61.53872
G1 X10.264 Y45.022 E61.61738
G1 X10.612 Y44.706 E61.66311
G1 X11.161 Y44.236 E61.73342
G1 X11.801 Y43.741 E61.81213
G1 X12.22 Y43.467 E61.86083
G1 X12.8 Y43.113 E61.92694
G1 X12.804 Y43.12 E61.92772
G1 X13.252 Y42.852 E61.97851
G1 X13.97 Y42.514 E62.05572
G1 X14.635 Y42.239 E62.12572
G1 X15.397 Y41.967 E62.20444
G0 F3600 X16.024 Y42.605
G1 F1200 X16.723 Y42.436 E62.2744
G1 X17.479 Y42.294 E62.34923
G1 X17.889 Y42.25 E62.38935
G1 X18.609 Y42.194 E62.45961
G1 X19.18 Y42.172 E62.5152
G1 X95.445 Y42.131 E69.93471
G1 X96.187 Y42.048 E70.00735
G1 X96.434 Y41.965 E70.0327
G1 X96.887 Y41.741 E70.08186
G1 X123.738 Y26.219 E73.09915
G1 X124.153 Y25.997 E73.14493
G1 X124.697 Y25.727 E73.20402
G1 X125.629 Y25.34 E73.3022
G1 X126.2 Y25.148 E73.3608
G1 X127.102 Y24.907 E73.45163
G1 X127.699 Y24.787 E73.51087
G1 X128.682 Y24.657 E73.60734
G1 X129.286 Y24.618 E73.66622
G1 X129.759 Y24.603 E73.71226
G1 X152.61 Y24.59 E75.93534
G1 X153.169 Y24.611 E75.98976
G1 X153.861 Y24.663 E76.05727
G1 X154.947 Y24.826 E76.16411
G1 X155.625 Y24.98 E76.23175
G1 X156.686 Y25.306 E76.33973
G1 X157.127 Y25.479 E76.38582
G1 X161.448 Y22.984 E76.87124
G1 X162.134 Y22.634 E76.94616
G1 X162.852 Y22.357 E77.02103
G1 X163.595 Y22.157 E77.09588
G1 X164.355 Y22.034 E77.17078
G1 X164.99 Y21.991 E77.2327
G1 X165.759 Y21.996 E77.30752
G1 X166.524 Y22.08 E77.38239
G1 X167.276 Y22.244 E77.45726
G1 X168.007 Y22.484 E77.53212
G1 X168.71 Y22.8 E77.6071
G1 X169.375 Y23.186 E77.6819
G1 X169.997 Y23.639 E77.75676
G1 X170.569 Y24.155 E77.83171
G1 X171.084 Y24.727 E77.90659
G1 X171.527 Y25.333 E77.97961
G1 X171.837 Y25.828 E78.03643
G1 X195.242 Y66.338 E82.58797
G1 X195.592 Y67.024 E82.6629
G1 X195.869 Y67.742 E82.73777
G1 X196.07 Y68.485 E82.81265
G1 X196.176 Y69.077 E82.87116
G1 X196.258 Y69.842 E82.94601
G1 X196.261 Y70.612 E83.02092
G1 X196.185 Y71.378 E83.0958
G1 X196.029 Y72.132 E83.17071
G1 X195.795 Y72.865 E83.24557
G1 X195.487 Y73.57 E83.32041
G1 X195.108 Y74.24 E83.3953
G1 X194.661 Y74.867 E83.47021
G1 X194.151 Y75.443 E83.54506
G1 X193.562 Y75.983 E83.6228
G1 X193.495 Y76.038 E83.63123
G1 X192.875 Y76.495 E83.70616
G1 X192.498 Y76.728 E83.74928
G1 X188.187 Y79.217 E84.23356
G1 X188.133 Y79.537 E84.26513
G1 X187.988 Y80.267 E84.33754
G1 X187.799 Y81.013 E84.41241
G1 X187.665 Y81.406 E84.4528
G1 X187.405 Y82.105 E84.52536
G1 X187.176 Y82.654 E84.58323
G1 X153.896 Y154.021 E92.24403
G1 X145.218 Y185.631 E95.43301
G1 X145.101 Y186.015 E95.47207
G1 X144.487 Y187.855 E95.66078
G1 X144.206 Y188.571 E95.73561
G1 X143.852 Y189.254 E95.81045
G1 X143.429 Y189.897 E95.88532
G1 X142.941 Y190.493 E95.96026
G1 X142.395 Y191.035 E96.03511
G1 X141.795 Y191.517 E96.10998
G1 X141.148 Y191.935 E96.18492
G1 X140.462 Y192.283 E96.25976
G1 X139.743 Y192.558 E96.33465
G1 X138.999 Y192.757 E96.40957
G1 X138.239 Y192.878 E96.48444
G1 X137.458 Y192.919 E96.56052
G1 X57.399 Y192.919 E104.34914
G1 X54.436 Y192.933 E104.6374
G1 X14.664 Y192.909 E108.50665
G1 X13.895 Y192.869 E108.58157
G1 X13.135 Y192.749 E108.65642
G1 X12.187 Y192.481 E108.75226
G1 X12.111 Y192.454 E108.76011
G1 X11.4 Y192.159 E108.835
G1 X10.724 Y191.792 E108.90983
G1 X10.089 Y191.357 E108.98471
G1 X9.503 Y190.858 E109.05959
G1 X8.972 Y190.301 E109.13445
G1 X8.501 Y189.692 E109.20935
G1 X8.096 Y189.038 E109.28419
G1 X7.761 Y188.345 E109.35907
G1 X7.5 Y187.621 E109.43394
G1 X7.316 Y186.873 E109.50888
G1 X7.21 Y186.111 E109.58373
G1 X7.181 Y185.272 E109.6654
G1 X7.202 Y184.145 E109.77506
G1 X7.202 Y146.27 E113.45976
G1 X7.186 Y54.174 E122.41941
G1 X7.208 Y53.599 E122.47539
G1 X7.264 Y52.878 E122.54574
G1 X7.364 Y52.115 E122.62061
G1 X7.448 Y51.716 E122.66027
G1 X7.616 Y51.019 E122.73002
G1 X7.971 Y49.927 E122.84173
G1 X8.246 Y49.261 E122.91183
G1 X8.576 Y48.566 E122.98668
G1 X8.776 Y48.219 E123.02564
G1 X9.152 Y47.605 E123.09569
G1 X9.587 Y46.971 E123.17049
G1 X9.835 Y46.664 E123.20888
G1 X10.302 Y46.117 E123.27885
G1 X10.832 Y45.558 E123.3538
G1 X11.119 Y45.299 E123.39141
G1 X11.668 Y44.829 E123.46171
G1 X12.278 Y44.36 E123.53657
G1 X12.627 Y44.133 E123.57707
G1 X13.207 Y43.779 E123.64318
G1 X13.211 Y43.785 E123.64388
G1 X13.651 Y43.523 E123.6937
G1 X14.268 Y43.234 E123.75998
G1 X14.933 Y42.959 E123.82999
G1 X16.024 Y42.605 E123.94158
G0 F3600 X16.207 Y43.363
G1 F1200 X16.906 Y43.194 E124.01154
G1 X17.95 Y43.028 E124.11438
G1 X18.67 Y42.972 E124.18464
G1 X19.18 Y42.952 E124.2343
G1 X95.467 Y42.911 E131.65595
G1 X96.043 Y42.872 E131.71211
G1 X96.735 Y42.687 E131.7818
G1 X97.251 Y42.432 E131.83779
G1 X124.129 Y26.894 E134.85813
G1 X124.499 Y26.695 E134.899
G1 X125.043 Y26.425 E134.95809
G1 X125.878 Y26.08 E135.04598
G1 X126.449 Y25.888 E135.10459
G1 X127.255 Y25.672 E135.18577
G1 X127.852 Y25.552 E135.24501
G1 X128.732 Y25.436 E135.33136
G1 X129.336 Y25.397 E135.39025
G1 X129.759 Y25.383 E135.43142
G1 X152.61 Y25.37 E137.6545
G1 X153.111 Y25.389 E137.70328
G1 X153.803 Y25.441 E137.77079
G1 X154.775 Y25.587 E137.86641
G1 X155.453 Y25.741 E137.93405
G1 X156.402 Y26.033 E138.03065
G1 X157.048 Y26.286 E138.09814
G1 X157.179 Y26.349 E138.11228
G1 X161.838 Y23.659 E138.63566
G1 X162.487 Y23.33 E138.70645
G1 X163.169 Y23.075 E138.77728
G1 X163.875 Y22.895 E138.84817
G1 X164.85 Y22.778 E138.9437
G1 X165.025 Y22.77 E138.96074
G1 X165.753 Y22.777 E139.03157
G1 X166.476 Y22.863 E139.1024
G1 X167.185 Y23.028 E139.17322
G1 X167.872 Y23.27 E139.24408
G1 X168.528 Y23.586 E139.31492
G1 X169.145 Y23.972 E139.38573
G1 X169.716 Y24.423 E139.45651
G1 X170.235 Y24.934 E139.52737
G1 X170.874 Y25.761 E139.62905
G1 X171.162 Y26.218 E139.6816
G1 X194.567 Y66.728 E144.23314
G1 X194.896 Y67.378 E144.30401
G1 X195.152 Y68.059 E144.37479
G1 X195.372 Y68.99 E144.46786
G1 X195.406 Y69.201 E144.48865
G1 X195.482 Y69.925 E144.55947
G1 X195.478 Y70.653 E144.6303
G1 X195.395 Y71.376 E144.7011
G1 X195.232 Y72.086 E144.77197
G1 X194.993 Y72.774 E144.84282
G1 X194.68 Y73.431 E144.91362
G1 X194.297 Y74.05 E144.98444
G1 X193.848 Y74.623 E145.05526
G1 X193.067 Y75.381 E145.16114
G1 X193 Y75.436 E145.16957
G1 X192.108 Y76.053 E145.27509
G1 X187.443 Y78.747 E145.79917
G1 X187.368 Y79.385 E145.86166
G1 X187.223 Y80.115 E145.93407
G1 X186.934 Y81.134 E146.03711
G1 X186.674 Y81.833 E146.10967
G1 X186.469 Y82.324 E146.16143
G1 X153.159 Y153.754 E153.82902
G1 X144.465 Y185.424 E157.02405
G1 X144.361 Y185.768 E157.05901
G1 X143.747 Y187.608 E157.24772
G1 X143.479 Y188.285 E157.31856
G1 X143.138 Y188.928 E157.38936
G1 X142.729 Y189.53 E157.46017
G1 X142.257 Y190.084 E157.53097
G1 X141.726 Y190.582 E157.6018
G1 X141.144 Y191.02 E157.67266
G1 X140.518 Y191.391 E157.74345
G1 X139.854 Y191.691 E157.81434
G1 X139.162 Y191.916 E157.88513
G1 X138.45 Y192.064 E157.95588
G1 X137.458 Y192.139 E158.05266
G1 X57.396 Y192.139 E165.84156
G1 X54.436 Y192.153 E166.12953
G1 X14.664 Y192.129 E169.99879
G1 X13.937 Y192.089 E170.06962
G1 X13.219 Y191.969 E170.14044
G1 X12.449 Y191.746 E170.21843
G1 X12.373 Y191.719 E170.22628
G1 X11.701 Y191.438 E170.29714
G1 X11.064 Y191.086 E170.36794
G1 X10.47 Y190.665 E170.43877
G1 X9.925 Y190.182 E170.50962
G1 X9.437 Y189.642 E170.58043
G1 X9.011 Y189.051 E170.6513
G1 X8.652 Y188.418 E170.7221
G1 X8.365 Y187.749 E170.79292
G1 X8.153 Y187.052 E170.86379
G1 X8.019 Y186.337 E170.93456
G1 X7.965 Y185.686 E170.99811
G1 X7.961 Y185.287 E171.03693
G1 X7.982 Y184.16 E171.14659
G1 X7.982 Y146.27 E174.83276
G1 X7.966 Y54.174 E183.7924
G1 X7.986 Y53.66 E183.84244
G1 X8.042 Y52.939 E183.9128
G1 X8.207 Y51.898 E184.01533
G1 X8.375 Y51.201 E184.08508
G1 X8.692 Y50.225 E184.18492
G1 X8.967 Y49.559 E184.25502
G1 X9.441 Y48.627 E184.35674
G1 X9.817 Y48.013 E184.42678
G1 X10.429 Y47.17 E184.52813
G1 X10.896 Y46.623 E184.5981
G1 X11.626 Y45.892 E184.6986
G1 X12.175 Y45.422 E184.76891
G1 X13.033 Y44.799 E184.87207
G1 X13.613 Y44.445 E184.93817
G1 X13.617 Y44.451 E184.93888
G1 X14.049 Y44.196 E184.98768
G1 X14.566 Y43.955 E185.04317
G1 X15.231 Y43.68 E185.11318
G1 X16.207 Y43.363 E185.21301
G0 F3600 X16.39 Y44.121
G1 F1200 X17.089 Y43.952 E185.28298
G1 X18.01 Y43.806 E185.3737
G1 X18.73 Y43.75 E185.44395
G1 X19.181 Y43.732 E185.48786
G1 X95.49 Y43.691 E192.91165
G1 X96.151 Y43.647 E192.9761
G1 X97.037 Y43.407 E193.0654
G1 X97.614 Y43.123 E193.12797
G1 X124.519 Y27.569 E196.15136
G1 X124.846 Y27.394 E196.18745
G1 X125.39 Y27.124 E196.24653
G1 X126.127 Y26.819 E196.32413
G1 X126.698 Y26.627 E196.38273
G1 X127.409 Y26.437 E196.45433
G1 X128.006 Y26.317 E196.51357
G1 X128.782 Y26.214 E196.58973
G1 X129.386 Y26.175 E196.64861
G1 X129.76 Y26.163 E196.68501
G1 X152.611 Y26.15 E198.90809
G1 X153.052 Y26.166 E198.95103
G1 X153.744 Y26.218 E199.01854
G1 X154.602 Y26.347 E199.10295
G1 X155.28 Y26.501 E199.17059
G1 X156.117 Y26.759 E199.2558
G1 X156.763 Y27.012 E199.32329
G1 X157.215 Y27.229 E199.37207
G1 X162.228 Y24.335 E199.9352
G1 X162.839 Y24.028 E200.00172
G1 X163.482 Y23.795 E200.06826
G1 X164.147 Y23.638 E200.13473
G1 X164.886 Y23.557 E200.20705
G1 X165.061 Y23.549 E200.2241
G1 X165.745 Y23.558 E200.29065
G1 X166.423 Y23.646 E200.35716
G1 X167.086 Y23.813 E200.42367
G1 X167.725 Y24.057 E200.49022
G1 X168.331 Y24.373 E200.55671
G1 X168.897 Y24.757 E200.62325
G1 X169.413 Y25.206 E200.68979
G1 X169.874 Y25.711 E200.75631
G1 X170.222 Y26.188 E200.81376
G1 X170.486 Y26.608 E200.86202
G1 X193.891 Y67.118 E205.41356
G1 X194.198 Y67.73 E205.48017
G1 X194.432 Y68.372 E205.54664
G1 X194.601 Y69.114 E205.62068
G1 X194.635 Y69.325 E205.64147
G1 X194.705 Y70.006 E205.70807
G1 X194.694 Y70.689 E205.77453
G1 X194.603 Y71.367 E205.84108
G1 X194.435 Y72.03 E205.90762
G1 X194.19 Y72.668 E205.9741
G1 X193.872 Y73.274 E206.04068
G1 X193.485 Y73.838 E206.10723
G1 X193.036 Y74.353 E206.1737
G1 X192.572 Y74.778 E206.23491
G1 X192.505 Y74.833 E206.24334
G1 X191.718 Y75.377 E206.33642
G1 X186.712 Y78.267 E206.89876
G1 X186.711 Y78.306 E206.90256
G1 X186.603 Y79.233 E206.99335
G1 X186.458 Y79.963 E207.06576
G1 X186.203 Y80.862 E207.15667
G1 X185.943 Y81.561 E207.22922
G1 X185.762 Y81.994 E207.27488
G1 X152.425 Y153.482 E214.94869
G1 X143.713 Y185.218 E218.15038
G1 X143.621 Y185.521 E218.18118
G1 X143.007 Y187.361 E218.36989
G1 X142.753 Y187.996 E218.43643
G1 X142.427 Y188.597 E218.50294
G1 X142.033 Y189.155 E218.5694
G1 X141.576 Y189.664 E218.63595
G1 X141.063 Y190.116 E218.70246
G1 X140.501 Y190.506 E218.76901
G1 X139.897 Y190.826 E218.83551
G1 X139.26 Y191.075 E218.90205
G1 X138.598 Y191.247 E218.96859
G1 X137.92 Y191.341 E219.03518
G1 X137.458 Y191.359 E219.08016
G1 X57.392 Y191.359 E226.86945
G1 X54.436 Y191.373 E227.15703
G1 X14.664 Y191.349 E231.02629
G1 X13.982 Y191.309 E231.09275
G1 X13.309 Y191.189 E231.15926
G1 X12.71 Y191.011 E231.22005
G1 X12.634 Y190.984 E231.2279
G1 X12.004 Y190.718 E231.29443
G1 X11.409 Y190.38 E231.361
G1 X10.858 Y189.975 E231.42753
G1 X10.358 Y189.509 E231.49402
G1 X9.916 Y188.987 E231.56056
G1 X9.538 Y188.418 E231.62702
