;FLAVOR:Marlin
;TIME:716
;Filament used: 0.222489m
;Layer height: 0.1
;MINX:74.75
;MINY:91.633
;MINZ:0.2
;MAXX:135.25
;MAXY:122.233
;MAXZ:1.075
;Generated with Cura_SteamEngine 4.11.0
M82 ;absolute extrusion mode
G21                                        ; metric values 
G90                                        ; absolute positioning 
M82                                        ; set extruder to absolute mode 
M107                                       ; start with the fan off 
M140 S80           ; Start heating the bed 
G4 S60                                     ; wait 1 minute 
M104 S250.0         ; start heating the hot end 
M190 S80           ; wait for bed 
M109 S250.0         ; wait for hotend 
M300 S1000 P500                            ; BEEP heating done 
G28 X0 Y10 Z0                              ; move X/Y to min endstops 
M420 S1                                    ; Enable leveling 
M420 Z2.0                                  ; Set leveling fading height to 2 mm 
G0 Z0.15                                   ; lift nozzle a bit 
G92 E0                                     ; zero the extruded length 
G1 X50 E25 F500                            ; Extrude 25mm of filament in a 5cm line. 
G92 E0                                     ; zero the extruded length again 
G1 E-2 F500                                ; Retract a little 
G1 X120 F4000                              ; Quickly wipe away from the filament line`
G92 E0
G92 E0
G1 F1500 E-6
;LAYER_COUNT:9
;LAYER:0
M107
M205 X10 Y10
G1 F600 Z0.275
G0 F3000 X77.772 Y93.267 Z0.275
M205 X8 Y8
;TYPE:SKIRT
G1 F600 Z0.2
G1 F1500 E0
G1 F900 X78.42 Y92.816 E0.02626
G1 X79.111 Y92.432 E0.05255
G1 X79.836 Y92.12 E0.0788
G1 X80.589 Y91.883 E0.10506
G1 X81.363 Y91.724 E0.13134
G1 X82.148 Y91.643 E0.15759
G1 X82.55 Y91.633 E0.17096
G1 X127.45 Y91.633 E1.66434
G1 X128.239 Y91.673 E1.69062
G1 X129.019 Y91.792 E1.71686
G1 X129.784 Y91.99 E1.74314
G1 X130.524 Y92.264 E1.76939
G1 X131.233 Y92.612 E1.79566
G1 X131.904 Y93.03 E1.82195
G1 X132.528 Y93.513 E1.8482
G1 X133.101 Y94.056 E1.87445
G1 X133.616 Y94.655 E1.90073
G1 X134.067 Y95.303 E1.92699
G1 X134.451 Y95.994 E1.95328
G1 X134.763 Y96.719 E1.97953
G1 X135 Y97.472 E2.00579
G1 X135.159 Y98.246 E2.03207
G1 X135.24 Y99.031 E2.05832
G1 X135.25 Y99.433 E2.07169
G1 X135.25 Y114.433 E2.57059
G1 X135.21 Y115.222 E2.59687
G1 X135.091 Y116.002 E2.62311
G1 X134.893 Y116.767 E2.64939
G1 X134.619 Y117.507 E2.67564
G1 X134.271 Y118.216 E2.70191
G1 X133.853 Y118.887 E2.7282
G1 X133.37 Y119.511 E2.75445
G1 X132.827 Y120.084 E2.7807
G1 X132.228 Y120.599 E2.80698
G1 X131.58 Y121.05 E2.83324
G1 X130.889 Y121.434 E2.85953
G1 X130.164 Y121.746 E2.88578
G1 X129.411 Y121.983 E2.91204
G1 X128.637 Y122.142 E2.93832
G1 X127.852 Y122.223 E2.96457
G1 X127.45 Y122.233 E2.97794
G1 X82.55 Y122.233 E4.47132
G1 X81.761 Y122.193 E4.4976
G1 X80.981 Y122.074 E4.52384
G1 X80.216 Y121.876 E4.55012
G1 X79.476 Y121.602 E4.57637
G1 X78.767 Y121.254 E4.60264
G1 X78.096 Y120.836 E4.62893
G1 X77.472 Y120.353 E4.65518
G1 X76.899 Y119.81 E4.68143
G1 X76.384 Y119.211 E4.70771
G1 X75.933 Y118.563 E4.73396
G1 X75.549 Y117.872 E4.76026
G1 X75.237 Y117.147 E4.78651
G1 X75 Y116.394 E4.81277
G1 X74.841 Y115.62 E4.83905
G1 X74.76 Y114.835 E4.86529
G1 X74.75 Y114.433 E4.87867
G1 X74.75 Y99.433 E5.37757
G1 X74.79 Y98.644 E5.40385
G1 X74.909 Y97.864 E5.43009
G1 X75.107 Y97.099 E5.45637
G1 X75.381 Y96.359 E5.48262
G1 X75.729 Y95.65 E5.50889
G1 X76.147 Y94.979 E5.53518
G1 X76.63 Y94.355 E5.56143
G1 X77.173 Y93.782 E5.58768
G1 X77.772 Y93.267 E5.61396
M205 X10 Y10
G0 F3000 X78.161 Y93.475
M205 X8 Y8
G1 F900 X78.803 Y93.052 E5.63953
G1 X79.486 Y92.697 E5.66513
G1 X80.201 Y92.416 E5.69068
G1 X80.943 Y92.21 E5.71629
G1 X81.701 Y92.082 E5.74186
G1 X82.55 Y92.033 E5.77015
G1 X127.45 Y92.033 E7.26353
G1 X128.218 Y92.073 E7.2891
G1 X128.978 Y92.192 E7.31469
G1 X129.721 Y92.39 E7.34027
G1 X130.44 Y92.664 E7.36586
G1 X131.126 Y93.011 E7.39143
G1 X131.773 Y93.427 E7.41701
G1 X132.373 Y93.908 E7.44259
G1 X132.92 Y94.449 E7.46818
G1 X133.408 Y95.044 E7.49377
G1 X133.831 Y95.686 E7.51934
G1 X134.186 Y96.369 E7.54494
G1 X134.467 Y97.084 E7.57049
G1 X134.673 Y97.826 E7.59611
G1 X134.801 Y98.584 E7.62168
G1 X134.85 Y99.433 E7.64996
G1 X134.85 Y114.433 E8.14886
G1 X134.81 Y115.201 E8.17444
G1 X134.691 Y115.961 E8.20003
G1 X134.493 Y116.704 E8.2256
G1 X134.219 Y117.423 E8.25119
G1 X133.872 Y118.109 E8.27676
G1 X133.456 Y118.756 E8.30235
G1 X132.975 Y119.356 E8.32792
G1 X132.434 Y119.903 E8.35351
G1 X131.839 Y120.391 E8.37911
G1 X131.197 Y120.814 E8.40468
G1 X130.514 Y121.169 E8.43028
G1 X129.799 Y121.45 E8.45583
G1 X129.057 Y121.656 E8.48144
G1 X128.299 Y121.784 E8.50701
G1 X127.45 Y121.833 E8.5353
G1 X82.55 Y121.833 E10.02868
G1 X81.782 Y121.793 E10.05425
G1 X81.022 Y121.674 E10.07984
G1 X80.279 Y121.476 E10.10541
G1 X79.56 Y121.202 E10.13101
G1 X78.874 Y120.855 E10.15658
G1 X78.227 Y120.439 E10.18216
G1 X77.627 Y119.958 E10.20774
G1 X77.08 Y119.417 E10.23333
G1 X76.592 Y118.822 E10.25892
G1 X76.169 Y118.18 E10.28449
G1 X75.814 Y117.497 E10.31009
G1 X75.533 Y116.782 E10.33564
G1 X75.327 Y116.04 E10.36126
G1 X75.199 Y115.282 E10.38682
G1 X75.15 Y114.433 E10.41511
G1 X75.15 Y99.433 E10.91401
G1 X75.19 Y98.665 E10.93959
G1 X75.309 Y97.905 E10.96518
G1 X75.507 Y97.162 E10.99075
G1 X75.781 Y96.443 E11.01634
G1 X76.128 Y95.757 E11.04191
G1 X76.544 Y95.11 E11.0675
G1 X77.025 Y94.51 E11.09307
G1 X77.566 Y93.963 E11.11866
G1 X78.161 Y93.475 E11.14426
M205 X10 Y10
G0 F3000 X78.548 Y93.69
M205 X8 Y8
G1 F900 X79.184 Y93.295 E11.16916
G1 X79.858 Y92.971 E11.19403
G1 X80.563 Y92.721 E11.21891
G1 X81.291 Y92.547 E11.2438
G1 X82.033 Y92.452 E11.26868
G1 X82.55 Y92.433 E11.28589
G1 X127.45 Y92.433 E12.77927
G1 X128.197 Y92.473 E12.80415
G1 X128.935 Y92.592 E12.82902
G1 X129.657 Y92.79 E12.85392
G1 X130.353 Y93.063 E12.87878
G1 X131.016 Y93.41 E12.90367
G1 X131.639 Y93.825 E12.92857
G1 X132.213 Y94.304 E12.95343
G1 X132.734 Y94.841 E12.97832
G1 X133.193 Y95.431 E13.00318
G1 X133.588 Y96.067 E13.02808
G1 X133.912 Y96.741 E13.05296
G1 X134.162 Y97.446 E13.07784
G1 X134.336 Y98.174 E13.10273
G1 X134.431 Y98.916 E13.12761
G1 X134.45 Y99.433 E13.14482
G1 X134.45 Y114.433 E13.64372
G1 X134.41 Y115.18 E13.6686
G1 X134.291 Y115.918 E13.69346
G1 X134.093 Y116.64 E13.71836
G1 X133.82 Y117.336 E13.74323
G1 X133.473 Y117.999 E13.76812
G1 X133.058 Y118.622 E13.79302
G1 X132.579 Y119.196 E13.81788
G1 X132.042 Y119.717 E13.84277
G1 X131.452 Y120.176 E13.86763
G1 X130.816 Y120.571 E13.89253
G1 X130.142 Y120.895 E13.9174
G1 X129.437 Y121.145 E13.94228
G1 X128.709 Y121.319 E13.96718
G1 X127.967 Y121.414 E13.99206
G1 X127.45 Y121.433 E14.00927
G1 X82.55 Y121.433 E15.50265
G1 X81.803 Y121.393 E15.52753
G1 X81.065 Y121.274 E15.55239
G1 X80.343 Y121.076 E15.57729
G1 X79.647 Y120.803 E15.60216
G1 X78.984 Y120.456 E15.62705
G1 X78.361 Y120.041 E15.65194
G1 X77.787 Y119.562 E15.67681
G1 X77.266 Y119.025 E15.7017
G1 X76.807 Y118.435 E15.72656
G1 X76.412 Y117.799 E15.75146
G1 X76.088 Y117.125 E15.77633
G1 X75.838 Y116.42 E15.80121
G1 X75.664 Y115.692 E15.82611
G1 X75.569 Y114.95 E15.85099
G1 X75.55 Y114.433 E15.86819
G1 X75.55 Y99.433 E16.3671
G1 X75.59 Y98.686 E16.39198
G1 X75.709 Y97.948 E16.41684
G1 X75.907 Y97.226 E16.44174
G1 X76.18 Y96.53 E16.46661
G1 X76.527 Y95.867 E16.4915
G1 X76.942 Y95.244 E16.51639
G1 X77.421 Y94.67 E16.54126
G1 X77.958 Y94.149 E16.56614
G1 X78.548 Y93.69 E16.59101
M205 X10 Y10
G0 F3000 X78.349 Y94.342
M205 X8 Y8
G1 F900 X78.934 Y93.912 E16.61515
G1 X79.563 Y93.548 E16.63933
G1 X80.228 Y93.255 E16.6635
G1 X80.921 Y93.037 E16.68766
G1 X81.633 Y92.897 E16.71179
G1 X82.55 Y92.833 E16.74237
G1 X127.45 Y92.833 E18.23575
G1 X128.175 Y92.873 E18.2599
G1 X128.892 Y92.992 E18.28407
G1 X129.591 Y93.19 E18.30823
G1 X130.264 Y93.463 E18.33239
G1 X130.903 Y93.808 E18.35654
G1 X131.5 Y94.222 E18.38071
G1 X132.048 Y94.698 E18.40485
G1 X132.541 Y95.232 E18.42902
G1 X132.971 Y95.817 E18.45317
G1 X133.335 Y96.446 E18.47734
G1 X133.628 Y97.111 E18.50151
G1 X133.846 Y97.804 E18.52567
G1 X133.986 Y98.516 E18.54981
G1 X134.05 Y99.433 E18.58038
G1 X134.05 Y114.433 E19.07928
G1 X134.01 Y115.158 E19.10343
G1 X133.891 Y115.875 E19.12761
G1 X133.693 Y116.574 E19.15177
G1 X133.42 Y117.247 E19.17593
G1 X133.075 Y117.886 E19.20008
G1 X132.661 Y118.483 E19.22424
G1 X132.185 Y119.031 E19.24839
G1 X131.651 Y119.524 E19.27256
G1 X131.066 Y119.954 E19.29671
G1 X130.437 Y120.318 E19.32088
G1 X129.772 Y120.611 E19.34505
G1 X129.079 Y120.829 E19.36921
G1 X128.367 Y120.969 E19.39334
G1 X127.45 Y121.033 E19.42392
G1 X82.55 Y121.033 E20.9173
G1 X81.825 Y120.993 E20.94145
G1 X81.108 Y120.874 E20.96562
G1 X80.409 Y120.676 E20.98979
G1 X79.736 Y120.403 E21.01394
G1 X79.097 Y120.058 E21.03809
G1 X78.5 Y119.644 E21.06226
G1 X77.952 Y119.168 E21.0864
G1 X77.459 Y118.634 E21.11057
G1 X77.029 Y118.049 E21.13472
G1 X76.665 Y117.42 E21.15889
G1 X76.372 Y116.755 E21.18306
G1 X76.154 Y116.062 E21.20722
G1 X76.014 Y115.35 E21.23136
G1 X75.95 Y114.433 E21.26193
G1 X75.95 Y99.433 E21.76084
G1 X75.99 Y98.708 E21.78499
G1 X76.109 Y97.991 E21.80916
G1 X76.307 Y97.292 E21.83332
G1 X76.58 Y96.619 E21.85748
G1 X76.925 Y95.98 E21.88163
G1 X77.339 Y95.383 E21.90579
G1 X77.815 Y94.835 E21.92994
G1 X78.349 Y94.342 E21.95411
M205 X10 Y10
G0 F3000 X78.739 Y94.542
M205 X8 Y8
G1 F900 X79.318 Y94.142 E21.97752
G1 X79.939 Y93.81 E22.00094
G1 X80.593 Y93.55 E22.02435
G1 X81.273 Y93.366 E22.04778
G1 X81.969 Y93.26 E22.07119
G1 X82.55 Y93.233 E22.09054
G1 X127.45 Y93.233 E23.58392
G1 X128.153 Y93.273 E23.60734
G1 X128.847 Y93.392 E23.63076
G1 X129.522 Y93.59 E23.65415
G1 X130.171 Y93.862 E23.67756
G1 X130.785 Y94.207 E23.70098
G1 X131.356 Y94.618 E23.72438
G1 X131.877 Y95.092 E23.74781
G1 X132.341 Y95.622 E23.77124
G1 X132.741 Y96.201 E23.79464
G1 X133.073 Y96.822 E23.81806
G1 X133.333 Y97.476 E23.84147
G1 X133.517 Y98.156 E23.8649
G1 X133.623 Y98.852 E23.88832
G1 X133.65 Y99.433 E23.90766
G1 X133.65 Y114.433 E24.40657
G1 X133.61 Y115.136 E24.42999
G1 X133.491 Y115.83 E24.45341
G1 X133.293 Y116.505 E24.4768
G1 X133.021 Y117.154 E24.50021
G1 X132.676 Y117.768 E24.52363
G1 X132.265 Y118.339 E24.54703
G1 X131.791 Y118.86 E24.57046
G1 X131.261 Y119.324 E24.59389
G1 X130.682 Y119.724 E24.61729
G1 X130.061 Y120.056 E24.64071
G1 X129.407 Y120.316 E24.66412
G1 X128.727 Y120.5 E24.68755
G1 X128.031 Y120.606 E24.71097
G1 X127.45 Y120.633 E24.73031
G1 X82.55 Y120.633 E26.22369
G1 X81.847 Y120.593 E26.24711
G1 X81.153 Y120.474 E26.27053
G1 X80.478 Y120.276 E26.29393
G1 X79.829 Y120.004 E26.31733
G1 X79.215 Y119.659 E26.34076
G1 X78.644 Y119.248 E26.36416
G1 X78.123 Y118.774 E26.38759
G1 X77.659 Y118.244 E26.41101
G1 X77.259 Y117.665 E26.43442
G1 X76.927 Y117.044 E26.45784
G1 X76.667 Y116.39 E26.48125
G1 X76.483 Y115.71 E26.50468
G1 X76.377 Y115.014 E26.5281
G1 X76.35 Y114.433 E26.54744
G1 X76.35 Y99.433 E27.04634
G1 X76.39 Y98.73 E27.06976
G1 X76.509 Y98.036 E27.09318
G1 X76.707 Y97.361 E27.11658
G1 X76.979 Y96.712 E27.13998
G1 X77.324 Y96.098 E27.16341
G1 X77.735 Y95.527 E27.18681
G1 X78.209 Y95.006 E27.21023
G1 X78.739 Y94.542 E27.23366
M205 X10 Y10
G0 F3000 X79.128 Y94.75
M205 X8 Y8
G1 F900 X79.7 Y94.381 E27.2563
G1 X80.312 Y94.082 E27.27896
G1 X80.954 Y93.857 E27.30158
G1 X81.619 Y93.708 E27.32425
G1 X82.55 Y93.633 E27.35532
G1 X127.45 Y93.633 E28.8487
G1 X128.13 Y93.673 E28.87135
G1 X128.8 Y93.792 E28.89399
G1 X129.452 Y93.989 E28.91664
G1 X130.076 Y94.261 E28.93928
G1 X130.664 Y94.605 E28.96194
G1 X131.208 Y95.015 E28.98459
G1 X131.699 Y95.486 E29.00722
G1 X132.133 Y96.011 E29.02988
G1 X132.502 Y96.583 E29.05252
G1 X132.801 Y97.195 E29.07517
G1 X133.026 Y97.837 E29.0978
G1 X133.175 Y98.502 E29.12047
G1 X133.25 Y99.433 E29.15153
G1 X133.25 Y114.433 E29.65043
G1 X133.21 Y115.113 E29.67309
G1 X133.091 Y115.783 E29.69572
G1 X132.894 Y116.435 E29.71838
G1 X132.622 Y117.059 E29.74102
G1 X132.278 Y117.647 E29.76368
G1 X131.868 Y118.191 E29.78633
G1 X131.397 Y118.682 E29.80896
G1 X130.872 Y119.116 E29.83162
G1 X130.3 Y119.485 E29.85426
G1 X129.688 Y119.784 E29.87691
G1 X129.046 Y120.009 E29.89954
G1 X128.381 Y120.158 E29.92221
G1 X127.45 Y120.233 E29.95327
G1 X82.55 Y120.233 E31.44665
G1 X81.87 Y120.193 E31.46931
G1 X81.2 Y120.074 E31.49194
G1 X80.548 Y119.877 E31.51459
G1 X79.924 Y119.605 E31.53723
G1 X79.336 Y119.261 E31.55989
G1 X78.792 Y118.851 E31.58255
G1 X78.301 Y118.38 E31.60518
G1 X77.867 Y117.855 E31.62783
G1 X77.498 Y117.283 E31.65047
G1 X77.199 Y116.671 E31.67313
G1 X76.974 Y116.029 E31.69576
G1 X76.825 Y115.364 E31.71842
G1 X76.75 Y114.433 E31.74949
G1 X76.75 Y99.433 E32.24839
G1 X76.79 Y98.753 E32.27105
G1 X76.909 Y98.083 E32.29368
G1 X77.106 Y97.431 E32.31633
G1 X77.378 Y96.807 E32.33897
G1 X77.722 Y96.219 E32.36163
G1 X78.132 Y95.675 E32.38429
G1 X78.603 Y95.184 E32.40692
G1 X79.128 Y94.75 E32.42957
M205 X10 Y10
G0 F3000 X78.995 Y95.368
M205 X8 Y8
G1 F900 X79.515 Y94.967 E32.45141
G1 X80.079 Y94.631 E32.47325
G1 X80.681 Y94.367 E32.49511
G1 X81.31 Y94.177 E32.51697
G1 X81.957 Y94.066 E32.5388
G1 X82.55 Y94.033 E32.55855
G1 X127.45 Y94.033 E34.05193
G1 X128.106 Y94.073 E34.07379
G1 X128.752 Y94.192 E34.09564
G1 X129.379 Y94.389 E34.1175
G1 X129.977 Y94.661 E34.13935
G1 X130.538 Y95.003 E34.1612
G1 X131.053 Y95.411 E34.18306
G1 X131.515 Y95.878 E34.2049
G1 X131.916 Y96.398 E34.22674
G1 X132.252 Y96.962 E34.24858
G1 X132.516 Y97.564 E34.27044
G1 X132.706 Y98.193 E34.2923
G1 X132.817 Y98.84 E34.31413
G1 X132.85 Y99.433 E34.33389
G1 X132.85 Y114.433 E34.83279
G1 X132.81 Y115.089 E34.85465
G1 X132.691 Y115.735 E34.87649
G1 X132.494 Y116.362 E34.89835
G1 X132.222 Y116.96 E34.9202
G1 X131.88 Y117.521 E34.94206
G1 X131.472 Y118.036 E34.96391
G1 X131.005 Y118.498 E34.98576
G1 X130.485 Y118.899 E35.0076
G1 X129.921 Y119.235 E35.02943
G1 X129.319 Y119.499 E35.0513
G1 X128.69 Y119.689 E35.07315
G1 X128.043 Y119.8 E35.09499
G1 X127.45 Y119.833 E35.11474
G1 X82.55 Y119.833 E36.60812
G1 X81.894 Y119.793 E36.62998
G1 X81.248 Y119.674 E36.65183
G1 X80.621 Y119.477 E36.67369
G1 X80.023 Y119.205 E36.69554
G1 X79.462 Y118.863 E36.71739
G1 X78.947 Y118.455 E36.73924
G1 X78.485 Y117.988 E36.76109
G1 X78.084 Y117.468 E36.78293
G1 X77.748 Y116.904 E36.80477
G1 X77.484 Y116.302 E36.82663
G1 X77.294 Y115.673 E36.84848
G1 X77.183 Y115.026 E36.87032
G1 X77.15 Y114.433 E36.89007
G1 X77.15 Y99.433 E37.38897
G1 X77.19 Y98.777 E37.41083
G1 X77.309 Y98.131 E37.43268
G1 X77.506 Y97.504 E37.45454
G1 X77.778 Y96.906 E37.47639
G1 X78.12 Y96.345 E37.49824
G1 X78.528 Y95.83 E37.5201
G1 X78.995 Y95.368 E37.54194
M205 X10 Y10
G0 F3000 X79.386 Y95.562
M205 X8 Y8
G1 F900 X79.9 Y95.193 E37.56299
G1 X80.456 Y94.893 E37.584
G1 X81.045 Y94.665 E37.60501
G1 X81.659 Y94.513 E37.62605
G1 X82.55 Y94.433 E37.6558
G1 X127.45 Y94.433 E39.14918
G1 X128.081 Y94.473 E39.17021
G1 X128.702 Y94.592 E39.19124
G1 X129.302 Y94.789 E39.21224
G1 X129.874 Y95.06 E39.2333
G1 X130.406 Y95.4 E39.2543
G1 X130.891 Y95.806 E39.27533
G1 X131.321 Y96.269 E39.29635
G1 X131.69 Y96.783 E39.31739
G1 X131.99 Y97.339 E39.33841
G1 X132.218 Y97.928 E39.35941
G1 X132.37 Y98.542 E39.38045
G1 X132.45 Y99.433 E39.41021
G1 X132.45 Y114.433 E39.90911
G1 X132.41 Y115.064 E39.93014
G1 X132.291 Y115.685 E39.95117
G1 X132.094 Y116.285 E39.97217
G1 X131.823 Y116.857 E39.99322
G1 X131.483 Y117.389 E40.01422
G1 X131.077 Y117.874 E40.03526
G1 X130.614 Y118.304 E40.05628
G1 X130.1 Y118.673 E40.07732
G1 X129.544 Y118.973 E40.09833
G1 X128.955 Y119.201 E40.11934
G1 X128.341 Y119.353 E40.14038
G1 X127.45 Y119.433 E40.17013
G1 X82.55 Y119.433 E41.66351
G1 X81.919 Y119.393 E41.68454
G1 X81.298 Y119.274 E41.70557
G1 X80.698 Y119.077 E41.72658
G1 X80.126 Y118.806 E41.74763
G1 X79.594 Y118.466 E41.76863
G1 X79.109 Y118.06 E41.78967
G1 X78.679 Y117.597 E41.81068
G1 X78.31 Y117.083 E41.83173
G1 X78.01 Y116.527 E41.85274
G1 X77.782 Y115.938 E41.87375
G1 X77.63 Y115.324 E41.89479
G1 X77.55 Y114.433 E41.92454
G1 X77.55 Y99.433 E42.42344
G1 X77.59 Y98.802 E42.44447
G1 X77.709 Y98.181 E42.4655
G1 X77.906 Y97.581 E42.4865
G1 X78.177 Y97.009 E42.50756
G1 X78.517 Y96.477 E42.52856
