;FLAVOR:Marlin
;TIME:2491
;Filament used: 0.69539m
;Layer height: 0.1
;MINX:24.598
;MINY:95.997
;MINZ:0.2
;MAXX:75.096
;MAXY:162.824
;MAXZ:3.575
;Generated with Cura_SteamEngine 4.11.0
M82 ;absolute extrusion mode
G21                                        ; metric values 
G90                                        ; absolute positioning 
M82                                        ; set extruder to absolute mode 
M107                                       ; start with the fan off 
M140 S80           ; Start heating the bed 
G4 S60                                     ; wait 1 minute 
M104 S232.0         ; start heating the hot end 
M190 S80           ; wait for bed 
M109 S232.0         ; wait for hotend 
M300 S1000 P500                            ; BEEP heating done 
G28 X0 Y10 Z0                              ; move X/Y to min endstops 
M420 S1                                    ; Enable leveling 
M420 Z2.0                                  ; Set leveling fading height to 2 mm 
G0 Z0.15                                   ; lift nozzle a bit 
G92 E0                                     ; zero the extruded length 
G1 X50 E25 F500                            ; Extrude 25mm of filament in a 5cm line. 
G92 E0                                     ; zero the extruded length again 
G1 E-2 F500                                ; Retract a little 
G1 X120 F4000                              ; Quickly wipe away from the filament line`
G92 E0
G92 E0
G1 F1500 E-6
;LAYER_COUNT:34
;LAYER:0
M107
M205 X10 Y10
G1 F600 Z0.275
G0 F6000 X31.996 Y96.787 Z0.275
M205 X8 Y8
;TYPE:SKIRT
G1 F600 Z0.2
G1 F1500 E0
G1 F1200 X31.5 Y96.974 E0.01102
G1 X30.943 Y97.22 E0.02368
G1 X30.463 Y97.468 E0.03491
G1 X30.004 Y97.738 E0.04598
G1 X29.55 Y98.04 E0.05731
G1 X29.099 Y98.378 E0.06903
G1 X28.662 Y98.748 E0.08093
G1 X28.167 Y99.22 E0.09515
G1 X27.693 Y99.739 E0.10976
G1 X27.346 Y100.167 E0.12121
G1 X27.018 Y100.627 E0.13296
G1 X26.725 Y101.088 E0.14431
G1 X26.473 Y101.54 E0.15507
G1 X26.206 Y102.088 E0.16774
G1 X25.999 Y102.586 E0.17895
G1 X25.819 Y103.1 E0.19027
G1 X25.668 Y103.622 E0.20157
G1 X25.546 Y104.153 E0.2129
G1 X25.453 Y104.69 E0.22423
G1 X25.393 Y105.213 E0.23517
G1 X25.359 Y105.803 E0.24745
G1 X25.346 Y106.711 E0.26633
G1 X25.346 Y121.032 E0.56403
G1 X25.277 Y124.565 E0.63749
G1 X25.131 Y127.252 E0.69343
G1 X24.895 Y130.049 E0.75177
G1 X24.861 Y130.631 E0.76389
G1 X24.848 Y131.538 E0.78275
G1 X24.848 Y152.208 E1.21243
G1 X24.855 Y152.814 E1.22503
G1 X24.87 Y153.25 E1.2341
G1 X24.91 Y153.764 E1.24481
G1 X24.988 Y154.342 E1.25694
G1 X25.092 Y154.879 E1.26831
G1 X25.23 Y155.421 E1.27993
G1 X25.388 Y155.924 E1.29089
G1 X25.575 Y156.42 E1.30191
G1 X25.82 Y156.974 E1.31451
G1 X26.069 Y157.456 E1.32578
G1 X26.336 Y157.91 E1.33673
G1 X26.641 Y158.37 E1.3482
G1 X26.97 Y158.809 E1.35961
G1 X27.355 Y159.263 E1.37198
G1 X27.821 Y159.753 E1.38604
G1 X28.339 Y160.226 E1.40062
G1 X28.754 Y160.562 E1.41172
G1 X29.235 Y160.907 E1.42403
G1 X29.685 Y161.193 E1.43511
G1 X30.141 Y161.447 E1.44596
G1 X30.687 Y161.713 E1.45859
G1 X31.18 Y161.918 E1.46968
G1 X31.697 Y162.1 E1.48108
G1 X32.223 Y162.252 E1.49246
G1 X32.754 Y162.374 E1.50379
G1 X33.295 Y162.467 E1.5152
G1 X33.814 Y162.527 E1.52606
G1 X34.404 Y162.561 E1.53834
G1 X35.312 Y162.574 E1.55722
G1 X63.979 Y162.574 E2.15314
G1 X64.588 Y162.567 E2.1658
G1 X65.024 Y162.552 E2.17487
G1 X65.538 Y162.512 E2.18558
G1 X66.116 Y162.434 E2.19771
G1 X66.658 Y162.329 E2.20918
G1 X67.196 Y162.192 E2.22072
G1 X67.698 Y162.034 E2.23166
G1 X68.195 Y161.846 E2.24271
G1 X68.751 Y161.601 E2.25534
G1 X69.231 Y161.353 E2.26657
G1 X69.69 Y161.083 E2.27764
G1 X70.144 Y160.781 E2.28898
G1 X70.592 Y160.445 E2.30062
G1 X71.037 Y160.067 E2.31276
G1 X71.527 Y159.601 E2.32681
G1 X72.001 Y159.082 E2.34142
G1 X72.348 Y158.654 E2.35288
G1 X72.676 Y158.194 E2.36462
G1 X72.969 Y157.733 E2.37598
G1 X73.221 Y157.281 E2.38673
G1 X73.488 Y156.733 E2.39941
G1 X73.695 Y156.235 E2.41062
G1 X73.875 Y155.721 E2.42194
G1 X74.026 Y155.198 E2.43325
G1 X74.148 Y154.668 E2.44456
G1 X74.241 Y154.127 E2.45597
G1 X74.301 Y153.608 E2.46683
G1 X74.335 Y153.018 E2.47912
G1 X74.348 Y152.11 E2.49799
G1 X74.348 Y137.789 E2.79569
G1 X74.417 Y134.256 E2.86915
G1 X74.563 Y131.569 E2.92509
G1 X74.799 Y128.771 E2.98346
G1 X74.833 Y128.19 E2.99556
G1 X74.846 Y127.283 E3.01441
G1 X74.846 Y106.613 E3.44409
G1 X74.839 Y105.993 E3.45698
G1 X74.824 Y105.571 E3.46576
G1 X74.784 Y105.057 E3.47648
G1 X74.706 Y104.479 E3.4886
G1 X74.602 Y103.942 E3.49997
G1 X74.464 Y103.399 E3.51162
G1 X74.306 Y102.897 E3.52256
G1 X74.119 Y102.401 E3.53358
G1 X73.873 Y101.844 E3.54623
G1 X73.625 Y101.364 E3.55746
G1 X73.362 Y100.917 E3.56824
G1 X73.037 Y100.429 E3.58043
G1 X72.724 Y100.012 E3.59127
G1 X72.329 Y99.546 E3.60397
G1 X71.865 Y99.06 E3.61794
G1 X71.354 Y98.594 E3.63231
G1 X70.93 Y98.251 E3.64365
G1 X70.466 Y97.919 E3.65551
G1 X70.009 Y97.628 E3.66677
G1 X69.553 Y97.374 E3.67762
G1 X69.005 Y97.107 E3.6903
G1 X68.514 Y96.903 E3.70135
G1 X67.997 Y96.721 E3.71274
G1 X67.471 Y96.569 E3.72412
G1 X66.94 Y96.447 E3.73545
G1 X66.399 Y96.354 E3.74686
G1 X65.88 Y96.294 E3.75772
G1 X65.29 Y96.26 E3.77001
G1 X64.382 Y96.247 E3.78888
G1 X35.715 Y96.247 E4.3848
G1 X35.106 Y96.254 E4.39746
G1 X34.67 Y96.269 E4.40653
G1 X34.156 Y96.309 E4.41725
G1 X33.578 Y96.387 E4.42937
G1 X33.036 Y96.492 E4.44085
G1 X32.498 Y96.629 E4.45239
G1 X31.996 Y96.787 E4.46333
M205 X10 Y10
G0 F6000 X31.908 Y96.553
M205 X8 Y8
G1 F1200 X32.436 Y96.387 E4.47483
G1 X32.979 Y96.249 E4.48648
G1 X33.545 Y96.139 E4.49847
G1 X34.123 Y96.061 E4.51059
G1 X34.661 Y96.019 E4.52181
G1 X35.097 Y96.004 E4.53088
G1 X35.712 Y95.997 E4.54366
G1 X64.386 Y95.997 E5.13973
G1 X65.304 Y96.01 E5.15881
G1 X65.894 Y96.044 E5.1711
G1 X66.432 Y96.106 E5.18235
G1 X66.996 Y96.203 E5.19425
G1 X67.527 Y96.325 E5.20558
G1 X68.076 Y96.484 E5.21746
G1 X68.603 Y96.669 E5.22907
G1 X69.115 Y96.882 E5.2406
G1 X69.663 Y97.149 E5.25327
G1 X70.139 Y97.415 E5.2646
G1 X70.6 Y97.708 E5.27596
G1 X71.083 Y98.053 E5.2883
G1 X71.522 Y98.409 E5.30004
G1 X72.046 Y98.887 E5.31479
G1 X72.52 Y99.384 E5.32907
G1 X72.915 Y99.85 E5.34176
G1 X73.245 Y100.29 E5.3532
G1 X73.57 Y100.778 E5.36539
G1 X73.847 Y101.249 E5.37674
G1 X74.102 Y101.743 E5.3883
G1 X74.348 Y102.3 E5.40096
G1 X74.54 Y102.809 E5.41227
G1 X74.706 Y103.337 E5.42377
G1 X74.844 Y103.88 E5.43542
G1 X74.954 Y104.446 E5.4474
G1 X75.032 Y105.024 E5.45953
G1 X75.074 Y105.562 E5.47075
G1 X75.089 Y105.99 E5.47965
G1 X75.096 Y106.613 E5.4926
G1 X75.096 Y127.287 E5.92236
G1 X75.083 Y128.205 E5.94145
G1 X75.049 Y128.786 E5.95355
G1 X74.812 Y131.586 E6.01196
G1 X74.667 Y134.265 E6.06773
G1 X74.598 Y137.791 E6.14104
G1 X74.598 Y152.114 E6.43878
G1 X74.585 Y153.032 E6.45787
G1 X74.551 Y153.622 E6.47015
G1 X74.489 Y154.16 E6.48141
G1 X74.392 Y154.724 E6.49331
G1 X74.27 Y155.255 E6.50463
G1 X74.111 Y155.804 E6.51651
G1 X73.926 Y156.331 E6.52812
G1 X73.713 Y156.843 E6.53965
G1 X73.446 Y157.391 E6.55232
G1 X73.18 Y157.867 E6.56366
G1 X72.887 Y158.328 E6.57501
G1 X72.542 Y158.811 E6.58735
G1 X72.186 Y159.25 E6.5991
G1 X71.708 Y159.774 E6.61385
G1 X71.199 Y160.258 E6.62845
G1 X70.754 Y160.636 E6.64058
G1 X70.294 Y160.981 E6.65254
G1 X69.817 Y161.298 E6.66444
G1 X69.346 Y161.575 E6.6758
G1 X68.852 Y161.83 E6.68736
G1 X68.295 Y162.076 E6.70002
G1 X67.786 Y162.268 E6.71132
G1 X67.258 Y162.434 E6.72283
G1 X66.715 Y162.572 E6.73448
G1 X66.149 Y162.682 E6.74646
G1 X65.571 Y162.76 E6.75859
G1 X65.033 Y162.802 E6.7698
G1 X64.597 Y162.817 E6.77887
G1 X63.982 Y162.824 E6.79166
G1 X35.308 Y162.824 E7.38772
G1 X34.39 Y162.811 E7.40681
G1 X33.8 Y162.777 E7.41909
G1 X33.262 Y162.715 E7.43035
G1 X32.698 Y162.618 E7.44224
G1 X32.167 Y162.496 E7.45357
G1 X31.618 Y162.337 E7.46545
G1 X31.091 Y162.152 E7.47706
G1 X30.579 Y161.939 E7.48859
G1 X30.031 Y161.672 E7.50126
G1 X29.555 Y161.406 E7.5126
G1 X29.094 Y161.113 E7.52395
G1 X28.608 Y160.765 E7.53638
G1 X28.172 Y160.412 E7.54804
G1 X27.648 Y159.934 E7.56278
G1 X27.164 Y159.425 E7.57738
G1 X26.779 Y158.971 E7.58976
G1 X26.441 Y158.52 E7.60147
G1 X26.123 Y158.041 E7.61343
G1 X25.847 Y157.572 E7.62474
G1 X25.592 Y157.078 E7.63629
G1 X25.346 Y156.521 E7.64895
G1 X25.154 Y156.012 E7.66026
G1 X24.988 Y155.484 E7.67177
G1 X24.85 Y154.941 E7.68341
G1 X24.74 Y154.375 E7.6954
G1 X24.662 Y153.797 E7.70752
G1 X24.62 Y153.259 E7.71874
G1 X24.605 Y152.823 E7.72781
G1 X24.598 Y152.208 E7.74059
G1 X24.598 Y131.534 E8.17036
G1 X24.611 Y130.616 E8.18944
G1 X24.645 Y130.034 E8.20156
G1 X24.882 Y127.235 E8.25995
G1 X25.027 Y124.556 E8.31572
G1 X25.096 Y121.03 E8.38904
G1 X25.096 Y106.707 E8.68678
G1 X25.109 Y105.789 E8.70586
G1 X25.143 Y105.199 E8.71815
G1 X25.205 Y104.661 E8.7294
G1 X25.302 Y104.097 E8.7413
G1 X25.424 Y103.566 E8.75263
G1 X25.583 Y103.017 E8.76451
G1 X25.768 Y102.49 E8.77612
G1 X25.981 Y101.978 E8.78765
G1 X26.248 Y101.43 E8.80032
G1 X26.514 Y100.954 E8.81165
G1 X26.807 Y100.493 E8.82301
G1 X27.152 Y100.01 E8.83535
G1 X27.508 Y99.571 E8.8471
G1 X27.986 Y99.047 E8.86184
G1 X28.501 Y98.557 E8.87662
G1 X28.949 Y98.178 E8.88881
G1 X29.4 Y97.84 E8.90053
G1 X29.877 Y97.523 E8.91244
G1 X30.348 Y97.246 E8.92379
G1 X30.842 Y96.991 E8.93535
G1 X31.399 Y96.745 E8.94801
G1 X31.908 Y96.553 E8.95932
G1 X32.436 Y96.387 E8.97082
G1 X32.979 Y96.249 E8.98247
G1 X33.545 Y96.139 E8.99446
G1 X34.123 Y96.061 E9.00658
G1 X34.661 Y96.019 E9.0178
G1 X35.097 Y96.004 E9.02687
G1 X35.712 Y95.997 E9.03965
G1 X64.386 Y95.997 E9.63571
G1 X65.304 Y96.01 E9.6548
G1 X65.894 Y96.044 E9.66708
G1 X66.432 Y96.106 E9.67834
G1 X66.996 Y96.203 E9.69024
G1 X67.527 Y96.325 E9.70156
G1 X68.076 Y96.484 E9.71345
G1 X68.603 Y96.669 E9.72506
G1 X69.115 Y96.882 E9.73658
G1 X69.663 Y97.149 E9.74926
G1 X70.139 Y97.415 E9.76059
G1 X70.6 Y97.708 E9.77195
G1 X71.083 Y98.053 E9.78428
G1 X71.522 Y98.409 E9.79603
G1 X72.046 Y98.887 E9.81078
G1 X72.52 Y99.384 E9.82505
G1 X72.915 Y99.85 E9.83775
G1 X73.245 Y100.29 E9.84919
G1 X73.57 Y100.778 E9.86137
G1 X73.847 Y101.249 E9.87273
G1 X74.102 Y101.743 E9.88429
G1 X74.348 Y102.3 E9.89695
G1 X74.54 Y102.809 E9.90826
G1 X74.706 Y103.337 E9.91976
G1 X74.844 Y103.88 E9.93141
G1 X74.954 Y104.446 E9.94339
G1 X75.032 Y105.024 E9.95552
G1 X75.074 Y105.562 E9.96674
G1 X75.089 Y105.99 E9.97564
G1 X75.096 Y106.613 E9.98859
G1 X75.096 Y127.287 E10.41835
G1 X75.083 Y128.205 E10.43744
G1 X75.049 Y128.786 E10.44954
G1 X74.812 Y131.586 E10.50795
G1 X74.667 Y134.265 E10.56372
G1 X74.598 Y137.791 E10.63703
G1 X74.598 Y152.114 E10.93477
G1 X74.585 Y153.032 E10.95386
G1 X74.551 Y153.622 E10.96614
G1 X74.489 Y154.16 E10.9774
G1 X74.392 Y154.724 E10.9893
G1 X74.27 Y155.255 E11.00062
G1 X74.111 Y155.804 E11.0125
G1 X73.926 Y156.331 E11.02411
G1 X73.713 Y156.843 E11.03564
G1 X73.446 Y157.391 E11.04831
G1 X73.18 Y157.867 E11.05965
G1 X72.887 Y158.328 E11.071
G1 X72.542 Y158.811 E11.08334
G1 X72.186 Y159.25 E11.09509
G1 X71.708 Y159.774 E11.10983
G1 X71.199 Y160.258 E11.12444
G1 X70.754 Y160.636 E11.13657
G1 X70.294 Y160.981 E11.14853
G1 X69.817 Y161.298 E11.16043
G1 X69.346 Y161.575 E11.17179
G1 X68.852 Y161.83 E11.18335
G1 X68.295 Y162.076 E11.196
G1 X67.786 Y162.268 E11.20731
G1 X67.258 Y162.434 E11.21882
G1 X66.715 Y162.572 E11.23046
G1 X66.149 Y162.682 E11.24245
G1 X65.571 Y162.76 E11.25457
G1 X65.033 Y162.802 E11.26579
G1 X64.597 Y162.817 E11.27486
G1 X63.982 Y162.824 E11.28765
G1 X35.308 Y162.824 E11.88371
G1 X34.39 Y162.811 E11.90279
G1 X33.8 Y162.777 E11.91508
G1 X33.262 Y162.715 E11.92634
G1 X32.698 Y162.618 E11.93823
G1 X32.167 Y162.496 E11.94956
G1 X31.618 Y162.337 E11.96144
G1 X31.091 Y162.152 E11.97305
G1 X30.579 Y161.939 E11.98458
G1 X30.031 Y161.672 E11.99725
G1 X29.555 Y161.406 E12.00859
G1 X29.094 Y161.113 E12.01994
G1 X28.608 Y160.765 E12.03237
G1 X28.172 Y160.412 E12.04403
G1 X27.648 Y159.934 E12.05877
G1 X27.164 Y159.425 E12.07337
G1 X26.779 Y158.971 E12.08575
G1 X26.441 Y158.52 E12.09746
G1 X26.123 Y158.041 E12.10941
G1 X25.847 Y157.572 E12.12073
G1 X25.592 Y157.078 E12.13228
G1 X25.346 Y156.521 E12.14494
G1 X25.154 Y156.012 E12.15625
G1 X24.988 Y155.484 E12.16775
G1 X24.85 Y154.941 E12.1794
G1 X24.74 Y154.375 E12.19139
G1 X24.662 Y153.797 E12.20351
G1 X24.62 Y153.259 E12.21473
G1 X24.605 Y152.823 E12.2238
G1 X24.598 Y152.208 E12.23658
G1 X24.598 Y131.534 E12.66635
G1 X24.611 Y130.616 E12.68543
G1 X24.645 Y130.034 E12.69755
G1 X24.882 Y127.235 E12.75594
G1 X25.027 Y124.556 E12.81171
G1 X25.096 Y121.03 E12.88502
G1 X25.096 Y106.707 E13.18276
G1 X25.109 Y105.789 E13.20185
G1 X25.143 Y105.199 E13.21413
G1 X25.205 Y104.661 E13.22539
G1 X25.302 Y104.097 E13.23729
G1 X25.424 Y103.566 E13.24861
G1 X25.583 Y103.017 E13.2605
G1 X25.768 Y102.49 E13.27211
G1 X25.981 Y101.978 E13.28363
G1 X26.248 Y101.43 E13.29631
G1 X26.514 Y100.954 E13.30764
G1 X26.807 Y100.493 E13.319
G1 X27.152 Y100.01 E13.33133
G1 X27.508 Y99.571 E13.34308
G1 X27.986 Y99.047 E13.35783
G1 X28.501 Y98.557 E13.3726
G1 X28.949 Y98.178 E13.3848
G1 X29.4 Y97.84 E13.39652
G1 X29.877 Y97.523 E13.40842
G1 X30.348 Y97.246 E13.41978
G1 X30.842 Y96.991 E13.43134
G1 X31.399 Y96.745 E13.444
G1 X31.908 Y96.553 E13.45531
M205 X10 Y10
G1 F1500 E7.45531
G1 F600 Z0.275
;MESH:arduino-pro-micro-bit-c-sled.stl(1)
G0 F6000 X64.471 Y127.372 Z0.275
M205 X8 Y8
;TYPE:WALL-INNER
G1 F600 Z0.2
G1 F1500 E13.45531
G1 F1200 X35.721 Y127.372 E13.99318
G1 X35.721 Y106.622 E14.38139
G1 X64.471 Y106.622 E14.91927
G1 X64.471 Y127.372 E15.30748
M205 X10 Y10
G0 F6000 X64.721 Y127.622
M205 X8 Y8
G1 F1200 X35.471 Y127.622 E15.85471
G1 X35.471 Y106.372 E16.25228
G1 X64.721 Y106.372 E16.79951
G1 X64.721 Y127.622 E17.19707
M205 X10 Y10
G0 F6000 X64.971 Y127.872
M205 X8 Y8
;TYPE:WALL-OUTER
G1 F1200 X35.221 Y127.872 E17.75366
G1 X35.221 Y106.122 E18.16058
G1 X64.971 Y106.122 E18.71716
G1 X64.971 Y127.872 E19.12408
M205 X10 Y10
G0 F6000 X64.846 Y127.872
G0 X64.696 Y127.597
G0 X64.231 Y127.132
M205 X8 Y8
;TYPE:SKIN
G1 F1200 X35.961 Y127.132 E19.71175
G1 X35.961 Y106.862 E20.13311
G1 X64.231 Y106.862 E20.72077
G1 X64.231 Y127.132 E21.14214
M205 X10 Y10
G1 F1500 E15.14214
G1 F600 Z0.275
G0 F6000 X63.994 Y107.128 Z0.275
M205 X8 Y8
G1 F600 Z0.2
G1 F1500 E21.14214
G1 F1200 X63.994 Y107.481 E21.14948
G1 X63.611 Y107.098 E21.16074
G1 X63.257 Y107.098 E21.1681
G1 X63.994 Y107.835 E21.18976
G1 X63.994 Y108.188 E21.1971
G1 X62.904 Y107.098 E21.22914
G1 X62.55 Y107.098 E21.2365
G1 X63.994 Y108.542 E21.27895
G1 X63.994 Y108.895 E21.28629
G1 X62.197 Y107.098 E21.33912
G1 X61.843 Y107.098 E21.34648
G1 X63.994 Y109.249 E21.40971
G1 X63.994 Y109.602 E21.41705
G1 X61.49 Y107.098 E21.49066
G1 X61.136 Y107.098 E21.49802
G1 X63.994 Y109.956 E21.58204
G1 X63.994 Y110.31 E21.5894
G1 X60.782 Y107.098 E21.68383
G1 X60.429 Y107.098 E21.69117
G1 X63.994 Y110.663 E21.79597
G1 X63.994 Y111.017 E21.80333
G1 X60.075 Y107.098 E21.91854
G1 X59.722 Y107.098 E21.92588
G1 X63.994 Y111.37 E22.05147
G1 X63.994 Y111.724 E22.05883
G1 X59.368 Y107.098 E22.19482
G1 X59.015 Y107.098 E22.20216
G1 X63.994 Y112.077 E22.34853
G1 X63.994 Y112.431 E22.35589
G1 X58.661 Y107.098 E22.51267
G1 X58.308 Y107.098 E22.52001
G1 X63.994 Y112.784 E22.68717
G1 X63.994 Y113.138 E22.69453
G1 X57.954 Y107.098 E22.87209
G1 X57.6 Y107.098 E22.87945
G1 X63.994 Y113.492 E23.06742
G1 X63.994 Y113.845 E23.07476
G1 X57.247 Y107.098 E23.27311
G1 X56.893 Y107.098 E23.28047
G1 X63.994 Y114.199 E23.48922
G1 X63.994 Y114.552 E23.49656
G1 X56.54 Y107.098 E23.71569
G1 X56.186 Y107.098 E23.72305
G1 X63.994 Y114.906 E23.95259
G1 X63.994 Y115.259 E23.95993
G1 X55.833 Y107.098 E24.19985
G1 X55.479 Y107.098 E24.20721
G1 X63.994 Y115.613 E24.45753
G1 X63.994 Y115.966 E24.46487
G1 X55.126 Y107.098 E24.72557
G1 X54.772 Y107.098 E24.73293
G1 X63.994 Y116.32 E25.00404
G1 X63.994 Y116.674 E25.0114
G1 X54.418 Y107.098 E25.29291
G1 X54.065 Y107.098 E25.30025
G1 X63.994 Y117.027 E25.59215
G1 X63.994 Y117.381 E25.5995
G1 X53.711 Y107.098 E25.90181
G1 X53.358 Y107.098 E25.90914
G1 X63.994 Y117.734 E26.22182
G1 X63.994 Y118.088 E26.22918
G1 X53.004 Y107.098 E26.55227
G1 X52.651 Y107.098 E26.5596
G1 X63.994 Y118.441 E26.89307
G1 X63.994 Y118.795 E26.90042
