;FLAVOR:Marlin
;TIME:15506
;Filament used: 13.55m
;Layer height: 0.3
;MINX:44
;MINY:55.5
;MINZ:0.2
;MAXX:166
;MAXY:154.5
;MAXZ:19.175
;Generated with Cura_SteamEngine 4.11.0
M82 ;absolute extrusion mode
G21                                        ; metric values 
G90                                        ; absolute positioning 
M82                                        ; set extruder to absolute mode 
M107                                       ; start with the fan off 
M140 S80           ; Start heating the bed 
G4 S60                                     ; wait 1 minute 
M104 S232.0         ; start heating the hot end 
M190 S80           ; wait for bed 
M109 S232.0         ; wait for hotend 
M300 S1000 P500                            ; BEEP heating done 
G28 X0 Y10 Z0                              ; move X/Y to min endstops 
M420 S1                                    ; Enable leveling 
M420 Z2.0                                  ; Set leveling fading height to 2 mm 
G0 Z0.15                                   ; lift nozzle a bit 
G92 E0                                     ; zero the extruded length 
G1 X50 E25 F500                            ; Extrude 25mm of filament in a 5cm line. 
G92 E0                                     ; zero the extruded length again 
G1 E-2 F500                                ; Retract a little 
G1 X120 F4000                              ; Quickly wipe away from the filament line`
G92 E0
G92 E0
G1 F1500 E-6
;LAYER_COUNT:64
;LAYER:0
M107
M205 X10 Y10
G1 F600 Z0.275
G0 F6000 X48.697 Y58.517 Z0.275
M205 X8 Y8
;TYPE:SKIRT
G1 F600 Z0.2
G1 F1500 E0
G1 F1200 X49.372 Y57.999 E0.01769
G1 X49.844 Y57.665 E0.02971
G1 X50.453 Y57.288 E0.0446
G1 X50.899 Y57.037 E0.05523
G1 X51.686 Y56.657 E0.0734
G1 X52.318 Y56.393 E0.08764
G1 X52.457 Y56.341 E0.09072
G1 X53.093 Y56.123 E0.1047
G1 X53.576 Y55.979 E0.11518
G1 X54.207 Y55.821 E0.1287
G1 X55.062 Y55.66 E0.14679
G1 X55.631 Y55.589 E0.15871
G1 X55.722 Y55.58 E0.16061
G1 X56.488 Y55.527 E0.17657
G1 X57.028 Y55.505 E0.1878
G1 X57.82 Y55.5 E0.20427
G1 X152.118 Y55.5 E2.16449
G1 X152.688 Y55.504 E2.17634
G1 X153.638 Y55.531 E2.1961
G1 X154.088 Y55.563 E2.20548
G1 X154.73 Y55.63 E2.2189
G1 X155.366 Y55.736 E2.2323
G1 X156.205 Y55.923 E2.25017
G1 X156.608 Y56.03 E2.25884
G1 X157.563 Y56.343 E2.27973
G1 X158.03 Y56.528 E2.29017
G1 X158.492 Y56.732 E2.30067
G1 X159.266 Y57.133 E2.31879
G1 X159.623 Y57.338 E2.32734
G1 X160.221 Y57.708 E2.34196
G1 X160.755 Y58.082 E2.35552
G1 X161.136 Y58.387 E2.36566
G1 X161.723 Y58.888 E2.3817
G1 X162.018 Y59.159 E2.39003
G1 X162.465 Y59.609 E2.40322
G1 X162.73 Y59.903 E2.41144
G1 X163.092 Y60.329 E2.42306
G1 X163.408 Y60.739 E2.43382
G1 X163.538 Y60.922 E2.43849
G1 X163.963 Y61.548 E2.45422
G1 X164.097 Y61.761 E2.45945
G1 X164.452 Y62.379 E2.47427
G1 X164.679 Y62.823 E2.48463
G1 X164.895 Y63.293 E2.49538
G1 X165.166 Y63.983 E2.51079
G1 X165.37 Y64.572 E2.52375
G1 X165.515 Y65.057 E2.53428
G1 X165.682 Y65.722 E2.54853
G1 X165.84 Y66.56 E2.56626
G1 X165.911 Y67.13 E2.5782
G1 X165.964 Y67.843 E2.59306
G1 X165.998 Y69.066 E2.61849
G1 X166 Y69.33 E2.62398
G1 X166 Y140.534 E4.10414
G1 X165.997 Y141.076 E4.11541
G1 X165.958 Y142.308 E4.14103
G1 X165.945 Y142.489 E4.1448
G1 X165.837 Y143.389 E4.16364
G1 X165.748 Y143.938 E4.17521
G1 X165.655 Y144.403 E4.18506
G1 X165.435 Y145.233 E4.20291
G1 X165.173 Y146.015 E4.22006
G1 X165.025 Y146.395 E4.22853
G1 X164.814 Y146.889 E4.2397
G1 X164.615 Y147.286 E4.24893
G1 X164.179 Y148.082 E4.2678
G1 X163.881 Y148.582 E4.2799
G1 X163.423 Y149.243 E4.29661
G1 X163.298 Y149.406 E4.30088
G1 X162.837 Y149.967 E4.31598
G1 X162.711 Y150.11 E4.31994
G1 X162.269 Y150.584 E4.33341
G1 X161.834 Y151.014 E4.34613
G1 X161.666 Y151.166 E4.35084
G1 X161.142 Y151.609 E4.3651
G1 X160.919 Y151.786 E4.37102
G1 X160.317 Y152.22 E4.38645
G1 X159.823 Y152.542 E4.3987
G1 X159.717 Y152.605 E4.40127
G1 X158.881 Y153.064 E4.42109
G1 X158.816 Y153.099 E4.42263
G1 X158.115 Y153.425 E4.4387
G1 X158.051 Y153.452 E4.44014
G1 X157.23 Y153.766 E4.45842
G1 X156.693 Y153.945 E4.47018
G1 X156.424 Y154.021 E4.47599
G1 X155.793 Y154.179 E4.48951
G1 X154.938 Y154.34 E4.5076
G1 X154.369 Y154.411 E4.51952
G1 X154.278 Y154.42 E4.52142
G1 X153.512 Y154.473 E4.53738
G1 X152.972 Y154.495 E4.54862
G1 X152.18 Y154.5 E4.56508
G1 X57.882 Y154.5 E6.52531
G1 X57.312 Y154.496 E6.53716
G1 X56.377 Y154.47 E6.5566
G1 X55.915 Y154.436 E6.56623
G1 X55.278 Y154.369 E6.57955
G1 X55.051 Y154.337 E6.58431
G1 X54.129 Y154.162 E6.60382
G1 X53.409 Y153.98 E6.61926
G1 X52.944 Y153.832 E6.6294
G1 X52.239 Y153.575 E6.645
G1 X52.18 Y153.551 E6.64632
G1 X51.239 Y153.139 E6.66768
G1 X50.793 Y152.903 E6.67817
G1 X50.6 Y152.792 E6.6828
G1 X50.046 Y152.462 E6.6962
G1 X49.817 Y152.317 E6.70184
G1 X49.341 Y151.985 E6.7139
G1 X48.799 Y151.568 E6.72811
G1 X48.681 Y151.469 E6.73132
G1 X48.178 Y151.016 E6.74539
G1 X47.81 Y150.657 E6.75608
G1 X47.245 Y150.066 E6.77307
G1 X47.199 Y150.015 E6.7745
G1 X46.832 Y149.574 E6.78643
G1 X46.392 Y148.977 E6.80184
G1 X45.978 Y148.361 E6.81727
G1 X45.885 Y148.209 E6.82098
G1 X45.402 Y147.323 E6.84195
G1 X45.365 Y147.249 E6.84367
G1 X45.079 Y146.635 E6.85775
G1 X44.866 Y146.113 E6.86947
G1 X44.636 Y145.447 E6.88412
G1 X44.487 Y144.953 E6.89484
G1 X44.328 Y144.325 E6.90831
G1 X44.16 Y143.437 E6.9271
G1 X44.088 Y142.854 E6.93931
G1 X44.028 Y142.021 E6.95667
G1 X44.005 Y141.42 E6.96917
G1 X44 Y140.787 E6.98233
G1 X44 Y69.357 E8.46719
G1 X44.004 Y68.967 E8.4753
G1 X44.046 Y67.691 E8.50184
G1 X44.05 Y67.625 E8.50321
G1 X44.139 Y66.736 E8.52178
G1 X44.272 Y65.933 E8.5387
G1 X44.325 Y65.688 E8.54391
G1 X44.47 Y65.096 E8.55658
G1 X44.558 Y64.791 E8.56318
G1 X44.844 Y63.942 E8.58181
G1 X45.037 Y63.46 E8.5926
G1 X45.346 Y62.784 E8.60805
G1 X45.434 Y62.609 E8.61212
G1 X45.849 Y61.858 E8.62996
G1 X46.119 Y61.416 E8.64072
G1 X46.559 Y60.784 E8.65673
G1 X46.869 Y60.376 E8.66738
G1 X47.197 Y59.985 E8.67799
G1 X47.245 Y59.931 E8.6795
G1 X48.037 Y59.11 E8.70321
G1 X48.507 Y58.676 E8.71651
G1 X48.697 Y58.517 E8.72166
M205 X10 Y10
G0 F6000 X48.849 Y58.715
M205 X8 Y8
G1 F1200 X49.518 Y58.202 E8.73918
G1 X49.985 Y57.872 E8.75107
G1 X50.581 Y57.502 E8.76565
G1 X51.417 Y57.058 E8.78533
G1 X52.165 Y56.723 E8.80237
G1 X52.538 Y56.578 E8.81069
G1 X53.168 Y56.362 E8.82453
G1 X53.637 Y56.222 E8.8347
G1 X54.26 Y56.065 E8.84806
G1 X55.104 Y55.906 E8.86591
G1 X55.739 Y55.83 E8.87921
G1 X56.498 Y55.777 E8.89502
G1 X57.031 Y55.755 E8.90611
G1 X57.821 Y55.75 E8.92254
G1 X152.116 Y55.75 E10.8827
G1 X152.681 Y55.754 E10.89445
G1 X153.664 Y55.783 E10.91489
G1 X154.062 Y55.812 E10.92318
G1 X154.696 Y55.878 E10.93644
G1 X155.319 Y55.981 E10.94956
G1 X156.142 Y56.165 E10.96709
G1 X156.531 Y56.267 E10.97545
G1 X157.486 Y56.58 E10.99634
G1 X157.958 Y56.769 E11.00691
G1 X158.776 Y57.154 E11.02571
G1 X159.471 Y57.538 E11.04221
G1 X160.08 Y57.914 E11.05709
G1 X160.608 Y58.284 E11.07049
G1 X160.974 Y58.577 E11.08024
G1 X161.554 Y59.073 E11.0961
G1 X161.841 Y59.335 E11.10418
G1 X162.279 Y59.776 E11.1171
G1 X162.539 Y60.065 E11.12518
G1 X162.896 Y60.485 E11.13664
G1 X163.205 Y60.884 E11.14713
G1 X163.332 Y61.063 E11.15169
G1 X163.752 Y61.682 E11.16724
G1 X163.881 Y61.886 E11.17226
G1 X164.212 Y62.46 E11.18603
G1 X164.451 Y62.928 E11.19696
G1 X164.681 Y63.43 E11.20844
G1 X164.932 Y64.07 E11.22273
G1 X165.125 Y64.628 E11.235
G1 X165.272 Y65.118 E11.24564
G1 X165.438 Y65.775 E11.25972
G1 X165.594 Y66.601 E11.2772
G1 X165.666 Y67.196 E11.28966
G1 X165.714 Y67.85 E11.30329
G1 X165.748 Y69.068 E11.32862
G1 X165.75 Y69.332 E11.3341
G1 X165.75 Y140.532 E12.81418
G1 X165.747 Y141.068 E12.82532
G1 X165.708 Y142.293 E12.8508
G1 X165.697 Y142.459 E12.85426
G1 X165.59 Y143.349 E12.87289
G1 X165.503 Y143.89 E12.88428
G1 X165.413 Y144.339 E12.8938
G1 X165.195 Y145.161 E12.91148
G1 X164.938 Y145.931 E12.92836
G1 X164.795 Y146.297 E12.93652
G1 X164.584 Y146.791 E12.94769
G1 X164.396 Y147.166 E12.95641
G1 X163.964 Y147.954 E12.97509
G1 X163.67 Y148.448 E12.98704
G1 X163.22 Y149.097 E13.00346
G1 X163.105 Y149.247 E13.00739
G1 X162.648 Y149.802 E13.02233
G1 X162.528 Y149.939 E13.02612
G1 X162.091 Y150.407 E13.03943
G1 X161.661 Y150.834 E13.05203
G1 X161.505 Y150.975 E13.0564
G1 X160.986 Y151.414 E13.07053
G1 X160.773 Y151.583 E13.07618
G1 X160.177 Y152.013 E13.09146
G1 X159.689 Y152.331 E13.10357
G1 X159.596 Y152.386 E13.10581
G1 X158.761 Y152.845 E13.12562
G1 X158.71 Y152.872 E13.12682
G1 X158.009 Y153.198 E13.14289
G1 X157.173 Y153.52 E13.16151
G1 X156.617 Y153.706 E13.1737
G1 X156.363 Y153.778 E13.17919
G1 X155.74 Y153.935 E13.19254
G1 X154.896 Y154.094 E13.2104
G1 X154.261 Y154.17 E13.22369
G1 X153.502 Y154.223 E13.23951
G1 X152.969 Y154.245 E13.2506
G1 X152.179 Y154.25 E13.26702
G1 X57.884 Y154.25 E15.22718
G1 X57.319 Y154.246 E15.23893
G1 X56.351 Y154.218 E15.25906
G1 X55.941 Y154.188 E15.26761
G1 X55.334 Y154.124 E15.28029
G1 X55.098 Y154.091 E15.28525
G1 X54.184 Y153.918 E15.30458
G1 X53.48 Y153.74 E15.31968
G1 X53.029 Y153.597 E15.32951
G1 X52.324 Y153.34 E15.34511
G1 X51.339 Y152.91 E15.36745
G1 X50.736 Y152.582 E15.38172
G1 X50.179 Y152.251 E15.39519
G1 X49.96 Y152.111 E15.4006
G1 X49.476 Y151.774 E15.41286
G1 X48.93 Y151.352 E15.4272
G1 X48.848 Y151.283 E15.42943
G1 X48.353 Y150.836 E15.44329
G1 X47.991 Y150.484 E15.45379
G1 X47.426 Y149.893 E15.47079
G1 X47.392 Y149.855 E15.47185
G1 X46.996 Y149.378 E15.48473
G1 X46.58 Y148.811 E15.49935
G1 X46.188 Y148.225 E15.51401
G1 X46.104 Y148.089 E15.51733
G1 X45.621 Y147.203 E15.53831
G1 X45.591 Y147.143 E15.5397
G1 X45.309 Y146.537 E15.5536
G1 X45.099 Y146.021 E15.56518
G1 X44.867 Y145.348 E15.57997
G1 X44.722 Y144.863 E15.5905
G1 X44.565 Y144.239 E15.60387
G1 X44.406 Y143.396 E15.62171
G1 X44.336 Y142.824 E15.63369
G1 X44.277 Y141.981 E15.65125
G1 X44.255 Y141.42 E15.66292
G1 X44.25 Y140.786 E15.6761
G1 X44.25 Y69.359 E17.1609
G1 X44.253 Y68.975 E17.16888
G1 X44.295 Y67.699 E17.19542
G1 X44.387 Y66.77 E17.21483
G1 X44.518 Y65.98 E17.23147
G1 X44.568 Y65.747 E17.23643
G1 X44.712 Y65.161 E17.24897
G1 X44.795 Y64.871 E17.25524
G1 X45.079 Y64.029 E17.27371
G1 X45.266 Y63.561 E17.28419
G1 X45.572 Y62.891 E17.2995
G1 X45.653 Y62.73 E17.30325
G1 X46.064 Y61.985 E17.32093
G1 X46.33 Y61.55 E17.33153
G1 X46.762 Y60.93 E17.34724
G1 X47.096 Y60.492 E17.35869
G1 X47.425 Y60.105 E17.36925
G1 X48.209 Y59.291 E17.39274
G1 X48.673 Y58.863 E17.40587
G1 X48.849 Y58.715 E17.41065
M205 X10 Y10
G0 F6000 X49.001 Y58.913
M205 X8 Y8
G1 F1200 X49.665 Y58.404 E17.42804
G1 X50.126 Y58.078 E17.43978
G1 X50.71 Y57.716 E17.45406
G1 X51.528 Y57.282 E17.47331
G1 X52.264 Y56.953 E17.49007
G1 X52.619 Y56.814 E17.49799
G1 X53.243 Y56.6 E17.5117
G1 X53.698 Y56.464 E17.52158
G1 X54.313 Y56.309 E17.53476
G1 X55.145 Y56.153 E17.55236
G1 X55.757 Y56.079 E17.56517
G1 X56.509 Y56.026 E17.58084
G1 X57.035 Y56.005 E17.59179
G1 X57.823 Y56 E17.60817
G1 X152.115 Y56 E19.56827
G1 X152.674 Y56.004 E19.57989
G1 X153.646 Y56.032 E19.6001
G1 X154.037 Y56.061 E19.60825
G1 X154.662 Y56.126 E19.62132
G1 X155.272 Y56.227 E19.63417
G1 X156.08 Y56.407 E19.65138
G1 X156.453 Y56.505 E19.6594
G1 X157.439 Y56.829 E19.68097
G1 X158.209 Y57.152 E19.69833
G1 X158.664 Y57.377 E19.70888
G1 X159.347 Y57.755 E19.72511
G1 X159.939 Y58.121 E19.73957
G1 X160.461 Y58.486 E19.75282
G1 X160.812 Y58.767 E19.76216
G1 X161.386 Y59.258 E19.77786
G1 X161.664 Y59.512 E19.78569
G1 X162.093 Y59.943 E19.79833
G1 X162.349 Y60.227 E19.80628
G1 X162.7 Y60.641 E19.81756
G1 X163.118 Y61.194 E19.83197
G1 X163.541 Y61.817 E19.84763
G1 X163.664 Y62.011 E19.8524
G1 X164.007 Y62.607 E19.8667
G1 X164.224 Y63.032 E19.87662
G1 X164.449 Y63.523 E19.88784
G1 X164.698 Y64.158 E19.90202
G1 X164.893 Y64.722 E19.91443
G1 X165.03 Y65.179 E19.92435
G1 X165.193 Y65.829 E19.93828
G1 X165.347 Y66.643 E19.9555
G1 X165.417 Y67.214 E19.96746
G1 X165.464 Y67.857 E19.98086
G1 X165.498 Y69.07 E20.00608
G1 X165.5 Y69.334 E20.01157
G1 X165.5 Y140.531 E21.49159
G1 X165.497 Y141.06 E21.50258
G1 X165.459 Y142.277 E21.52789
G1 X165.449 Y142.43 E21.53108
G1 X165.344 Y143.31 E21.5495
G1 X165.258 Y143.841 E21.56068
G1 X165.171 Y144.275 E21.56989
G1 X164.956 Y145.089 E21.58739
G1 X164.703 Y145.847 E21.604
G1 X164.565 Y146.198 E21.61184
G1 X164.341 Y146.721 E21.62367
G1 X164.177 Y147.046 E21.63123
G1 X163.75 Y147.826 E21.64972
G1 X163.458 Y148.315 E21.66156
G1 X163.018 Y148.95 E21.67762
G1 X162.911 Y149.088 E21.68125
G1 X162.46 Y149.637 E21.69602
G1 X162.345 Y149.769 E21.69966
G1 X161.914 Y150.231 E21.71279
G1 X161.488 Y150.653 E21.72526
G1 X161.343 Y150.785 E21.72933
G1 X160.83 Y151.219 E21.7433
G1 X160.627 Y151.38 E21.74869
G1 X160.036 Y151.806 E21.76383
G1 X159.555 Y152.12 E21.77577
G1 X159.475 Y152.167 E21.7777
G1 X158.605 Y152.645 E21.79833
G1 X157.872 Y152.985 E21.81513
G1 X157.067 Y153.293 E21.83305
G1 X156.541 Y153.468 E21.84457
G1 X156.302 Y153.536 E21.84974
G1 X155.687 Y153.691 E21.86292
G1 X154.855 Y153.847 E21.88052
G1 X154.243 Y153.921 E21.89333
G1 X153.491 Y153.974 E21.909
G1 X152.965 Y153.995 E21.91995
G1 X152.177 Y154 E21.93633
G1 X57.885 Y154 E23.89643
G1 X57.326 Y153.996 E23.90805
G1 X56.369 Y153.969 E23.92795
G1 X55.968 Y153.939 E23.93631
G1 X55.345 Y153.873 E23.94934
G1 X55.144 Y153.845 E23.95355
G1 X54.199 Y153.665 E23.97355
G1 X53.55 Y153.5 E23.98747
G1 X53.115 Y153.362 E23.99696
G1 X52.38 Y153.093 E24.01323
G1 X51.439 Y152.681 E24.03458
G1 X50.861 Y152.365 E24.04828
G1 X50.312 Y152.039 E24.06155
G1 X50.102 Y151.906 E24.06672
G1 X49.637 Y151.583 E24.07849
G1 X49.09 Y151.16 E24.09286
G1 X49.015 Y151.097 E24.0949
G1 X48.527 Y150.657 E24.10855
G1 X48.172 Y150.312 E24.11884
G1 X47.584 Y149.695 E24.13656
G1 X47.198 Y149.23 E24.14912
G1 X46.786 Y148.669 E24.16359
G1 X46.397 Y148.088 E24.17813
G1 X46.324 Y147.969 E24.18103
G1 X45.824 Y147.05 E24.20278
G1 X45.539 Y146.439 E24.21679
G1 X45.332 Y145.93 E24.22822
G1 X45.105 Y145.273 E24.24267
G1 X44.964 Y144.802 E24.25289
G1 X44.809 Y144.186 E24.26609
G1 X44.653 Y143.354 E24.28369
G1 X44.582 Y142.769 E24.29594
G1 X44.526 Y141.971 E24.31257
G1 X44.505 Y141.42 E24.32403
G1 X44.5 Y140.785 E24.33723
G1 X44.5 Y69.361 E25.82196
G1 X44.503 Y68.984 E25.8298
G1 X44.547 Y67.674 E25.85705
G1 X44.635 Y66.804 E25.87522
G1 X44.764 Y66.026 E25.89162
G1 X44.811 Y65.807 E25.89627
G1 X44.953 Y65.225 E25.90873
G1 X45.032 Y64.95 E25.91467
G1 X45.313 Y64.116 E25.93297
G1 X45.645 Y63.319 E25.95092
G1 X45.864 Y62.867 E25.96136
G1 X46.272 Y62.125 E25.97896
G1 X46.542 Y61.683 E25.98973
G1 X46.965 Y61.075 E26.00512
G1 X47.3 Y60.639 E26.01655
G1 X47.605 Y60.278 E26.02638
G1 X48.381 Y59.473 E26.04962
G1 X48.84 Y59.05 E26.0626
G1 X49.001 Y58.913 E26.06699
M205 X10 Y10
G0 F6000 X49.154 Y59.112
M205 X8 Y8
G1 F1200 X49.811 Y58.607 E26.08422
G1 X50.267 Y58.285 E26.09582
G1 X50.838 Y57.931 E26.10979
G1 X51.64 Y57.505 E26.12866
G1 X52.362 Y57.182 E26.14511
G1 X52.701 Y57.051 E26.15266
G1 X53.318 Y56.839 E26.16622
G1 X53.759 Y56.707 E26.17579
G1 X54.366 Y56.554 E26.1888
G1 X55.187 Y56.399 E26.20617
G1 X55.774 Y56.329 E26.21846
G1 X56.519 Y56.276 E26.23399
G1 X57.038 Y56.255 E26.24478
G1 X57.824 Y56.25 E26.26112
G1 X152.113 Y56.25 E28.22116
G1 X152.667 Y56.254 E28.23268
G1 X153.628 Y56.282 E28.25267
G1 X154.011 Y56.309 E28.26065
G1 X154.627 Y56.373 E28.27352
G1 X155.225 Y56.472 E28.28612
G1 X156.017 Y56.649 E28.30299
G1 X156.375 Y56.742 E28.31068
G1 X157.345 Y57.061 E28.33191
G1 X158.108 Y57.381 E28.34911
G1 X158.557 Y57.604 E28.35953
G1 X159.222 Y57.972 E28.37533
G1 X159.797 Y58.327 E28.38937
G1 X160.314 Y58.689 E28.40249
G1 X160.649 Y58.957 E28.41141
G1 X161.217 Y59.442 E28.42694
G1 X161.487 Y59.688 E28.43453
G1 X161.908 Y60.111 E28.44694
G1 X162.158 Y60.389 E28.45471
G1 X162.505 Y60.796 E28.46583
G1 X162.915 Y61.339 E28.47997
G1 X163.33 Y61.951 E28.49534
G1 X163.448 Y62.136 E28.4999
G1 X163.784 Y62.721 E28.51393
G1 X163.997 Y63.137 E28.52364
G1 X164.218 Y63.617 E28.53463
G1 X164.464 Y64.246 E28.54867
G1 X164.654 Y64.798 E28.5608
G1 X164.787 Y65.24 E28.5704
G1 X164.949 Y65.882 E28.58416
G1 X165.101 Y66.684 E28.60113
G1 X165.167 Y67.233 E28.61263
G1 X165.214 Y67.864 E28.62578
G1 X165.248 Y69.072 E28.6509
