;FLAVOR:Marlin
;TIME:1102
;Filament used: 0.419344m
;Layer height: 0.1
;MINX:75.15
;MINY:41.254
;MINZ:0.3
;MAXX:134.85
;MAXY:71.054
;MAXZ:3
;Generated with Cura_SteamEngine 4.11.0
M82 ;absolute extrusion mode
G21                                        ; metric values 
G90                                        ; absolute positioning 
M82                                        ; set extruder to absolute mode 
M107                                       ; start with the fan off 
M140 S80.0           ; Start heating the bed 
G4 S60                                     ; wait 1 minute 
M104 S240.0         ; start heating the hot end 
M190 S80.0           ; wait for bed 
M109 S240.0         ; wait for hotend 
M300 S1000 P500                            ; BEEP heating done 
G28 X0 Y10 Z0                              ; move X/Y to min endstops 
M420 S1                                    ; Enable leveling 
M420 Z2.0                                  ; Set leveling fading height to 2 mm 
G0 Z0.15                                   ; lift nozzle a bit 
G92 E0                                     ; zero the extruded length 
G1 X50 E25 F500                            ; Extrude 25mm of filament in a 5cm line. 
G92 E0                                     ; zero the extruded length again 
G1 E-2 F500                                ; Retract a little 
G1 X120 F4000                              ; Quickly wipe away from the filament line`
G92 E0
G92 E0
;LAYER_COUNT:28
;LAYER:0
M106 S76.5
M205 X10 Y10
G0 F6000 X76.18 Y44.195 Z0.3
M205 X8 Y8
;TYPE:SKIRT
G1 F1200 X76.6 Y43.617 E0.03565
G1 X77.083 Y43.089 E0.07135
G1 X77.621 Y42.618 E0.10702
G1 X78.209 Y42.21 E0.14273
G1 X78.838 Y41.87 E0.1784
G1 X79.502 Y41.603 E0.2141
G1 X80.191 Y41.411 E0.24979
G1 X80.897 Y41.297 E0.28547
G1 X81.701 Y41.257 E0.32563
G1 X81.88 Y41.254 E0.33456
G1 X127.743 Y41.254 E2.62267
G1 X128.533 Y41.265 E2.66209
G1 X129.246 Y41.315 E2.69775
G1 X129.95 Y41.444 E2.73346
G1 X130.634 Y41.652 E2.76912
G1 X131.291 Y41.934 E2.80479
G1 X131.913 Y42.288 E2.8405
G1 X132.491 Y42.709 E2.87617
G1 X133.019 Y43.192 E2.91188
G1 X133.489 Y43.73 E2.94752
G1 X133.897 Y44.318 E2.98322
G1 X134.236 Y44.948 E3.01891
G1 X134.503 Y45.611 E3.05457
G1 X134.694 Y46.301 E3.09029
G1 X134.807 Y47.007 E3.12596
G1 X134.847 Y47.804 E3.16578
G1 X134.85 Y47.984 E3.17476
G1 X134.85 Y63.997 E3.97365
G1 X134.841 Y64.724 E4.00992
G1 X134.792 Y65.438 E4.04563
G1 X134.664 Y66.142 E4.08133
G1 X134.458 Y66.827 E4.11701
G1 X134.177 Y67.484 E4.15266
G1 X133.824 Y68.107 E4.18839
G1 X133.404 Y68.686 E4.22407
G1 X132.922 Y69.214 E4.25974
G1 X132.385 Y69.686 E4.29541
G1 X131.797 Y70.094 E4.33111
G1 X131.168 Y70.435 E4.36681
G1 X130.505 Y70.703 E4.40249
G1 X129.816 Y70.895 E4.43817
G1 X129.11 Y71.01 E4.47386
G1 X128.299 Y71.051 E4.51437
G1 X128.12 Y71.054 E4.5233
G1 X82.174 Y71.053 E6.81556
G1 X81.476 Y71.044 E6.85038
G1 X80.763 Y70.995 E6.88604
G1 X80.059 Y70.867 E6.92174
G1 X79.374 Y70.661 E6.95743
G1 X78.717 Y70.379 E6.99309
G1 X78.095 Y70.026 E7.02878
G1 X77.516 Y69.606 E7.06446
G1 X76.987 Y69.124 E7.10017
G1 X76.516 Y68.586 E7.13584
G1 X76.108 Y67.999 E7.1715
G1 X75.768 Y67.369 E7.20722
G1 X75.5 Y66.706 E7.2429
G1 X75.308 Y66.017 E7.27858
G1 X75.194 Y65.311 E7.31426
G1 X75.152 Y64.485 E7.35552
G1 X75.15 Y64.312 E7.36415
G1 X75.151 Y48.241 E8.16594
G1 X75.16 Y47.576 E8.19912
G1 X75.209 Y46.863 E8.23478
G1 X75.338 Y46.159 E8.27048
G1 X75.545 Y45.475 E8.30614
G1 X75.827 Y44.817 E8.34185
G1 X76.18 Y44.195 E8.37753
M205 X10 Y10
G0 F6000 X76.577 Y44.32
M205 X8 Y8
G1 F1200 X76.995 Y43.768 E8.41208
G1 X77.474 Y43.268 E8.44662
G1 X78.008 Y42.827 E8.48117
G1 X78.589 Y42.45 E8.51573
G1 X79.209 Y42.142 E8.55027
G1 X79.861 Y41.908 E8.58483
G1 X80.535 Y41.751 E8.61935
G1 X81.391 Y41.665 E8.66227
G1 X81.88 Y41.654 E8.68668
G1 X127.743 Y41.654 E10.97479
G1 X128.527 Y41.665 E11.01391
G1 X129.218 Y41.714 E11.04847
G1 X129.898 Y41.844 E11.08301
G1 X130.559 Y42.05 E11.11755
G1 X131.192 Y42.332 E11.15212
G1 X131.788 Y42.684 E11.18666
G1 X132.339 Y43.103 E11.22119
G1 X132.839 Y43.583 E11.25577
G1 X133.28 Y44.117 E11.29032
G1 X133.657 Y44.698 E11.32488
G1 X133.964 Y45.319 E11.35944
G1 X134.197 Y45.971 E11.39398
G1 X134.354 Y46.645 E11.42851
G1 X134.439 Y47.495 E11.47112
G1 X134.45 Y47.984 E11.49553
G1 X134.45 Y63.992 E12.29417
G1 X134.441 Y64.719 E12.33044
G1 X134.392 Y65.41 E12.365
G1 X134.264 Y66.091 E12.39957
G1 X134.059 Y66.752 E12.4341
G1 X133.779 Y67.385 E12.46863
G1 X133.427 Y67.982 E12.50321
G1 X133.01 Y68.535 E12.53776
G1 X132.531 Y69.035 E12.57231
G1 X131.998 Y69.477 E12.60685
G1 X131.417 Y69.855 E12.64143
G1 X130.797 Y70.163 E12.67597
G1 X130.146 Y70.398 E12.7105
G1 X129.471 Y70.556 E12.74509
G1 X128.609 Y70.643 E12.78831
G1 X128.12 Y70.654 E12.81271
G1 X82.18 Y70.654 E15.10467
G1 X81.482 Y70.645 E15.1395
G1 X80.791 Y70.596 E15.17406
G1 X80.11 Y70.467 E15.20864
G1 X79.449 Y70.262 E15.24316
G1 X78.816 Y69.981 E15.27772
G1 X78.219 Y69.63 E15.31227
G1 X77.667 Y69.212 E15.34681
G1 X77.167 Y68.733 E15.38136
G1 X76.725 Y68.199 E15.41594
G1 X76.348 Y67.619 E15.45045
G1 X76.04 Y66.998 E15.48503
G1 X75.805 Y66.347 E15.51956
G1 X75.648 Y65.672 E15.55414
G1 X75.561 Y64.807 E15.59751
G1 X75.55 Y64.312 E15.62221
G1 X75.551 Y48.247 E16.4237
G1 X75.56 Y47.582 E16.45688
G1 X75.609 Y46.891 E16.49144
G1 X75.737 Y46.211 E16.52596
G1 X75.944 Y45.549 E16.56057
G1 X76.225 Y44.916 E16.59512
G1 X76.577 Y44.32 E16.62965
M205 X10 Y10
G0 F6000 X76.973 Y44.449
M205 X8 Y8
G1 F1200 X77.389 Y43.925 E16.66303
G1 X77.864 Y43.455 E16.69637
G1 X78.393 Y43.044 E16.72979
G1 X78.966 Y42.699 E16.76316
G1 X79.577 Y42.426 E16.79655
G1 X80.215 Y42.227 E16.82989
G1 X80.873 Y42.105 E16.86328
G1 X81.402 Y42.065 E16.88974
G1 X81.88 Y42.054 E16.9136
G1 X127.743 Y42.054 E19.20171
G1 X128.521 Y42.065 E19.24053
G1 X129.188 Y42.114 E19.2739
G1 X129.845 Y42.243 E19.3073
G1 X130.481 Y42.449 E19.34065
G1 X131.089 Y42.73 E19.37407
G1 X131.658 Y43.08 E19.4074
G1 X132.182 Y43.497 E19.44081
G1 X132.652 Y43.973 E19.47418
G1 X133.062 Y44.501 E19.50753
G1 X133.407 Y45.075 E19.54094
G1 X133.68 Y45.686 E19.57433
G1 X133.878 Y46.325 E19.60771
G1 X133.999 Y46.983 E19.64108
G1 X134.039 Y47.507 E19.6673
G1 X134.05 Y47.984 E19.69111
G1 X134.05 Y63.987 E20.4895
G1 X134.041 Y64.714 E20.52577
G1 X133.992 Y65.382 E20.55919
G1 X133.865 Y66.038 E20.59252
G1 X133.66 Y66.675 E20.62591
G1 X133.381 Y67.283 E20.65928
G1 X133.031 Y67.853 E20.69265
G1 X132.615 Y68.378 E20.72607
G1 X132.14 Y68.849 E20.75945
G1 X131.613 Y69.26 E20.79279
G1 X131.04 Y69.606 E20.82618
G1 X130.43 Y69.88 E20.85955
G1 X129.791 Y70.08 E20.89295
G1 X129.133 Y70.202 E20.92634
G1 X128.598 Y70.243 E20.95311
G1 X128.12 Y70.254 E20.97696
G1 X82.185 Y70.254 E23.26867
G1 X81.487 Y70.245 E23.30349
G1 X80.82 Y70.196 E23.33686
G1 X80.163 Y70.068 E23.37025
G1 X79.526 Y69.863 E23.40364
G1 X78.918 Y69.583 E23.43703
G1 X78.348 Y69.233 E23.47041
G1 X77.824 Y68.817 E23.50378
G1 X77.353 Y68.342 E23.53716
G1 X76.942 Y67.814 E23.57054
G1 X76.597 Y67.241 E23.60391
G1 X76.323 Y66.631 E23.63727
G1 X76.123 Y65.992 E23.67068
G1 X76.002 Y65.334 E23.70405
G1 X75.961 Y64.796 E23.73097
G1 X75.95 Y64.312 E23.75513
G1 X75.951 Y48.252 E24.55636
G1 X75.96 Y47.587 E24.58954
G1 X76.009 Y46.92 E24.62291
G1 X76.137 Y46.263 E24.6563
G1 X76.342 Y45.627 E24.68964
G1 X76.622 Y45.019 E24.72304
G1 X76.973 Y44.449 E24.75643
M205 X10 Y10
G0 F6000 X77.369 Y44.583
M205 X8 Y8
G1 F1200 X77.782 Y44.089 E24.78856
G1 X78.253 Y43.649 E24.82071
G1 X78.776 Y43.271 E24.85291
G1 X79.34 Y42.96 E24.88504
G1 X79.939 Y42.722 E24.9172
G1 X80.563 Y42.559 E24.94937
G1 X81.413 Y42.465 E24.99204
G1 X81.88 Y42.454 E25.01534
G1 X127.743 Y42.454 E27.30346
G1 X128.515 Y42.465 E27.34198
G1 X129.158 Y42.514 E27.37415
G1 X129.79 Y42.642 E27.40632
G1 X130.401 Y42.848 E27.43849
G1 X130.982 Y43.127 E27.47064
G1 X131.524 Y43.476 E27.5028
G1 X132.018 Y43.89 E27.53496
G1 X132.458 Y44.362 E27.56715
G1 X132.836 Y44.884 E27.59931
G1 X133.146 Y45.449 E27.63146
G1 X133.384 Y46.048 E27.66362
G1 X133.546 Y46.672 E27.69578
G1 X133.639 Y47.518 E27.73824
G1 X133.65 Y47.984 E27.7615
G1 X133.65 Y63.982 E28.55964
G1 X133.641 Y64.709 E28.59591
G1 X133.593 Y65.352 E28.62808
G1 X133.466 Y65.984 E28.66024
G1 X133.261 Y66.596 E28.69244
G1 X132.983 Y67.177 E28.72458
G1 X132.635 Y67.72 E28.75675
G1 X132.222 Y68.215 E28.78892
G1 X131.751 Y68.655 E28.82107
G1 X131.229 Y69.034 E28.85326
G1 X130.665 Y69.345 E28.88539
G1 X130.066 Y69.584 E28.91756
G1 X129.443 Y69.748 E28.9497
G1 X128.587 Y69.843 E28.99267
G1 X128.12 Y69.854 E29.01598
G1 X82.19 Y69.854 E31.30743
G1 X81.492 Y69.845 E31.34226
G1 X80.849 Y69.796 E31.37443
G1 X80.217 Y69.669 E31.40659
G1 X79.606 Y69.464 E31.43875
G1 X79.025 Y69.186 E31.47088
G1 X78.482 Y68.837 E31.50308
G1 X77.987 Y68.424 E31.53525
G1 X77.547 Y67.953 E31.5674
G1 X77.168 Y67.431 E31.59959
G1 X76.857 Y66.867 E31.63172
G1 X76.619 Y66.268 E31.66387
G1 X76.456 Y65.644 E31.69605
G1 X76.361 Y64.785 E31.73917
G1 X76.35 Y64.312 E31.76277
G1 X76.35 Y48.258 E32.56371
G1 X76.359 Y47.593 E32.59689
G1 X76.408 Y46.95 E32.62906
G1 X76.536 Y46.318 E32.66123
G1 X76.741 Y45.707 E32.69339
G1 X77.02 Y45.126 E32.72554
G1 X77.369 Y44.583 E32.75774
M205 X10 Y10
;MESH:led-screen-plate.stl
G0 F6000 X88.85 Y49.454
M205 X8 Y8
;TYPE:WALL-OUTER
G1 F1200 X88.85 Y61.654 E33.3664
G1 X118.65 Y61.654 E34.85313
G1 X118.65 Y49.454 E35.46179
G1 X88.85 Y49.454 E36.94852
M205 X10 Y10
G0 F6000 X88.85 Y49.654
G0 X88.41 Y49.654
G0 X128.25 Y64.454
M205 X8 Y8
G1 F1200 X81.75 Y64.454 E39.26841
G1 X81.75 Y47.854 E40.09659
G1 X128.25 Y47.854 E42.41649
G1 X128.25 Y64.454 E43.24466
M205 X10 Y10
G0 F6000 X128.05 Y64.454
G0 X127.81 Y64.014
G0 X127.86 Y64.064
M205 X8 Y8
;TYPE:SKIN
G1 F1200 X82.14 Y64.064 E45.52564
G1 X82.14 Y48.244 E46.31491
G1 X127.86 Y48.244 E48.59589
G1 X127.86 Y64.064 E49.38515
M205 X10 Y10
G0 F6000 X119.04 Y62.044
M205 X8 Y8
G1 F1200 X119.04 Y49.064 E50.03273
G1 X88.46 Y49.064 E51.55837
G1 X88.46 Y62.044 E52.20594
G1 X119.04 Y62.044 E53.73158
M205 X10 Y10
G0 F6000 X127.679 Y48.483
M205 X8 Y8
G1 F1200 X127.62 Y48.424 E53.73575
M205 X10 Y10
G0 F6000 X127.054 Y48.424
M205 X8 Y8
G1 F1200 X127.679 Y49.049 E53.77984
M205 X10 Y10
G0 F6000 X127.679 Y49.614
M205 X8 Y8
G1 F1200 X126.488 Y48.424 E53.86384
M205 X10 Y10
G0 F6000 X125.922 Y48.424
M205 X8 Y8
G1 F1200 X127.679 Y50.18 E53.98777
M205 X10 Y10
G0 F6000 X127.679 Y50.746
M205 X8 Y8
G1 F1200 X125.357 Y48.424 E54.1516
M205 X10 Y10
G0 F6000 X124.791 Y48.424
M205 X8 Y8
G1 F1200 X127.679 Y51.311 E54.35533
M205 X10 Y10
G0 F6000 X127.679 Y51.877
M205 X8 Y8
G1 F1200 X124.225 Y48.424 E54.59899
M205 X10 Y10
G0 F6000 X123.66 Y48.424
M205 X8 Y8
G1 F1200 X127.679 Y52.443 E54.88255
M205 X10 Y10
G0 F6000 X127.679 Y53.008
M205 X8 Y8
G1 F1200 X123.094 Y48.424 E55.20602
M205 X10 Y10
G0 F6000 X122.528 Y48.424
M205 X8 Y8
G1 F1200 X127.679 Y53.574 E55.56941
M205 X10 Y10
G0 F6000 X127.679 Y54.14
M205 X8 Y8
G1 F1200 X121.963 Y48.424 E55.97271
M205 X10 Y10
G0 F6000 X121.397 Y48.424
M205 X8 Y8
G1 F1200 X127.679 Y54.706 E56.41594
M205 X10 Y10
G0 F6000 X127.679 Y55.271
M205 X8 Y8
G1 F1200 X120.831 Y48.424 E56.89906
M205 X10 Y10
G0 F6000 X120.266 Y48.424
M205 X8 Y8
G1 F1200 X127.679 Y55.837 E57.42209
M205 X10 Y10
G0 F6000 X127.679 Y56.403
M205 X8 Y8
G1 F1200 X119.7 Y48.424 E57.98505
M205 X10 Y10
G0 F6000 X119.134 Y48.424
M205 X8 Y8
G1 F1200 X127.679 Y56.968 E58.58791
M205 X10 Y10
G0 F6000 X127.679 Y57.534
M205 X8 Y8
G1 F1200 X119.219 Y49.074 E59.18481
M205 X10 Y10
G0 F6000 X119.028 Y48.883
M205 X8 Y8
G1 F1200 X118.569 Y48.424 E59.2172
M205 X10 Y10
G0 F6000 X118.463 Y48.883
M205 X8 Y8
G1 F1200 X118.003 Y48.424 E59.24962
M205 X10 Y10
G0 F6000 X117.897 Y48.883
M205 X8 Y8
G1 F1200 X117.437 Y48.424 E59.28204
M205 X10 Y10
G0 F6000 X117.331 Y48.883
M205 X8 Y8
G1 F1200 X116.872 Y48.424 E59.31442
M205 X10 Y10
G0 F6000 X116.765 Y48.883
M205 X8 Y8
G1 F1200 X116.306 Y48.424 E59.34681
M205 X10 Y10
G0 F6000 X116.2 Y48.883
M205 X8 Y8
G1 F1200 X115.74 Y48.424 E59.37923
M205 X10 Y10
G0 F6000 X115.634 Y48.883
M205 X8 Y8
G1 F1200 X115.174 Y48.424 E59.41165
M205 X10 Y10
G0 F6000 X115.068 Y48.883
M205 X8 Y8
G1 F1200 X114.609 Y48.424 E59.44403
M205 X10 Y10
G0 F6000 X114.503 Y48.883
M205 X8 Y8
G1 F1200 X114.043 Y48.424 E59.47645
M205 X10 Y10
G0 F6000 X113.937 Y48.883
M205 X8 Y8
G1 F1200 X113.477 Y48.424 E59.50887
M205 X10 Y10
G0 F6000 X113.371 Y48.883
M205 X8 Y8
G1 F1200 X112.912 Y48.424 E59.54126
M205 X10 Y10
G0 F6000 X112.806 Y48.883
M205 X8 Y8
G1 F1200 X112.346 Y48.424 E59.57368
M205 X10 Y10
G0 F6000 X112.24 Y48.883
M205 X8 Y8
G1 F1200 X111.78 Y48.424 E59.6061
M205 X10 Y10
G0 F6000 X111.674 Y48.883
M205 X8 Y8
G1 F1200 X111.215 Y48.424 E59.63848
M205 X10 Y10
G0 F6000 X111.109 Y48.883
M205 X8 Y8
G1 F1200 X110.649 Y48.424 E59.6709
M205 X10 Y10
G0 F6000 X110.543 Y48.883
M205 X8 Y8
G1 F1200 X110.083 Y48.424 E59.70332
M205 X10 Y10
G0 F6000 X109.977 Y48.883
M205 X8 Y8
G1 F1200 X109.518 Y48.424 E59.73571
M205 X10 Y10
G0 F6000 X109.412 Y48.883
M205 X8 Y8
G1 F1200 X108.952 Y48.424 E59.76813
M205 X10 Y10
G0 F6000 X108.846 Y48.883
M205 X8 Y8
G1 F1200 X108.386 Y48.424 E59.80055
M205 X10 Y10
G0 F6000 X108.28 Y48.883
M205 X8 Y8
G1 F1200 X107.821 Y48.424 E59.83293
M205 X10 Y10
G0 F6000 X107.714 Y48.883
M205 X8 Y8
G1 F1200 X107.255 Y48.424 E59.86532
M205 X10 Y10
G0 F6000 X107.149 Y48.883
M205 X8 Y8
G1 F1200 X106.689 Y48.424 E59.89774
M205 X10 Y10
G0 F6000 X106.583 Y48.883
M205 X8 Y8
G1 F1200 X106.123 Y48.424 E59.93016
M205 X10 Y10
G0 F6000 X106.017 Y48.883
M205 X8 Y8
G1 F1200 X105.558 Y48.424 E59.96254
M205 X10 Y10
G0 F6000 X105.452 Y48.883
M205 X8 Y8
G1 F1200 X104.992 Y48.424 E59.99496
M205 X10 Y10
G0 F6000 X104.886 Y48.883
M205 X8 Y8
G1 F1200 X104.426 Y48.424 E60.02738
M205 X10 Y10
G0 F6000 X104.32 Y48.883
M205 X8 Y8
G1 F1200 X103.861 Y48.424 E60.05977
M205 X10 Y10
G0 F6000 X103.755 Y48.883
M205 X8 Y8
G1 F1200 X103.295 Y48.424 E60.09219
M205 X10 Y10
G0 F6000 X103.189 Y48.883
M205 X8 Y8
G1 F1200 X102.729 Y48.424 E60.12461
M205 X10 Y10
G0 F6000 X102.623 Y48.883
M205 X8 Y8
G1 F1200 X102.164 Y48.424 E60.15699
M205 X10 Y10
G0 F6000 X102.058 Y48.883
M205 X8 Y8
G1 F1200 X101.598 Y48.424 E60.18942
M205 X10 Y10
G0 F6000 X101.492 Y48.883
M205 X8 Y8
G1 F1200 X101.032 Y48.424 E60.22184
M205 X10 Y10
G0 F6000 X100.926 Y48.883
M205 X8 Y8
G1 F1200 X100.467 Y48.424 E60.25422
M205 X10 Y10
G0 F6000 X100.361 Y48.883
M205 X8 Y8
G1 F1200 X99.901 Y48.424 E60.28664
M205 X10 Y10
G0 F6000 X99.795 Y48.883
M205 X8 Y8
G1 F1200 X99.335 Y48.424 E60.31906
M205 X10 Y10
G0 F6000 X99.229 Y48.883
M205 X8 Y8
G1 F1200 X98.77 Y48.424 E60.35145
M205 X10 Y10
G0 F6000 X98.664 Y48.883
M205 X8 Y8
G1 F1200 X98.204 Y48.424 E60.38387
M205 X10 Y10
G0 F6000 X98.098 Y48.883
M205 X8 Y8
G1 F1200 X97.638 Y48.424 E60.41629
M205 X10 Y10
G0 F6000 X97.532 Y48.883
M205 X8 Y8
G1 F1200 X97.073 Y48.424 E60.44867
M205 X10 Y10
G0 F6000 X96.966 Y48.883
M205 X8 Y8
G1 F1200 X96.507 Y48.424 E60.48106
M205 X10 Y10
G0 F6000 X96.401 Y48.883
M205 X8 Y8
G1 F1200 X95.941 Y48.424 E60.51348
M205 X10 Y10
G0 F6000 X95.835 Y48.883
M205 X8 Y8
G1 F1200 X95.375 Y48.424 E60.5459
M205 X10 Y10
G0 F6000 X95.269 Y48.883
M205 X8 Y8
G1 F1200 X94.81 Y48.424 E60.57828
M205 X10 Y10
G0 F6000 X94.704 Y48.883
M205 X8 Y8
G1 F1200 X94.244 Y48.424 E60.6107
M205 X10 Y10
G0 F6000 X94.138 Y48.883
M205 X8 Y8
G1 F1200 X93.678 Y48.424 E60.64312
M205 X10 Y10
G0 F6000 X93.572 Y48.883
M205 X8 Y8
G1 F1200 X93.113 Y48.424 E60.67551
M205 X10 Y10
G0 F6000 X93.007 Y48.883
M205 X8 Y8
G1 F1200 X92.547 Y48.424 E60.70793
M205 X10 Y10
G0 F6000 X92.441 Y48.883
M205 X8 Y8
G1 F1200 X91.981 Y48.424 E60.74035
M205 X10 Y10
G0 F6000 X91.875 Y48.883
M205 X8 Y8
G1 F1200 X91.416 Y48.424 E60.77273
M205 X10 Y10
G0 F6000 X91.31 Y48.883
M205 X8 Y8
G1 F1200 X90.85 Y48.424 E60.80515
M205 X10 Y10
G0 F6000 X90.744 Y48.883
M205 X8 Y8
G1 F1200 X90.284 Y48.424 E60.83757
M205 X10 Y10
G0 F6000 X90.178 Y48.883
M205 X8 Y8
G1 F1200 X89.719 Y48.424 E60.86996
M205 X10 Y10
G0 F6000 X89.613 Y48.883
M205 X8 Y8
G1 F1200 X89.153 Y48.424 E60.90238
M205 X10 Y10
G0 F6000 X89.047 Y48.883
M205 X8 Y8
G1 F1200 X88.587 Y48.424 E60.9348
M205 X10 Y10
G0 F6000 X88.481 Y48.883
