;FLAVOR:Marlin
;TIME:13262
;Filament used: 20.3559m
;Layer height: 0.3
;MINX:27.38
;MINY:11.456
;MINZ:0.3
;MAXX:166.559
;MAXY:199.01
;MAXZ:26.4
;Generated with Cura_SteamEngine 4.11.0
M82 ;absolute extrusion mode
G21                                        ; metric values 
G90                                        ; absolute positioning 
M82                                        ; set extruder to absolute mode 
M107                                       ; start with the fan off 
M140 S75.0           ; Start heating the bed 
G4 S60                                     ; wait 1 minute 
M104 S240.0         ; start heating the hot end 
M190 S75.0           ; wait for bed 
M109 S240.0         ; wait for hotend 
M300 S1000 P500                            ; BEEP heating done 
G28 X0 Y10 Z0                              ; move X/Y to min endstops 
M420 S1                                    ; Enable leveling 
M420 Z2.0                                  ; Set leveling fading height to 2 mm 
G0 Z0.15                                   ; lift nozzle a bit 
G92 E0                                     ; zero the extruded length 
G1 X50 E25 F500                            ; Extrude 25mm of filament in a 5cm line. 
G92 E0                                     ; zero the extruded length again 
G1 E-2 F500                                ; Retract a little 
G1 X120 F4000                              ; Quickly wipe away from the filament line`
G92 E0
G92 E0
;LAYER_COUNT:89
;LAYER:0
M107
M205 X10 Y10
G0 F6000 X32.373 Y46.201 Z0.3
M205 X8 Y8
;TYPE:SKIRT
G1 F1200 X32.935 Y45.814 E0.03404
G1 X33.926 Y45.175 E0.09287
G1 X72.738 Y21.257 E2.36736
G1 X73.528 Y20.789 E2.41317
G1 X74 Y20.533 E2.43996
G1 X74.524 Y20.275 E2.4691
G1 X75.175 Y19.998 E2.5044
G1 X75.697 Y19.818 E2.53194
G1 X76.192 Y19.667 E2.55776
G1 X76.859 Y19.503 E2.59203
G1 X77.384 Y19.411 E2.61862
G1 X77.899 Y19.34 E2.64456
G1 X78.601 Y19.282 E2.6797
G1 X79.135 Y19.274 E2.70635
G1 X79.775 Y19.289 E2.73828
G1 X79.898 Y19.296 E2.74443
G1 X80.51 Y19.361 E2.77514
G1 X81.423 Y19.518 E2.82135
G1 X82.106 Y19.683 E2.85641
G1 X82.597 Y19.839 E2.88211
G1 X83.099 Y20.017 E2.90868
G1 X83.946 Y20.357 E2.95422
G1 X84.026 Y20.39 E2.95854
G1 X155.79 Y51.383 E6.85848
G1 X156.534 Y51.719 E6.89921
G1 X157.052 Y51.977 E6.92808
G1 X157.579 Y52.266 E6.95807
G1 X158.206 Y52.66 E6.99501
G1 X158.567 Y52.925 E7.01735
G1 X159.043 Y53.298 E7.04752
G1 X159.607 Y53.797 E7.08509
G1 X159.959 Y54.155 E7.11014
G1 X160.288 Y54.511 E7.13433
G1 X160.8 Y55.141 E7.17483
G1 X161.115 Y55.591 E7.20223
G1 X161.369 Y55.977 E7.22529
G1 X161.741 Y56.621 E7.26239
G1 X161.957 Y57.064 E7.28698
G1 X162.176 Y57.552 E7.31366
G1 X162.447 Y58.266 E7.35177
G1 X162.6 Y58.777 E7.37838
G1 X162.764 Y59.433 E7.41211
G1 X162.818 Y59.693 E7.42536
G1 X162.901 Y60.188 E7.4504
G1 X162.991 Y61.031 E7.4927
G1 X163.021 Y61.469 E7.5146
G1 X163.044 Y62.062 E7.54421
G1 X166.549 Y184.317 E13.64604
G1 X166.559 Y185.013 E13.68077
G1 X166.543 Y185.739 E13.717
G1 X166.511 Y186.239 E13.74199
G1 X166.427 Y186.941 E13.77727
G1 X166.325 Y187.474 E13.80434
G1 X166.236 Y187.866 E13.82439
G1 X166.024 Y188.596 E13.86232
G1 X165.764 Y189.326 E13.90098
G1 X165.44 Y190.08 E13.94192
G1 X165.119 Y190.68 E13.97587
G1 X164.858 Y191.12 E14.0014
G1 X164.453 Y191.723 E14.03763
G1 X164.129 Y192.141 E14.06402
G1 X163.825 Y192.508 E14.0878
G1 X163.34 Y193.03 E14.12334
G1 X162.944 Y193.403 E14.15048
G1 X162.57 Y193.731 E14.1753
G1 X161.998 Y194.178 E14.21152
G1 X161.593 Y194.451 E14.23589
G1 X161.162 Y194.723 E14.26131
G1 X160.541 Y195.068 E14.29676
G1 X160.082 Y195.285 E14.32209
G1 X159.703 Y195.449 E14.34269
G1 X158.971 Y195.714 E14.38153
G1 X158.286 Y195.916 E14.41716
G1 X157.621 Y196.074 E14.45126
G1 X156.966 Y196.18 E14.48436
G1 X156.239 Y196.25 E14.5208
G1 X155.721 Y196.285 E14.5467
G1 X155.324 Y196.3 E14.56652
G1 X61.106 Y199.001 E19.26901
G1 X60.441 Y199.01 E19.30219
G1 X59.892 Y199 E19.32958
G1 X59.199 Y198.959 E19.36422
G1 X58.486 Y198.872 E19.40005
G1 X57.963 Y198.772 E19.42662
G1 X57.585 Y198.686 E19.44596
G1 X56.857 Y198.474 E19.48379
G1 X56.13 Y198.215 E19.52229
G1 X55.377 Y197.891 E19.56319
G1 X54.777 Y197.57 E19.59714
G1 X54.337 Y197.309 E19.62266
G1 X53.741 Y196.909 E19.65847
G1 X53.315 Y196.579 E19.68535
G1 X52.925 Y196.255 E19.71065
G1 X52.383 Y195.748 E19.74768
G1 X52.07 Y195.411 E19.77062
G1 X51.721 Y195.011 E19.79711
G1 X51.622 Y194.898 E19.8046
G1 X51.245 Y194.398 E19.83584
G1 X50.72 Y193.587 E19.88404
G1 X50.361 Y192.935 E19.92118
G1 X50.019 Y192.18 E19.96253
G1 X49.745 Y191.425 E20.0026
G1 X49.538 Y190.721 E20.03921
G1 X49.375 Y190.028 E20.07472
G1 X49.282 Y189.455 E20.10369
G1 X49.207 Y188.696 E20.14174
G1 X49.172 Y188.167 E20.16819
G1 X49.157 Y187.771 E20.18796
G1 X47.677 Y136.18 E22.7629
G1 X47.56 Y133.457 E22.89888
G1 X47.37 Y130.786 E23.03247
G1 X47.11 Y128.184 E23.16293
G1 X46.769 Y125.523 E23.29678
G1 X46.362 Y122.933 E23.42758
G1 X45.877 Y120.333 E23.55953
G1 X45.321 Y117.755 E23.6911
G1 X44.69 Y115.188 E23.82298
G1 X43.981 Y112.614 E23.95618
G1 X43.209 Y110.098 E24.08748
G1 X42.359 Y107.579 E24.22012
G1 X41.431 Y105.068 E24.35367
G1 X40.458 Y102.647 E24.48385
G1 X39.387 Y100.187 E24.61771
G1 X38.283 Y97.835 E24.74733
G1 X37.073 Y95.435 E24.88142
G1 X35.836 Y93.145 E25.01128
G1 X34.472 Y90.784 E25.14731
G1 X33.777 Y89.638 E25.21418
G1 X30.475 Y84.277 E25.5283
G1 X30.205 Y83.826 E25.55453
G1 X30.1 Y83.644 E25.56501
G1 X29.771 Y83.051 E25.59884
G1 X29.515 Y82.538 E25.62744
G1 X29.212 Y81.808 E25.66688
G1 X29.066 Y81.397 E25.68864
G1 X28.894 Y80.833 E25.71805
G1 X28.708 Y80.017 E25.75981
G1 X28.621 Y79.511 E25.78542
G1 X28.546 Y78.817 E25.82025
G1 X28.531 Y78.585 E25.83185
G1 X28.479 Y77.483 E25.88689
G1 X27.862 Y55.978 E26.96022
G1 X27.853 Y55.323 E26.9929
G1 X27.867 Y54.649 E27.02653
G1 X27.896 Y54.176 E27.05018
G1 X27.982 Y53.452 E27.08655
G1 X28.114 Y52.738 E27.12278
G1 X28.154 Y52.555 E27.13212
G1 X28.34 Y51.881 E27.167
G1 X28.521 Y51.343 E27.19532
G1 X28.632 Y51.036 E27.21161
G1 X28.939 Y50.344 E27.24938
G1 X29.296 Y49.655 E27.28809
G1 X29.335 Y49.583 E27.29218
G1 X29.776 Y48.881 E27.33354
G1 X30.19 Y48.314 E27.36856
G1 X30.296 Y48.177 E27.37721
G1 X30.796 Y47.604 E27.41515
G1 X31.229 Y47.164 E27.44595
G1 X31.706 Y46.727 E27.47822
G1 X31.952 Y46.523 E27.49416
G1 X32.373 Y46.201 E27.52061
M205 X10 Y10
G0 F6000 X32.602 Y46.529
M205 X8 Y8
G1 F1200 X33.152 Y46.15 E27.55393
G1 X34.136 Y45.516 E27.61233
G1 X73.028 Y21.55 E29.89148
G1 X73.725 Y21.136 E29.93192
G1 X74.177 Y20.892 E29.95755
G1 X74.701 Y20.634 E29.98669
G1 X75.311 Y20.374 E30.01977
G1 X75.813 Y20.201 E30.04626
G1 X76.308 Y20.05 E30.07208
G1 X76.934 Y19.895 E30.10425
G1 X77.439 Y19.807 E30.12983
G1 X77.954 Y19.736 E30.15576
G1 X78.612 Y19.682 E30.1887
G1 X79.128 Y19.674 E30.21445
G1 X79.752 Y19.689 E30.24559
G1 X79.875 Y19.696 E30.25173
G1 X80.449 Y19.756 E30.28053
G1 X81.351 Y19.911 E30.32619
G1 X81.991 Y20.066 E30.35904
G1 X82.463 Y20.216 E30.38375
G1 X82.965 Y20.394 E30.41032
G1 X83.793 Y20.726 E30.45483
G1 X155.626 Y51.748 E34.35851
G1 X156.37 Y52.084 E34.39924
G1 X156.867 Y52.332 E34.42695
G1 X157.386 Y52.616 E34.45646
G1 X157.974 Y52.986 E34.49112
G1 X158.32 Y53.24 E34.51254
G1 X158.796 Y53.613 E34.54271
G1 X159.325 Y54.08 E34.57791
G1 X159.994 Y54.783 E34.62633
G1 X160.474 Y55.373 E34.66427
G1 X160.781 Y55.811 E34.69096
G1 X161.035 Y56.197 E34.71401
G1 X161.384 Y56.8 E34.74877
G1 X161.592 Y57.227 E34.77247
G1 X161.811 Y57.715 E34.79915
G1 X162.065 Y58.385 E34.8349
G1 X162.213 Y58.879 E34.86063
G1 X162.373 Y59.514 E34.8933
G1 X162.504 Y60.238 E34.93001
G1 X162.593 Y61.069 E34.9717
G1 X162.621 Y61.485 E34.9925
G1 X162.645 Y62.073 E35.02186
G1 X166.148 Y184.237 E41.11916
G1 X166.159 Y185.019 E41.15817
G1 X166.144 Y185.713 E41.19281
G1 X166.112 Y186.213 E41.2178
G1 X166.033 Y186.871 E41.25086
G1 X165.935 Y187.385 E41.27697
G1 X165.846 Y187.777 E41.29702
G1 X165.647 Y188.462 E41.33261
G1 X165.387 Y189.192 E41.37127
G1 X165.083 Y189.898 E41.40962
G1 X164.775 Y190.476 E41.4423
G1 X164.514 Y190.916 E41.46782
G1 X164.134 Y191.481 E41.50179
G1 X163.821 Y191.885 E41.52729
G1 X163.517 Y192.252 E41.55106
G1 X163.063 Y192.742 E41.58439
G1 X162.68 Y193.102 E41.61061
G1 X162.306 Y193.43 E41.63543
G1 X161.77 Y193.849 E41.66937
G1 X161.379 Y194.113 E41.69291
G1 X160.948 Y194.385 E41.71834
G1 X160.366 Y194.709 E41.75157
G1 X159.544 Y195.082 E41.7966
G1 X158.858 Y195.33 E41.833
G1 X158.173 Y195.532 E41.86863
G1 X157.549 Y195.68 E41.90062
G1 X156.92 Y195.782 E41.93241
G1 X156.203 Y195.852 E41.96835
G1 X155.382 Y195.898 E42.00938
G1 X61.191 Y198.6 E46.71052
G1 X60.435 Y198.61 E46.74824
G1 X59.903 Y198.601 E46.77478
G1 X59.225 Y198.56 E46.80867
G1 X58.557 Y198.479 E46.84224
G1 X58.052 Y198.381 E46.86791
G1 X57.674 Y198.295 E46.88725
G1 X56.991 Y198.097 E46.92273
G1 X56.264 Y197.838 E46.96123
G1 X55.559 Y197.534 E46.99953
G1 X54.981 Y197.226 E47.03221
G1 X54.541 Y196.965 E47.05773
G1 X53.983 Y196.59 E47.09127
G1 X53.571 Y196.271 E47.11727
G1 X53.181 Y195.947 E47.14256
G1 X52.673 Y195.472 E47.17726
G1 X52.371 Y195.148 E47.19936
G1 X52.022 Y194.748 E47.22584
G1 X51.887 Y194.591 E47.23617
G1 X51.576 Y194.173 E47.26217
G1 X51.059 Y193.374 E47.30965
G1 X50.722 Y192.763 E47.34446
G1 X50.386 Y192.02 E47.38514
G1 X50.129 Y191.313 E47.42267
G1 X49.922 Y190.609 E47.45928
G1 X49.769 Y189.959 E47.49259
G1 X49.679 Y189.405 E47.5206
G1 X49.605 Y188.659 E47.558
G1 X49.572 Y188.151 E47.58339
G1 X49.556 Y187.759 E47.60297
G1 X48.074 Y136.123 E50.18016
G1 X47.958 Y133.41 E50.31564
G1 X47.769 Y130.754 E50.44848
G1 X47.507 Y128.13 E50.58004
G1 X47.167 Y125.482 E50.71324
G1 X46.757 Y122.869 E50.84519
G1 X46.267 Y120.247 E50.97827
G1 X45.712 Y117.673 E51.10964
G1 X45.072 Y115.067 E51.24352
G1 X44.363 Y112.496 E51.37657
G1 X43.595 Y109.99 E51.50734
G1 X42.726 Y107.418 E51.64278
G1 X41.818 Y104.959 E51.77356
G1 X40.819 Y102.475 E51.90713
G1 X39.764 Y100.05 E52.03907
G1 X38.638 Y97.65 E52.17133
G1 X37.424 Y95.244 E52.30578
G1 X36.177 Y92.935 E52.4367
G1 X34.822 Y90.59 E52.57182
G1 X34.119 Y89.43 E52.63949
G1 X30.818 Y84.072 E52.95346
G1 X30.548 Y83.621 E52.97969
G1 X30.449 Y83.45 E52.98954
G1 X30.12 Y82.857 E53.02338
G1 X29.881 Y82.376 E53.05017
G1 X29.589 Y81.674 E53.0881
G1 X29.443 Y81.263 E53.10986
G1 X29.282 Y80.734 E53.13745
G1 X29.099 Y79.933 E53.17844
G1 X28.992 Y79.269 E53.212
G1 X28.931 Y78.566 E53.2472
G1 X28.874 Y77.353 E53.30779
G1 X28.263 Y56.062 E54.37044
G1 X28.253 Y55.317 E54.40761
G1 X28.266 Y54.674 E54.43969
G1 X28.295 Y54.201 E54.46334
G1 X28.376 Y53.522 E54.49745
G1 X28.504 Y52.824 E54.53286
G1 X28.544 Y52.641 E54.5422
G1 X28.719 Y52.009 E54.57492
G1 X28.9 Y51.471 E54.60324
G1 X29.007 Y51.176 E54.61889
G1 X29.294 Y50.527 E54.6543
G1 X29.647 Y49.845 E54.69261
G1 X29.686 Y49.773 E54.69669
G1 X30.1 Y49.115 E54.73548
G1 X30.507 Y48.558 E54.7699
G1 X30.613 Y48.421 E54.77854
G1 X31.081 Y47.885 E54.81404
G1 X31.514 Y47.445 E54.84484
G1 X31.961 Y47.034 E54.87513
G1 X32.602 Y46.529 E54.91584
M205 X10 Y10
G0 F6000 X32.831 Y46.857
M205 X8 Y8
G1 F1200 X33.369 Y46.486 E54.94845
G1 X34.245 Y45.92 E55.00048
G1 X73.233 Y21.893 E57.2853
G1 X73.923 Y21.484 E57.32532
G1 X74.353 Y21.251 E57.34972
G1 X74.877 Y20.993 E57.37886
G1 X75.447 Y20.751 E57.40975
G1 X75.93 Y20.584 E57.43525
G1 X76.425 Y20.433 E57.46107
G1 X77.009 Y20.288 E57.49109
G1 X77.493 Y20.203 E57.5156
G1 X78.008 Y20.132 E57.54154
G1 X78.622 Y20.082 E57.57227
G1 X79.122 Y20.074 E57.59722
G1 X79.729 Y20.088 E57.62751
G1 X79.852 Y20.095 E57.63366
G1 X80.388 Y20.152 E57.66055
G1 X81.278 Y20.304 E57.7056
G1 X81.876 Y20.449 E57.7363
G1 X82.329 Y20.593 E57.76001
G1 X82.831 Y20.771 E57.78658
G1 X83.639 Y21.095 E57.83001
G1 X155.461 Y52.112 E61.73309
G1 X156.205 Y52.448 E61.77382
G1 X156.682 Y52.687 E61.80044
G1 X157.193 Y52.966 E61.82948
G1 X157.742 Y53.312 E61.86186
G1 X158.073 Y53.555 E61.88234
G1 X158.549 Y53.928 E61.91251
G1 X159.043 Y54.364 E61.94539
G1 X159.701 Y55.054 E61.99295
G1 X160.149 Y55.605 E62.02838
G1 X160.447 Y56.031 E62.05432
G1 X160.701 Y56.417 E62.07737
G1 X161.026 Y56.98 E62.10981
G1 X161.227 Y57.391 E62.13263
G1 X161.446 Y57.879 E62.15932
G1 X161.683 Y58.504 E62.19267
G1 X161.91 Y59.294 E62.23367
G1 X162.035 Y59.855 E62.26235
G1 X162.131 Y60.478 E62.2938
G1 X162.194 Y61.108 E62.32538
G1 X162.221 Y61.501 E62.34504
G1 X162.245 Y62.084 E62.37415
G1 X165.749 Y184.329 E68.47548
G1 X165.759 Y185.025 E68.51021
G1 X165.745 Y185.688 E68.54329
G1 X165.713 Y186.188 E68.56829
G1 X165.639 Y186.802 E68.59914
G1 X165.545 Y187.297 E68.62428
G1 X165.456 Y187.689 E68.64433
G1 X165.27 Y188.328 E68.67754
G1 X165.01 Y189.058 E68.7162
G1 X164.727 Y189.717 E68.75198
G1 X164.431 Y190.272 E68.78336
G1 X164.17 Y190.712 E68.80888
G1 X163.815 Y191.24 E68.84063
G1 X163.209 Y191.997 E68.889
G1 X162.785 Y192.454 E68.9201
G1 X162.416 Y192.801 E68.94538
G1 X162.042 Y193.129 E68.97019
G1 X161.542 Y193.52 E69.00186
G1 X161.166 Y193.775 E69.02453
G1 X160.735 Y194.047 E69.04995
G1 X160.192 Y194.349 E69.08095
G1 X159.385 Y194.714 E69.12514
G1 X158.745 Y194.946 E69.1591
G1 X158.06 Y195.148 E69.19473
G1 X157.478 Y195.287 E69.22458
G1 X156.873 Y195.385 E69.25516
G1 X156.166 Y195.454 E69.2906
G1 X155.366 Y195.498 E69.33057
G1 X61.18 Y198.2 E74.03147
G1 X60.43 Y198.21 E74.06889
G1 X59.914 Y198.201 E74.09463
G1 X59.251 Y198.161 E74.12777
G1 X58.628 Y198.085 E74.15908
G1 X57.763 Y197.905 E74.20316
G1 X57.126 Y197.72 E74.23626
G1 X56.399 Y197.461 E74.27476
G1 X55.74 Y197.178 E74.31054
G1 X55.185 Y196.882 E74.34192
G1 X54.745 Y196.621 E74.36744
G1 X54.224 Y196.271 E74.39876
G1 X53.826 Y195.963 E74.42387
G1 X53.436 Y195.639 E74.44916
G1 X52.962 Y195.196 E74.48153
G1 X52.672 Y194.885 E74.50274
G1 X52.323 Y194.485 E74.52923
G1 X51.907 Y193.948 E74.56312
G1 X51.397 Y193.161 E74.6099
G1 X51.083 Y192.591 E74.64237
G1 X50.753 Y191.86 E74.68239
G1 X50.512 Y191.2 E74.71744
G1 X50.305 Y190.496 E74.75405
G1 X50.163 Y189.889 E74.78515
G1 X50.076 Y189.356 E74.81209
G1 X50.003 Y188.622 E74.84889
G1 X49.959 Y187.813 E74.88931
G1 X48.473 Y136.067 E77.472
G1 X48.358 Y133.4 E77.60518
G1 X48.167 Y130.719 E77.73927
G1 X47.904 Y128.076 E77.87178
G1 X47.565 Y125.44 E78.00438
G1 X47.15 Y122.799 E78.13775
G1 X46.658 Y120.161 E78.27163
G1 X46.107 Y117.606 E78.40203
G1 X45.452 Y114.937 E78.53914
G1 X44.752 Y112.4 E78.67044
G1 X43.973 Y109.86 E78.80299
G1 X43.105 Y107.288 E78.93842
G1 X42.193 Y104.819 E79.06973
G1 X41.186 Y102.315 E79.20438
G1 X40.129 Y99.886 E79.33654
G1 X39 Y97.479 E79.46918
G1 X37.79 Y95.081 E79.60318
G1 X36.517 Y92.724 E79.73683
G1 X35.163 Y90.381 E79.87184
G1 X34.461 Y89.223 E79.9394
G1 X31.161 Y83.866 E80.2533
G1 X30.891 Y83.415 E80.27952
G1 X30.799 Y83.256 E80.28869
G1 X30.47 Y82.663 E80.32252
G1 X30.247 Y82.214 E80.34753
G1 X29.966 Y81.541 E80.38392
G1 X29.82 Y81.13 E80.40568
G1 X29.67 Y80.635 E80.43148
G1 X29.49 Y79.849 E80.47171
G1 X29.389 Y79.217 E80.50364
G1 X29.33 Y78.547 E80.5372
G1 X29.274 Y77.342 E80.59738
G1 X28.662 Y55.967 E81.66422
G1 X28.653 Y55.312 E81.6969
G1 X28.665 Y54.698 E81.72754
G1 X28.694 Y54.225 E81.75118
G1 X28.77 Y53.591 E81.78304
G1 X28.895 Y52.909 E81.81763
G1 X28.935 Y52.726 E81.82698
G1 X29.098 Y52.136 E81.85751
G1 X29.279 Y51.598 E81.88583
G1 X29.382 Y51.316 E81.90081
G1 X29.65 Y50.71 E81.93387
G1 X29.999 Y50.036 E81.97174
G1 X30.038 Y49.964 E81.97582
G1 X30.424 Y49.349 E82.01205
G1 X30.823 Y48.803 E82.04579
G1 X30.929 Y48.666 E82.05443
G1 X31.367 Y48.165 E82.08763
G1 X31.8 Y47.725 E82.11843
G1 X32.216 Y47.342 E82.14664
G1 X32.831 Y46.857 E82.18571
M205 X10 Y10
G0 F6000 X33.06 Y47.185
M205 X8 Y8
G1 F1200 X33.586 Y46.822 E82.2176
G1 X34.556 Y46.197 E82.27517
G1 X73.437 Y22.237 E84.55369
G1 X74.12 Y21.832 E84.5933
G1 X74.53 Y21.61 E84.61656
G1 X75.054 Y21.352 E84.6457
G1 X75.583 Y21.127 E84.67438
G1 X76.047 Y20.966 E84.69889
G1 X76.542 Y20.815 E84.72471
G1 X77.084 Y20.681 E84.75256
G1 X77.548 Y20.6 E84.77606
G1 X78.063 Y20.529 E84.802
G1 X78.633 Y20.482 E84.83053
G1 X79.116 Y20.474 E84.85463
G1 X79.706 Y20.487 E84.88407
G1 X79.829 Y20.494 E84.89022
G1 X80.327 Y20.547 E84.9152
G1 X81.205 Y20.698 E84.95965
G1 X81.76 Y20.832 E84.98814
