;FLAVOR:Marlin
;TIME:15122
;Filament used: 25.0588m
;Layer height: 0.3
;MINX:9.269
;MINY:31.718
;MINZ:0.3
;MAXX:197.718
;MAXY:170.111
;MAXZ:27.375
;Generated with Cura_SteamEngine 4.11.0
M82 ;absolute extrusion mode
G21                                        ; metric values 
G90                                        ; absolute positioning 
M82                                        ; set extruder to absolute mode 
M107                                       ; start with the fan off 
M140 S80.0           ; Start heating the bed 
G4 S60                                     ; wait 1 minute 
M104 S260.0         ; start heating the hot end 
M190 S80.0           ; wait for bed 
M109 S260.0         ; wait for hotend 
M300 S1000 P500                            ; BEEP heating done 
G28 X0 Y10 Z0                              ; move X/Y to min endstops 
M420 S1                                    ; Enable leveling 
M420 Z2.0                                  ; Set leveling fading height to 2 mm 
G0 Z0.15                                   ; lift nozzle a bit 
G92 E0                                     ; zero the extruded length 
G1 X50 E25 F500                            ; Extrude 25mm of filament in a 5cm line. 
G92 E0                                     ; zero the extruded length again 
G1 E-2 F500                                ; Retract a little 
G1 X120 F4000                              ; Quickly wipe away from the filament line`
G92 E0
G92 E0
G1 F1800 E-6
;LAYER_COUNT:91
;LAYER:0
M107
G1 F1800 Z0.375
G0 F3600 X16.959 Y52.56 Z0.375
;TYPE:SKIRT
G1 F1800 Z0.3
G1 F1800 E0
G1 F1200 X17.474 Y52.397 E0.03503
G1 X17.96 Y52.27 E0.06761
G1 X18.443 Y52.16 E0.09974
G1 X19.19 Y52.033 E0.14889
G1 X19.73 Y51.98 E0.18408
G1 X20.257 Y51.946 E0.21833
G1 X21.152 Y51.923 E0.27639
G1 X72.868 Y51.894 E3.63055
G1 X75.516 Y51.855 E3.80231
G1 X78.16 Y51.741 E3.97396
G1 X80.816 Y51.551 E4.14666
G1 X83.393 Y51.294 E4.31462
G1 X86.046 Y50.954 E4.4881
G1 X88.643 Y50.544 E4.65862
G1 X91.223 Y50.063 E4.82883
G1 X93.789 Y49.509 E4.99909
G1 X96.354 Y48.879 E5.17039
G1 X98.882 Y48.182 E5.34047
G1 X101.412 Y47.406 E5.5121
G1 X103.93 Y46.555 E5.68449
G1 X106.391 Y45.646 E5.85464
G1 X108.83 Y44.664 E6.02517
G1 X111.262 Y43.606 E6.19718
G1 X113.629 Y42.494 E6.3668
G1 X116.007 Y41.294 E6.53955
G1 X118.319 Y40.044 E6.71001
G1 X119.474 Y39.388 E6.79616
G1 X125 Y36.195 E7.21009
G1 X125.606 Y35.86 E7.255
G1 X126.24 Y35.532 E7.3013
G1 X126.702 Y35.314 E7.33443
G1 X126.911 Y35.225 E7.34916
G1 X127.503 Y35.005 E7.39013
G1 X127.909 Y34.875 E7.41777
G1 X128.499 Y34.715 E7.45742
G1 X129.102 Y34.58 E7.4975
G1 X129.742 Y34.468 E7.53964
G1 X130.459 Y34.396 E7.58638
G1 X130.958 Y34.374 E7.61877
G1 X132.116 Y34.354 E7.69389
G1 X143.945 Y34.347 E8.46108
G1 X146.589 Y34.308 E8.63258
G1 X149.247 Y34.193 E8.80514
G1 X151.89 Y34.005 E8.97699
G1 X154.496 Y33.744 E9.14685
G1 X157.097 Y33.41 E9.31693
G1 X159.722 Y32.996 E9.48928
G1 X162.298 Y32.516 E9.65923
G1 X163.905 Y32.163 E9.76594
G1 X164.144 Y32.124 E9.78165
G1 X165.276 Y31.876 E9.85681
G1 X166.004 Y31.757 E9.90465
G1 X166.742 Y31.718 E9.95258
G1 X167.479 Y31.759 E10.00046
G1 X168.433 Y31.933 E10.06335
G1 X168.503 Y31.951 E10.06804
G1 X169.208 Y32.173 E10.11598
G1 X169.884 Y32.47 E10.16386
G1 X170.523 Y32.839 E10.21172
G1 X171.12 Y33.274 E10.25963
G1 X171.665 Y33.772 E10.30751
G1 X172.154 Y34.325 E10.35539
G1 X172.593 Y34.949 E10.40487
G1 X172.965 Y35.546 E10.45049
G1 X173.082 Y35.741 E10.46524
G1 X195.941 Y75.306 E13.42882
G1 X196.284 Y75.92 E13.47443
G1 X196.609 Y76.583 E13.52232
G1 X196.86 Y77.277 E13.57019
G1 X197.034 Y77.995 E13.6181
G1 X197.13 Y78.72 E13.66553
G1 X197.143 Y78.888 E13.67646
G1 X197.16 Y79.626 E13.72434
G1 X197.097 Y80.362 E13.77225
G1 X196.955 Y81.086 E13.8201
G1 X196.735 Y81.791 E13.868
G1 X196.441 Y82.468 E13.91587
G1 X196.075 Y83.11 E13.9638
G1 X195.595 Y83.765 E14.01647
G1 X194.903 Y84.6 E14.0868
G1 X194.409 Y85.182 E14.13631
G1 X192.777 Y87.215 E14.3054
G1 X191.188 Y89.312 E14.47604
G1 X189.652 Y91.465 E14.64757
G1 X188.192 Y93.639 E14.81741
G1 X186.78 Y95.876 E14.98899
G1 X185.424 Y98.164 E15.16148
G1 X184.149 Y100.459 E15.33176
G1 X182.953 Y102.765 E15.50024
G1 X181.768 Y105.217 E15.67686
G1 X154.836 Y162.969 E19.80977
G1 X154.544 Y163.572 E19.85322
G1 X154.202 Y164.211 E19.90023
G1 X153.934 Y164.666 E19.93447
G1 X153.453 Y165.377 E19.99015
G1 X153.037 Y165.915 E20.03426
G1 X152.657 Y166.365 E20.07246
G1 X152.504 Y166.531 E20.0871
G1 X151.945 Y167.072 E20.13755
G1 X151.463 Y167.488 E20.17885
G1 X150.798 Y167.995 E20.23308
G1 X150.282 Y168.34 E20.27334
G1 X149.803 Y168.632 E20.30972
G1 X149.587 Y168.752 E20.32575
G1 X148.989 Y169.047 E20.369
G1 X148.293 Y169.339 E20.41795
G1 X147.576 Y169.589 E20.4672
G1 X147.004 Y169.745 E20.50565
G1 X146.512 Y169.86 E20.53842
G1 X145.729 Y169.996 E20.58996
G1 X145.186 Y170.05 E20.62536
G1 X144.644 Y170.087 E20.66059
G1 X144.276 Y170.102 E20.68448
G1 X143.61 Y170.111 E20.72768
G1 X21.276 Y170.081 E28.66193
G1 X20.616 Y170.072 E28.70473
G1 X20.081 Y170.049 E28.73947
G1 X19.346 Y169.985 E28.78732
G1 X18.631 Y169.88 E28.83419
G1 X18.036 Y169.75 E28.87369
G1 X17.654 Y169.651 E28.89928
G1 X16.912 Y169.413 E28.94982
G1 X16.279 Y169.169 E28.99382
G1 X15.743 Y168.935 E29.03175
G1 X15.54 Y168.836 E29.0464
G1 X15.014 Y168.55 E29.08523
G1 X14.357 Y168.141 E29.13542
G1 X13.801 Y167.75 E29.17951
G1 X13.405 Y167.426 E29.21269
G1 X12.941 Y167.021 E29.25264
G1 X12.377 Y166.464 E29.30405
G1 X11.796 Y165.784 E29.36206
G1 X11.32 Y165.134 E29.41431
G1 X10.947 Y164.556 E29.45893
G1 X10.577 Y163.908 E29.50732
G1 X10.434 Y163.622 E29.52806
G1 X10.219 Y163.147 E29.56188
G1 X10.031 Y162.686 E29.59417
G1 X9.778 Y161.948 E29.64477
G1 X9.626 Y161.372 E29.6834
G1 X9.518 Y160.892 E29.71531
G1 X9.391 Y160.12 E29.76606
G1 X9.341 Y159.594 E29.80032
G1 X9.309 Y159.091 E29.83301
G1 X9.286 Y158.227 E29.88907
G1 X9.269 Y63.894 E36.00725
G1 X9.278 Y63.254 E36.04876
G1 X9.304 Y62.682 E36.0859
G1 X9.365 Y61.983 E36.13141
G1 X9.467 Y61.284 E36.17722
G1 X9.601 Y60.672 E36.21786
G1 X9.7 Y60.291 E36.24339
G1 X9.943 Y59.539 E36.29464
G1 X10.189 Y58.905 E36.33875
G1 X10.418 Y58.381 E36.37584
G1 X10.519 Y58.174 E36.39078
G1 X10.792 Y57.669 E36.42801
G1 X11.219 Y56.984 E36.48036
G1 X11.649 Y56.382 E36.52834
G1 X12.277 Y55.639 E36.59144
G1 X12.839 Y55.064 E36.64359
G1 X13.242 Y54.705 E36.67859
G1 X13.562 Y54.435 E36.70574
G1 X14.146 Y53.993 E36.75325
G1 X14.622 Y53.684 E36.79005
G1 X15.059 Y53.422 E36.8231
G1 X15.373 Y53.244 E36.84651
G1 X15.863 Y53.006 E36.88184
G1 X16.386 Y52.782 E36.91874
G1 X16.876 Y52.59 E36.95287
G1 X16.959 Y52.56 E36.9586
G0 F3600 X17.135 Y53.049
G1 F1200 X17.612 Y52.898 E36.99105
G1 X18.558 Y52.667 E37.0542
G1 X19.248 Y52.55 E37.09959
G1 X19.763 Y52.499 E37.13316
G1 X20.434 Y52.457 E37.17676
G1 X21.158 Y52.443 E37.22373
G1 X72.875 Y52.414 E40.57795
G1 X75.546 Y52.374 E40.75121
G1 X78.185 Y52.261 E40.92252
G1 X80.835 Y52.072 E41.09483
G1 X83.473 Y51.808 E41.26678
G1 X86.124 Y51.468 E41.44012
G1 X88.711 Y51.06 E41.60998
G1 X91.326 Y50.572 E41.78251
G1 X93.914 Y50.013 E41.95423
G1 X96.473 Y49.385 E42.12513
G1 X99.062 Y48.671 E42.29931
G1 X101.566 Y47.904 E42.46916
G1 X104.091 Y47.05 E42.64204
G1 X106.59 Y46.127 E42.81482
G1 X109.027 Y45.146 E42.9852
G1 X111.443 Y44.094 E43.15611
G1 X113.866 Y42.957 E43.3297
G1 X116.242 Y41.758 E43.50231
G1 X118.591 Y40.488 E43.6755
G1 X119.776 Y39.815 E43.76389
G1 X125.254 Y36.649 E44.17424
G1 X125.845 Y36.321 E44.21808
G1 X126.479 Y35.993 E44.26438
G1 X127.115 Y35.704 E44.30969
G1 X127.662 Y35.5 E44.34755
G1 X128.068 Y35.37 E44.3752
G1 X128.613 Y35.222 E44.41183
G1 X129.216 Y35.087 E44.4519
G1 X129.807 Y34.984 E44.49081
G1 X130.486 Y34.916 E44.53507
G1 X130.968 Y34.894 E44.56636
G1 X132.116 Y34.874 E44.64083
G1 X143.952 Y34.867 E45.40848
G1 X146.619 Y34.827 E45.58148
G1 X149.272 Y34.713 E45.7537
G1 X151.91 Y34.525 E45.92523
G1 X154.541 Y34.262 E46.09672
G1 X157.21 Y33.919 E46.27125
G1 X159.796 Y33.511 E46.44104
G1 X162.379 Y33.03 E46.61145
G1 X164.017 Y32.67 E46.72022
G1 X164.256 Y32.632 E46.73592
G1 X165.387 Y32.384 E46.81101
G1 X166.088 Y32.271 E46.85706
G1 X166.797 Y32.238 E46.9031
G1 X167.505 Y32.285 E46.94912
G1 X168.304 Y32.436 E47.00186
G1 X168.374 Y32.454 E47.00654
G1 X169.05 Y32.67 E47.05257
G1 X169.698 Y32.96 E47.09861
G1 X170.309 Y33.32 E47.14461
G1 X170.876 Y33.748 E47.19068
G1 X171.391 Y34.236 E47.2367
G1 X171.847 Y34.779 E47.28269
G1 X172.152 Y35.224 E47.31768
G1 X172.524 Y35.821 E47.3633
G1 X172.632 Y36.001 E47.37691
G1 X195.487 Y75.56 E50.34002
G1 X195.83 Y76.174 E50.38564
G1 X196.141 Y76.812 E50.43167
G1 X196.378 Y77.481 E50.4777
G1 X196.538 Y78.172 E50.5237
G1 X196.611 Y78.76 E50.56213
G1 X196.624 Y78.928 E50.57306
G1 X196.639 Y79.637 E50.61906
G1 X196.574 Y80.344 E50.6651
G1 X196.43 Y81.039 E50.71114
G1 X196.208 Y81.713 E50.75716
G1 X195.913 Y82.358 E50.80316
G1 X195.546 Y82.966 E50.84922
G1 X195.195 Y83.433 E50.88711
G1 X194.506 Y84.263 E50.95707
G1 X194.041 Y84.81 E51.00364
G1 X192.36 Y86.905 E51.17785
G1 X190.755 Y89.024 E51.35025
G1 X189.242 Y91.144 E51.51917
G1 X187.737 Y93.384 E51.6942
G1 X186.335 Y95.605 E51.86455
G1 X184.995 Y97.866 E52.03501
G1 X183.691 Y100.214 E52.2092
G1 X182.475 Y102.561 E52.38064
G1 X181.338 Y104.911 E52.54996
G1 X154.368 Y162.743 E56.6886
G1 X154.076 Y163.346 E56.73205
G1 X153.754 Y163.947 E56.77628
G1 X153.486 Y164.402 E56.81052
G1 X153.042 Y165.059 E56.86195
G1 X152.626 Y165.597 E56.90606
G1 X152.274 Y166.013 E56.94141
G1 X152.121 Y166.179 E56.95605
G1 X151.605 Y166.678 E57.0026
G1 X151.123 Y167.094 E57.0439
G1 X150.509 Y167.562 E57.09397
G1 X149.993 Y167.907 E57.13423
G1 X149.551 Y168.177 E57.16782
G1 X149.335 Y168.297 E57.18384
G1 X148.782 Y168.57 E57.22384
G1 X148.094 Y168.858 E57.27222
G1 X147.432 Y169.09 E57.31771
G1 X146.886 Y169.239 E57.35442
G1 X146.394 Y169.354 E57.38719
G1 X145.67 Y169.479 E57.43484
G1 X145.151 Y169.531 E57.46867
G1 X144.609 Y169.568 E57.5039
G1 X144.269 Y169.582 E57.52597
G1 X143.611 Y169.591 E57.56865
G1 X21.283 Y169.561 E65.50251
G1 X20.623 Y169.552 E65.54532
G1 X20.11 Y169.53 E65.57863
G1 X19.394 Y169.468 E65.62524
G1 X18.734 Y169.371 E65.6685
G1 X18.166 Y169.247 E65.70621
G1 X17.784 Y169.148 E65.7318
G1 X17.099 Y168.927 E65.77849
G1 X16.466 Y168.683 E65.82248
G1 X15.97 Y168.468 E65.85755
G1 X15.767 Y168.369 E65.87219
G1 X15.282 Y168.105 E65.90801
G1 X14.635 Y167.702 E65.95745
G1 X14.122 Y167.34 E65.99817
G1 X13.616 Y166.923 E66.04069
G1 X13.284 Y166.631 E66.06937
G1 X12.764 Y166.116 E66.11684
G1 X12.196 Y165.452 E66.17351
G1 X11.757 Y164.852 E66.22173
G1 X11.384 Y164.274 E66.26634
G1 X11.042 Y163.675 E66.31108
G1 X10.7 Y162.951 E66.36301
G1 X10.512 Y162.49 E66.3953
G1 X10.279 Y161.808 E66.44204
G1 X10.134 Y161.258 E66.47893
G1 X10.026 Y160.778 E66.51084
G1 X9.908 Y160.064 E66.55778
G1 X9.86 Y159.561 E66.59055
G1 X9.828 Y159.058 E66.62324
G1 X9.806 Y158.221 E66.67754
G1 X9.789 Y63.901 E72.79488
G1 X9.798 Y63.261 E72.83639
G1 X9.823 Y62.711 E72.8721
G1 X9.883 Y62.031 E72.91638
G1 X9.977 Y61.386 E72.95865
G1 X10.104 Y60.803 E72.99735
G1 X10.203 Y60.422 E73.02288
G1 X10.428 Y59.727 E73.07026
G1 X10.674 Y59.093 E73.11437
G1 X10.885 Y58.609 E73.14861
G1 X10.986 Y58.402 E73.16355
G1 X11.239 Y57.935 E73.198
G1 X11.658 Y57.263 E73.24936
G1 X12.056 Y56.706 E73.29376
G1 X12.669 Y55.98 E73.35538
G1 X13.188 Y55.449 E73.40354
G1 X13.577 Y55.102 E73.43735
G1 X13.897 Y54.832 E73.46451
G1 X14.437 Y54.424 E73.5084
G1 X14.889 Y54.13 E73.54337
G1 X15.326 Y53.868 E73.57642
G1 X15.619 Y53.703 E73.59823
G1 X16.072 Y53.483 E73.63089
G1 X16.579 Y53.265 E73.66668
G1 X17.052 Y53.079 E73.69965
G1 X17.135 Y53.049 E73.70537
G0 F3600 X17.312 Y53.538
G1 F1200 X17.946 Y53.346 E73.74833
G1 X18.674 Y53.174 E73.79685
G1 X19.307 Y53.067 E73.83849
G1 X19.797 Y53.018 E73.87043
G1 X20.455 Y52.977 E73.91319
G1 X21.163 Y52.963 E73.95911
G1 X72.884 Y52.934 E77.3136
G1 X75.541 Y52.895 E77.48594
G1 X78.242 Y52.779 E77.66128
G1 X80.889 Y52.589 E77.8334
G1 X83.518 Y52.327 E78.00475
G1 X86.168 Y51.987 E78.17804
G1 X88.82 Y51.569 E78.35216
G1 X91.423 Y51.083 E78.5239
G1 X94.031 Y50.52 E78.69695
G1 X96.601 Y49.889 E78.86858
G1 X99.21 Y49.169 E79.04412
G1 X101.741 Y48.394 E79.21579
G1 X104.262 Y47.541 E79.3884
G1 X106.759 Y46.619 E79.56104
G1 X109.254 Y45.615 E79.73547
G1 X111.655 Y44.57 E79.9053
G1 X114.103 Y43.42 E80.08072
G1 X116.449 Y42.236 E80.25115
G1 X118.863 Y40.931 E80.42913
G1 X119.994 Y40.289 E80.51348
G1 X125.508 Y37.102 E80.92654
G1 X126.084 Y36.783 E80.96925
G1 X126.718 Y36.455 E81.01554
G1 X127.318 Y36.182 E81.05829
G1 X127.82 Y35.995 E81.09304
G1 X128.226 Y35.865 E81.12069
G1 X128.726 Y35.73 E81.15428
G1 X129.329 Y35.595 E81.19435
G1 X129.872 Y35.5 E81.23011
G1 X130.513 Y35.435 E81.27189
G1 X130.977 Y35.414 E81.30202
G1 X132.117 Y35.394 E81.37597
G1 X143.961 Y35.387 E82.14414
G1 X146.615 Y35.348 E82.31629
G1 X149.33 Y35.23 E82.49254
G1 X151.961 Y35.043 E82.66361
G1 X154.59 Y34.78 E82.83497
G1 X157.254 Y34.438 E83.00917
G1 X159.898 Y34.021 E83.18277
G1 X162.489 Y33.538 E83.35371
G1 X164.128 Y33.178 E83.46255
G1 X164.359 Y33.142 E83.47771
G1 X165.498 Y32.892 E83.55334
G1 X166.17 Y32.786 E83.59746
G1 X166.849 Y32.759 E83.64154
G1 X167.526 Y32.812 E83.68558
G1 X168.174 Y32.94 E83.72842
G1 X168.244 Y32.958 E83.73311
G1 X168.892 Y33.166 E83.77725
G1 X169.51 Y33.448 E83.8213
G1 X170.091 Y33.801 E83.86539
G1 X170.626 Y34.22 E83.90947
G1 X171.109 Y34.698 E83.95354
G1 X171.711 Y35.499 E84.01853
G1 X172.083 Y36.096 E84.06415
G1 X172.182 Y36.261 E84.07663
G1 X195.033 Y75.813 E87.03921
G1 X195.376 Y76.427 E87.08483
G1 X195.672 Y77.039 E87.12892
G1 X195.894 Y77.681 E87.17298
G1 X196.039 Y78.345 E87.21706
G1 X196.106 Y78.968 E87.2577
G1 X196.118 Y79.648 E87.30181
G1 X196.051 Y80.324 E87.34587
G1 X195.905 Y80.988 E87.38996
G1 X195.681 Y81.63 E87.43406
G1 X195.384 Y82.241 E87.47812
G1 X195.018 Y82.813 E87.52216
G1 X194.794 Y83.101 E87.54583
G1 X194.11 Y83.926 E87.61533
G1 X193.624 Y84.498 E87.66401
G1 X191.956 Y86.577 E87.83689
G1 X190.349 Y88.698 E88.00947
G1 X188.803 Y90.865 E88.18212
G1 X187.309 Y93.089 E88.35589
G1 X185.897 Y95.325 E88.5274
G1 X184.527 Y97.637 E88.7017
G1 X183.24 Y99.954 E88.8736
G1 X182.017 Y102.313 E89.04594
G1 X180.832 Y104.764 E89.22251
G1 X153.9 Y162.516 E93.35541
G1 X153.608 Y163.119 E93.39886
G1 X153.306 Y163.683 E93.44036
G1 X153.038 Y164.138 E93.47461
G1 X152.631 Y164.741 E93.52179
G1 X152.215 Y165.279 E93.5659
G1 X151.739 Y165.826 E93.61293
G1 X151.266 Y166.285 E93.65567
G1 X150.784 Y166.701 E93.69697
G1 X150.22 Y167.13 E93.74293
G1 X149.704 Y167.475 E93.78318
G1 X149.082 Y167.843 E93.83006
G1 X148.575 Y168.093 E93.86672
G1 X147.896 Y168.378 E93.91448
G1 X147.288 Y168.59 E93.95624
G1 X146.768 Y168.732 E93.9912
G1 X146.276 Y168.847 E94.02397
G1 X145.612 Y168.962 E94.06768
G1 X145.116 Y169.013 E94.10002
G1 X144.574 Y169.05 E94.13525
G1 X144.261 Y169.062 E94.15557
G1 X143.611 Y169.071 E94.19773
G1 X21.29 Y169.041 E102.13113
G1 X20.63 Y169.032 E102.17394
G1 X19.913 Y168.994 E102.22051
G1 X19.442 Y168.95 E102.25119
G1 X18.837 Y168.861 E102.29085
G1 X18.297 Y168.743 E102.3267
G1 X17.915 Y168.644 E102.3523
G1 X17.286 Y168.442 E102.39514
G1 X16.653 Y168.198 E102.43914
G1 X15.995 Y167.901 E102.48597
G1 X15.55 Y167.659 E102.51882
G1 X14.913 Y167.262 E102.5675
G1 X14.442 Y166.931 E102.60484
G1 X13.96 Y166.532 E102.64542
G1 X13.628 Y166.24 E102.6741
G1 X13.15 Y165.768 E102.71766
G1 X12.597 Y165.121 E102.77287
G1 X12.193 Y164.57 E102.81718
G1 X11.82 Y163.992 E102.86179
G1 X11.507 Y163.443 E102.90278
G1 X11.182 Y162.755 E102.95213
G1 X10.994 Y162.294 E102.98442
G1 X10.78 Y161.668 E103.02733
G1 X10.641 Y161.144 E103.06249
G1 X10.533 Y160.664 E103.0944
G1 X10.425 Y160.009 E103.13745
G1 X10.379 Y159.528 E103.16879
G1 X10.347 Y159.025 E103.20148
G1 X10.326 Y158.215 E103.25403
G1 X10.309 Y63.909 E109.37046
G1 X10.318 Y63.269 E109.41198
G1 X10.342 Y62.741 E109.44626
G1 X10.4 Y62.08 E109.48929
G1 X10.487 Y61.488 E109.5281
G1 X10.608 Y60.933 E109.56494
G1 X10.707 Y60.552 E109.59047
G1 X10.912 Y59.915 E109.63387
G1 X11.158 Y59.281 E109.67798
G1 X11.453 Y58.63 E109.72433
