;FLAVOR:Marlin
;TIME:23422
;Filament used: 31.4784m
;Layer height: 0.3
;MINX:8.197
;MINY:22.976
;MINZ:0.3
;MAXX:197.542
;MAXY:191.923
;MAXZ:27.375
;Generated with Cura_SteamEngine 4.11.0
M82 ;absolute extrusion mode
G21                                        ; metric values 
G90                                        ; absolute positioning 
M82                                        ; set extruder to absolute mode 
M107                                       ; start with the fan off 
M140 S60           ; Start heating the bed 
G4 S60                                     ; wait 1 minute 
M104 S230         ; start heating the hot end 
M190 S60           ; wait for bed 
M109 S230         ; wait for hotend 
M300 S1000 P500                            ; BEEP heating done 
G28 X0 Y10 Z0                              ; move X/Y to min endstops 
M420 S1                                    ; Enable leveling 
M420 Z2.0                                  ; Set leveling fading height to 2 mm 
G0 Z0.15                                   ; lift nozzle a bit 
G92 E0                                     ; zero the extruded length 
G1 X50 E25 F500                            ; Extrude 25mm of filament in a 5cm line. 
G92 E0                                     ; zero the extruded length again 
G1 E-2 F500                                ; Retract a little 
G1 X120 F4000                              ; Quickly wipe away from the filament line`
G92 E0
G92 E0
G1 F1500 E-6
;LAYER_COUNT:91
;LAYER:0
M106 S51
M205 X10 Y10
G1 F600 Z0.375
G0 F4500 X15.377 Y43.881 Z0.375
M205 X8 Y8
;TYPE:SKIRT
G1 F600 Z0.3
G1 F1500 E0
G1 F1200 X16.189 Y43.614 E0.04264
G1 X16.716 Y43.482 E0.06975
G1 X17.074 Y43.402 E0.08805
G1 X17.772 Y43.286 E0.12335
G1 X18.291 Y43.236 E0.14936
G1 X18.958 Y43.196 E0.1827
G1 X19.652 Y43.182 E0.21733
G1 X71.377 Y43.154 E2.7979
G1 X74.044 Y43.114 E2.93097
G1 X76.684 Y43.001 E3.06281
G1 X79.354 Y42.811 E3.19635
G1 X81.946 Y42.552 E3.32631
G1 X84.608 Y42.21 E3.46021
G1 X87.202 Y41.801 E3.59122
G1 X89.814 Y41.315 E3.72377
G1 X92.396 Y40.757 E3.85556
G1 X94.973 Y40.123 E3.98796
G1 X97.521 Y39.422 E4.11981
G1 X100.028 Y38.652 E4.25065
G1 X102.568 Y37.794 E4.3844
G1 X105.064 Y36.872 E4.51715
G1 X107.509 Y35.888 E4.64864
G1 X109.923 Y34.837 E4.78
G1 X112.328 Y33.707 E4.91257
G1 X114.659 Y32.532 E5.0428
G1 X117.061 Y31.234 E5.17901
G1 X118.237 Y30.566 E5.24649
G1 X123.75 Y27.379 E5.56419
G1 X124.346 Y27.05 E5.59815
G1 X124.888 Y26.769 E5.62861
G1 X125.62 Y26.436 E5.66873
G1 X126.163 Y26.232 E5.69767
G1 X126.586 Y26.094 E5.71987
G1 X127.142 Y25.94 E5.74865
G1 X128.005 Y25.767 E5.79256
G1 X128.541 Y25.693 E5.81956
G1 X129.275 Y25.64 E5.85627
G1 X129.476 Y25.633 E5.86631
G1 X130.629 Y25.613 E5.92384
G1 X142.465 Y25.606 E6.51434
G1 X145.132 Y25.566 E6.64741
G1 X147.772 Y25.453 E6.77924
G1 X150.433 Y25.264 E6.91233
G1 X153.052 Y25.001 E7.04365
G1 X155.684 Y24.664 E7.17604
G1 X158.289 Y24.253 E7.30761
G1 X160.938 Y23.76 E7.44204
G1 X162.46 Y23.44 E7.51963
G1 X163.915 Y23.123 E7.59392
G1 X164.621 Y23.01 E7.62959
G1 X165.335 Y22.976 E7.66525
G1 X166.049 Y23.023 E7.70095
G1 X166.753 Y23.149 E7.73663
G1 X167.439 Y23.352 E7.77233
G1 X168.139 Y23.652 E7.81032
G1 X168.177 Y23.671 E7.81244
G1 X168.798 Y24.026 E7.84813
G1 X169.375 Y24.448 E7.88379
G1 X169.902 Y24.932 E7.91949
G1 X170.371 Y25.472 E7.95517
G1 X170.744 Y26.006 E7.98767
G1 X171.083 Y26.549 E8.01961
G1 X171.196 Y26.736 E8.03051
G1 X194.225 Y66.599 E10.3273
G1 X194.428 Y66.965 E10.34818
G1 X194.739 Y67.609 E10.38386
G1 X194.977 Y68.283 E10.41952
G1 X195.188 Y69.327 E10.47266
G1 X195.209 Y69.507 E10.4817
G1 X195.252 Y70.221 E10.51738
G1 X195.215 Y70.936 E10.5531
G1 X195.099 Y71.641 E10.58875
G1 X194.904 Y72.33 E10.62447
G1 X194.634 Y72.992 E10.66014
G1 X194.292 Y73.62 E10.69582
G1 X193.808 Y74.298 E10.73738
G1 X193.371 Y74.833 E10.77184
G1 X192.321 Y76.079 E10.85313
G1 X190.667 Y78.159 E10.98571
G1 X189.082 Y80.275 E11.11761
G1 X187.572 Y82.413 E11.2482
G1 X186.102 Y84.622 E11.38058
G1 X184.689 Y86.885 E11.51368
G1 X183.356 Y89.16 E11.64523
G1 X182.086 Y91.476 E11.77701
G1 X180.88 Y93.83 E11.90896
G1 X179.908 Y95.85 E12.0208
G1 X156.303 Y146.469 E14.80729
G1 X155.2 Y148.925 E14.94161
G1 X154.185 Y151.365 E15.07345
G1 X153.222 Y153.875 E15.20757
G1 X152.359 Y156.343 E15.33801
G1 X151.56 Y158.849 E15.46924
G1 X150.842 Y161.33 E15.5981
G1 X144.409 Y184.757 E16.81014
G1 X144.186 Y185.527 E16.85013
G1 X144.137 Y185.69 E16.85862
G1 X143.958 Y186.251 E16.888
G1 X143.725 Y186.946 E16.92457
G1 X143.493 Y187.609 E16.95962
G1 X143.219 Y188.27 E16.99532
G1 X142.874 Y188.896 E17.03098
G1 X142.46 Y189.48 E17.06669
G1 X141.984 Y190.014 E17.10238
G1 X141.452 Y190.491 E17.13803
G1 X140.869 Y190.906 E17.17373
G1 X140.244 Y191.254 E17.20942
G1 X139.584 Y191.529 E17.24509
G1 X138.898 Y191.73 E17.28075
G1 X138.193 Y191.852 E17.31645
G1 X137.56 Y191.894 E17.3481
G1 X136.623 Y191.909 E17.39485
G1 X57.184 Y191.91 E21.35808
G1 X54.25 Y191.923 E21.50446
G1 X15.278 Y191.898 E23.44878
G1 X14.536 Y191.886 E23.4858
G1 X13.822 Y191.835 E23.52152
G1 X13.119 Y191.704 E23.55719
G1 X12.435 Y191.495 E23.59288
G1 X11.778 Y191.212 E23.62856
G1 X11.157 Y190.857 E23.66425
G1 X10.58 Y190.435 E23.69992
G1 X10.053 Y189.951 E23.73561
G1 X9.583 Y189.411 E23.77133
G1 X9.177 Y188.823 E23.80698
G1 X8.839 Y188.192 E23.84269
G1 X8.573 Y187.528 E23.87838
G1 X8.355 Y186.702 E23.921
G1 X8.314 Y186.49 E23.93177
G1 X8.218 Y185.781 E23.96747
G1 X8.198 Y185.232 E23.99487
G1 X8.212 Y183.233 E24.09461
G1 X8.212 Y146.254 E25.9395
G1 X8.197 Y54.77 E30.50365
G1 X8.207 Y54.065 E30.53883
G1 X8.245 Y53.344 E30.57485
G1 X8.288 Y52.876 E30.5983
G1 X8.393 Y52.17 E30.63391
G1 X8.51 Y51.639 E30.66103
G1 X8.634 Y51.157 E30.68586
G1 X8.847 Y50.484 E30.72108
G1 X9.078 Y49.899 E30.75246
G1 X9.216 Y49.584 E30.76962
G1 X9.56 Y48.91 E30.80737
G1 X9.859 Y48.401 E30.83682
G1 X10.116 Y47.992 E30.86092
G1 X10.491 Y47.472 E30.8929
G1 X10.781 Y47.119 E30.9157
G1 X11.127 Y46.724 E30.94189
G1 X11.604 Y46.234 E30.97601
G1 X12.025 Y45.858 E31.00417
G1 X12.329 Y45.605 E31.0239
G1 X12.974 Y45.133 E31.06378
G1 X13.568 Y44.753 E31.09896
G1 X14.09 Y44.453 E31.129
G1 X14.3 Y44.345 E31.14078
G1 X14.828 Y44.103 E31.16976
G1 X15.377 Y43.881 E31.1993
M205 X10 Y10
G0 F4500 X15.527 Y44.252
M205 X8 Y8
G1 F1200 X16.288 Y44.001 E31.23928
G1 X16.803 Y43.872 E31.26576
G1 X17.161 Y43.792 E31.28407
G1 X17.816 Y43.684 E31.31719
G1 X18.317 Y43.635 E31.3423
G1 X18.972 Y43.596 E31.37504
G1 X19.657 Y43.582 E31.40922
G1 X71.384 Y43.554 E33.98989
G1 X74.031 Y43.515 E34.12196
G1 X76.731 Y43.399 E34.25679
G1 X79.386 Y43.21 E34.38958
G1 X82 Y42.949 E34.52065
G1 X84.655 Y42.607 E34.6542
G1 X87.261 Y42.197 E34.78581
G1 X89.9 Y41.705 E34.91974
G1 X92.503 Y41.143 E35.0526
G1 X95.044 Y40.518 E35.18315
G1 X97.63 Y39.806 E35.31696
G1 X100.168 Y39.027 E35.44941
G1 X102.698 Y38.173 E35.58263
G1 X105.203 Y37.246 E35.71589
G1 X107.652 Y36.262 E35.84757
G1 X110.104 Y35.194 E35.981
G1 X112.5 Y34.069 E36.11305
G1 X114.865 Y32.876 E36.24521
G1 X117.251 Y31.587 E36.38051
G1 X118.435 Y30.914 E36.44845
G1 X123.945 Y27.729 E36.76597
G1 X124.53 Y27.405 E36.79933
G1 X125.072 Y27.124 E36.82979
G1 X125.778 Y26.804 E36.86846
G1 X126.287 Y26.612 E36.8956
G1 X126.71 Y26.474 E36.9178
G1 X127.231 Y26.329 E36.94478
G1 X128.077 Y26.161 E36.98781
G1 X128.579 Y26.091 E37.0131
G1 X129.295 Y26.039 E37.04891
G1 X129.483 Y26.033 E37.0583
G1 X130.629 Y26.013 E37.11548
G1 X142.472 Y26.006 E37.70633
G1 X145.119 Y25.967 E37.8384
G1 X147.819 Y25.851 E37.97323
G1 X150.466 Y25.663 E38.10562
G1 X153.107 Y25.398 E38.23805
G1 X155.726 Y25.062 E38.36978
G1 X158.353 Y24.648 E38.50246
G1 X161.007 Y24.154 E38.63714
G1 X162.542 Y23.832 E38.71539
G1 X164 Y23.514 E38.78984
G1 X164.684 Y23.405 E38.8244
G1 X165.376 Y23.377 E38.85895
G1 X166.066 Y23.428 E38.89347
G1 X166.747 Y23.559 E38.92806
G1 X167.407 Y23.767 E38.96259
G1 X167.96 Y24.009 E38.9927
G1 X167.998 Y24.028 E38.99482
G1 X168.599 Y24.373 E39.0294
G1 X169.156 Y24.785 E39.06396
G1 X169.661 Y25.258 E39.09848
G1 X170.109 Y25.787 E39.13307
G1 X170.405 Y26.218 E39.15915
G1 X170.744 Y26.761 E39.19109
G1 X170.849 Y26.936 E39.20127
G1 X193.875 Y66.793 E41.49772
G1 X194.078 Y67.159 E41.5186
G1 X194.378 Y67.783 E41.55315
G1 X194.605 Y68.437 E41.58768
G1 X194.791 Y69.374 E41.63534
G1 X194.812 Y69.554 E41.64438
G1 X194.852 Y70.245 E41.67892
G1 X194.812 Y70.936 E41.71345
G1 X194.694 Y71.619 E41.74803
G1 X194.497 Y72.283 E41.78258
G1 X194.225 Y72.92 E41.81714
G1 X193.881 Y73.521 E41.85169
G1 X193.498 Y74.045 E41.88407
G1 X193.065 Y74.575 E41.91821
G1 X192.018 Y75.818 E41.99929
G1 X190.363 Y77.899 E42.13194
G1 X188.768 Y80.028 E42.26466
G1 X187.229 Y82.207 E42.39775
G1 X185.763 Y84.411 E42.52982
G1 X184.348 Y86.676 E42.66306
G1 X183.003 Y88.972 E42.79581
G1 X181.737 Y91.28 E42.92714
G1 X180.513 Y93.669 E43.06106
G1 X179.578 Y95.612 E43.16864
G1 X155.921 Y146.342 E45.96124
G1 X154.837 Y148.756 E46.09326
G1 X153.806 Y151.235 E46.2272
G1 X152.858 Y153.707 E46.35929
G1 X151.973 Y156.237 E46.49301
G1 X151.181 Y158.721 E46.62309
G1 X150.445 Y161.264 E46.75516
G1 X144.025 Y184.646 E47.96487
G1 X143.756 Y185.569 E48.01283
G1 X143.578 Y186.124 E48.04191
G1 X143.347 Y186.814 E48.07822
G1 X143.115 Y187.477 E48.11326
G1 X142.849 Y188.116 E48.14779
G1 X142.511 Y188.721 E48.18237
G1 X142.106 Y189.282 E48.21689
G1 X141.638 Y189.793 E48.25146
G1 X141.115 Y190.247 E48.28601
G1 X140.543 Y190.637 E48.32055
G1 X139.93 Y190.959 E48.35509
G1 X139.284 Y191.208 E48.38963
G1 X138.614 Y191.382 E48.42417
G1 X137.927 Y191.476 E48.45876
G1 X137.553 Y191.494 E48.47744
G1 X136.623 Y191.509 E48.52385
G1 X57.182 Y191.51 E52.48717
G1 X54.25 Y191.523 E52.63345
G1 X15.284 Y191.498 E54.57747
G1 X14.542 Y191.486 E54.6145
G1 X13.851 Y191.435 E54.64907
G1 X13.171 Y191.305 E54.68361
G1 X12.511 Y191.097 E54.71813
G1 X11.878 Y190.814 E54.75272
G1 X11.283 Y190.461 E54.78724
G1 X10.732 Y190.041 E54.8218
G1 X10.233 Y189.56 E54.85638
G1 X9.793 Y189.025 E54.89094
G1 X9.418 Y188.444 E54.92544
G1 X9.112 Y187.822 E54.96002
G1 X8.88 Y187.17 E54.99455
G1 X8.748 Y186.626 E55.02248
G1 X8.707 Y186.414 E55.03325
G1 X8.615 Y185.728 E55.06778
G1 X8.598 Y185.234 E55.09244
G1 X8.612 Y183.236 E55.19212
G1 X8.612 Y146.254 E57.03716
G1 X8.597 Y54.776 E61.60102
G1 X8.607 Y54.071 E61.6362
G1 X8.643 Y53.381 E61.67067
G1 X8.686 Y52.913 E61.69411
G1 X8.785 Y52.251 E61.72751
G1 X8.897 Y51.739 E61.75366
G1 X9.021 Y51.257 E61.77849
G1 X9.221 Y50.626 E61.81151
G1 X9.444 Y50.059 E61.84191
G1 X9.582 Y49.744 E61.85907
G1 X9.905 Y49.113 E61.89443
G1 X10.204 Y48.604 E61.92388
G1 X10.452 Y48.209 E61.94715
G1 X10.803 Y47.721 E61.97714
G1 X11.082 Y47.383 E61.99901
G1 X11.428 Y46.988 E62.0252
G1 X11.875 Y46.528 E62.0572
G1 X12.281 Y46.165 E62.08438
G1 X12.585 Y45.912 E62.10411
G1 X13.19 Y45.47 E62.14149
G1 X13.784 Y45.09 E62.17667
G1 X14.273 Y44.808 E62.20483
G1 X14.483 Y44.7 E62.21661
G1 X14.978 Y44.474 E62.24376
G1 X15.527 Y44.252 E62.2733
M205 X10 Y10
G0 F4500 X15.677 Y44.622
M205 X8 Y8
G1 F1200 X16.387 Y44.389 E62.31058
G1 X16.891 Y44.263 E62.3365
G1 X17.249 Y44.183 E62.3548
G1 X17.86 Y44.081 E62.38571
G1 X18.829 Y44.003 E62.43421
G1 X19.661 Y43.982 E62.47573
G1 X71.39 Y43.954 E65.0565
G1 X74.054 Y43.914 E65.18942
G1 X76.741 Y43.799 E65.3236
G1 X79.421 Y43.608 E65.45765
G1 X82.055 Y43.346 E65.58971
G1 X84.697 Y43.005 E65.72261
G1 X87.365 Y42.585 E65.85736
G1 X89.953 Y42.103 E65.98869
G1 X92.579 Y41.536 E66.12272
G1 X95.165 Y40.9 E66.25558
G1 X97.758 Y40.186 E66.38976
G1 X100.266 Y39.416 E66.52065
G1 X102.859 Y38.54 E66.6572
G1 X105.312 Y37.634 E66.78766
G1 X107.824 Y36.623 E66.92275
G1 X110.255 Y35.565 E67.05503
G1 X112.671 Y34.43 E67.1882
G1 X115.056 Y33.227 E67.32147
G1 X117.44 Y31.939 E67.45665
G1 X118.595 Y31.283 E67.52292
G1 X124.14 Y28.078 E67.84245
G1 X124.714 Y27.76 E67.87519
G1 X125.256 Y27.479 E67.90565
G1 X125.936 Y27.171 E67.94289
G1 X126.411 Y26.992 E67.96821
G1 X126.834 Y26.854 E67.99041
G1 X127.321 Y26.719 E68.01563
G1 X128.148 Y26.554 E68.0577
G1 X128.814 Y26.47 E68.09119
G1 X129.315 Y26.439 E68.11623
G1 X129.491 Y26.433 E68.12502
G1 X130.63 Y26.413 E68.18185
G1 X142.478 Y26.406 E68.77295
G1 X145.142 Y26.366 E68.90587
G1 X147.829 Y26.251 E69.04005
G1 X150.497 Y26.061 E69.17349
G1 X153.129 Y25.797 E69.30546
G1 X155.807 Y25.454 E69.44016
G1 X158.452 Y25.037 E69.57375
G1 X161.067 Y24.55 E69.70646
G1 X162.584 Y24.231 E69.7838
G1 X164.085 Y23.904 E69.86044
G1 X164.746 Y23.801 E69.89381
G1 X165.415 Y23.778 E69.92721
G1 X166.081 Y23.834 E69.96055
G1 X166.736 Y23.97 E69.99393
G1 X167.371 Y24.182 E70.02733
G1 X167.819 Y24.386 E70.05189
G1 X168.399 Y24.721 E70.0853
G1 X168.934 Y25.122 E70.11866
G1 X169.418 Y25.584 E70.15204
G1 X169.843 Y26.1 E70.18539
G1 X170.065 Y26.429 E70.20519
G1 X170.404 Y26.972 E70.23713
G1 X170.503 Y27.137 E70.24673
G1 X193.525 Y66.987 E72.54278
G1 X193.728 Y67.353 E72.56366
G1 X194.017 Y67.956 E72.59702
G1 X194.232 Y68.59 E72.63042
G1 X194.393 Y69.42 E72.6726
G1 X194.414 Y69.6 E72.68164
G1 X194.452 Y70.268 E72.71502
G1 X194.41 Y70.936 E72.74842
G1 X194.288 Y71.594 E72.7818
G1 X194.089 Y72.232 E72.81515
G1 X193.815 Y72.843 E72.84855
G1 X193.47 Y73.416 E72.88192
G1 X193.189 Y73.792 E72.90534
G1 X192.759 Y74.317 E72.9392
G1 X191.714 Y75.556 E73.02006
G1 X190.046 Y77.656 E73.15386
G1 X188.437 Y79.803 E73.28772
G1 X186.901 Y81.977 E73.42052
G1 X185.418 Y84.207 E73.55413
G1 X184.021 Y86.442 E73.68562
G1 X182.657 Y88.771 E73.82028
G1 X181.373 Y91.111 E73.95344
G1 X180.162 Y93.476 E74.086
G1 X179.187 Y95.503 E74.19822
G1 X155.592 Y146.1 E76.98349
G1 X154.467 Y148.605 E77.12049
G1 X153.435 Y151.087 E77.2546
G1 X152.472 Y153.599 E77.38882
G1 X151.601 Y156.088 E77.52038
G1 X150.788 Y158.637 E77.65386
G1 X150.081 Y161.079 E77.78069
G1 X143.641 Y184.535 E78.99422
G1 X143.418 Y185.305 E79.03422
G1 X143.375 Y185.447 E79.04162
G1 X143.199 Y185.997 E79.07043
G1 X142.97 Y186.682 E79.10646
G1 X142.738 Y187.345 E79.14151
G1 X142.479 Y187.962 E79.17489
G1 X142.149 Y188.544 E79.20827
G1 X141.752 Y189.082 E79.24163
G1 X141.294 Y189.569 E79.27498
G1 X140.78 Y189.998 E79.30838
G1 X140.22 Y190.363 E79.34173
G1 X139.619 Y190.659 E79.37516
G1 X138.988 Y190.88 E79.40851
G1 X138.335 Y191.025 E79.44188
G1 X137.547 Y191.094 E79.48135
G1 X136.623 Y191.109 E79.52745
G1 X57.18 Y191.11 E83.49088
G1 X54.251 Y191.123 E83.63701
G1 X15.29 Y191.098 E85.58078
G1 X14.548 Y191.086 E85.61781
G1 X13.881 Y191.036 E85.65118
G1 X13.225 Y190.906 E85.68454
G1 X12.589 Y190.698 E85.71792
G1 X11.982 Y190.417 E85.7513
G1 X11.413 Y190.065 E85.78468
G1 X10.89 Y189.647 E85.81808
G1 X10.421 Y189.17 E85.85145
G1 X10.012 Y188.641 E85.88481
G1 X9.669 Y188.067 E85.91817
G1 X9.396 Y187.456 E85.95156
G1 X9.141 Y186.55 E85.99852
G1 X9.1 Y186.338 E86.00929
G1 X9.012 Y185.675 E86.04266
G1 X8.998 Y185.237 E86.06452
G1 X9.012 Y183.239 E86.1642
G1 X9.012 Y146.254 E88.00939
G1 X8.997 Y54.782 E92.57295
G1 X9.007 Y54.077 E92.60812
G1 X9.041 Y53.418 E92.64105
G1 X9.084 Y52.95 E92.66449
G1 X9.176 Y52.331 E92.69571
G1 X9.285 Y51.839 E92.72086
G1 X9.409 Y51.357 E92.74569
G1 X9.595 Y50.768 E92.7765
G1 X9.811 Y50.22 E92.80589
G1 X9.949 Y49.905 E92.82305
G1 X10.249 Y49.316 E92.85602
G1 X10.548 Y48.807 E92.88547
G1 X10.788 Y48.426 E92.90794
G1 X11.116 Y47.971 E92.93592
G1 X11.383 Y47.646 E92.95691
G1 X11.729 Y47.251 E92.9831
G1 X12.146 Y46.823 E93.01292
G1 X12.537 Y46.473 E93.0391
G1 X12.841 Y46.22 E93.05883
G1 X13.405 Y45.807 E93.09371
G1 X13.999 Y45.427 E93.12889
G1 X14.456 Y45.164 E93.15519
G1 X14.666 Y45.056 E93.16697
G1 X15.128 Y44.844 E93.19233
G1 X15.677 Y44.622 E93.22188
M205 X10 Y10
G0 F4500 X15.827 Y44.993
M205 X8 Y8
G1 F1200 X16.487 Y44.776 E93.25654
G1 X16.978 Y44.653 E93.28179
G1 X17.336 Y44.573 E93.30009
G1 X17.903 Y44.479 E93.32877
G1 X18.855 Y44.403 E93.37641
G1 X19.665 Y44.382 E93.41684
G1 X71.396 Y44.354 E95.99771
G1 X74.078 Y44.314 E96.13153
G1 X76.748 Y44.2 E96.26486
G1 X79.452 Y44.007 E96.4001
G1 X82.113 Y43.742 E96.53352
G1 X84.739 Y43.404 E96.66561
G1 X87.429 Y42.98 E96.80147
G1 X90.039 Y42.494 E96.93392
G1 X92.694 Y41.92 E97.06944
G1 X95.219 Y41.299 E97.19917
G1 X97.876 Y40.568 E97.33665
