;FLAVOR:Marlin
;TIME:914
;Filament used: 0.1743m
;Layer height: 0.1
;MINX:74.75
;MINY:91.633
;MINZ:0.1
;MAXX:135.25
;MAXY:122.233
;MAXZ:1.075
;Generated with Cura_SteamEngine 4.11.0
M82 ;absolute extrusion mode
G21                                        ; metric values 
G90                                        ; absolute positioning 
M82                                        ; set extruder to absolute mode 
M107                                       ; start with the fan off 
M140 S80           ; Start heating the bed 
G4 S60                                     ; wait 1 minute 
M104 S240.0         ; start heating the hot end 
M190 S80           ; wait for bed 
M109 S240.0         ; wait for hotend 
M300 S1000 P500                            ; BEEP heating done 
G28 X0 Y10 Z0                              ; move X/Y to min endstops 
M420 S1                                    ; Enable leveling 
M420 Z2.0                                  ; Set leveling fading height to 2 mm 
G0 Z0.15                                   ; lift nozzle a bit 
G92 E0                                     ; zero the extruded length 
G1 X50 E25 F500                            ; Extrude 25mm of filament in a 5cm line. 
G92 E0                                     ; zero the extruded length again 
G1 E-2 F500                                ; Retract a little 
G1 X120 F4000                              ; Quickly wipe away from the filament line`
G92 E0
G92 E0
G1 F1500 E-6
;LAYER_COUNT:10
;LAYER:0
M106 S12.8
M205 X10 Y10
G1 F600 Z0.175
G0 F3000 X77.772 Y93.267 Z0.175
M205 X8 Y8
;TYPE:SKIRT
G1 F600 Z0.1
G1 F1500 E0
G1 F1200 X78.42 Y92.816 E0.01313
G1 X79.111 Y92.432 E0.02628
G1 X79.836 Y92.12 E0.0394
G1 X80.589 Y91.883 E0.05253
G1 X81.363 Y91.724 E0.06567
G1 X82.148 Y91.643 E0.07879
G1 X82.55 Y91.633 E0.08548
G1 X127.45 Y91.633 E0.83217
G1 X128.239 Y91.673 E0.84531
G1 X129.019 Y91.792 E0.85843
G1 X129.784 Y91.99 E0.87157
G1 X130.524 Y92.264 E0.8847
G1 X131.233 Y92.612 E0.89783
G1 X131.904 Y93.03 E0.91098
G1 X132.528 Y93.513 E0.9241
G1 X133.101 Y94.056 E0.93723
G1 X133.616 Y94.655 E0.95036
G1 X134.067 Y95.303 E0.96349
G1 X134.451 Y95.994 E0.97664
G1 X134.763 Y96.719 E0.98977
G1 X135 Y97.472 E1.00289
G1 X135.159 Y98.246 E1.01603
G1 X135.24 Y99.031 E1.02916
G1 X135.25 Y99.433 E1.03585
G1 X135.25 Y114.433 E1.2853
G1 X135.21 Y115.222 E1.29843
G1 X135.091 Y116.002 E1.31156
G1 X134.893 Y116.767 E1.3247
G1 X134.619 Y117.507 E1.33782
G1 X134.271 Y118.216 E1.35095
G1 X133.853 Y118.887 E1.3641
G1 X133.37 Y119.511 E1.37722
G1 X132.827 Y120.084 E1.39035
G1 X132.228 Y120.599 E1.40349
G1 X131.58 Y121.05 E1.41662
G1 X130.889 Y121.434 E1.42976
G1 X130.164 Y121.746 E1.44289
G1 X129.411 Y121.983 E1.45602
G1 X128.637 Y122.142 E1.46916
G1 X127.852 Y122.223 E1.48228
G1 X127.45 Y122.233 E1.48897
G1 X82.55 Y122.233 E2.23566
G1 X81.761 Y122.193 E2.2488
G1 X80.981 Y122.074 E2.26192
G1 X80.216 Y121.876 E2.27506
G1 X79.476 Y121.602 E2.28818
G1 X78.767 Y121.254 E2.30132
G1 X78.096 Y120.836 E2.31447
G1 X77.472 Y120.353 E2.32759
G1 X76.899 Y119.81 E2.34072
G1 X76.384 Y119.211 E2.35385
G1 X75.933 Y118.563 E2.36698
G1 X75.549 Y117.872 E2.38013
G1 X75.237 Y117.147 E2.39325
G1 X75 Y116.394 E2.40638
G1 X74.841 Y115.62 E2.41952
G1 X74.76 Y114.835 E2.43265
G1 X74.75 Y114.433 E2.43933
G1 X74.75 Y99.433 E2.68879
G1 X74.79 Y98.644 E2.70192
G1 X74.909 Y97.864 E2.71505
G1 X75.107 Y97.099 E2.72819
G1 X75.381 Y96.359 E2.74131
G1 X75.729 Y95.65 E2.75444
G1 X76.147 Y94.979 E2.76759
G1 X76.63 Y94.355 E2.78071
G1 X77.173 Y93.782 E2.79384
G1 X77.772 Y93.267 E2.80698
M205 X10 Y10
G0 F3000 X78.161 Y93.475
M205 X8 Y8
G1 F1200 X78.803 Y93.052 E2.81976
G1 X79.486 Y92.697 E2.83256
G1 X80.201 Y92.416 E2.84534
G1 X80.943 Y92.21 E2.85815
G1 X81.701 Y92.082 E2.87093
G1 X82.55 Y92.033 E2.88507
G1 X127.45 Y92.033 E3.63176
G1 X128.218 Y92.073 E3.64455
G1 X128.978 Y92.192 E3.65735
G1 X129.721 Y92.39 E3.67013
G1 X130.44 Y92.664 E3.68293
G1 X131.126 Y93.011 E3.69571
G1 X131.773 Y93.427 E3.7085
G1 X132.373 Y93.908 E3.72129
G1 X132.92 Y94.449 E3.73409
G1 X133.408 Y95.044 E3.74689
G1 X133.831 Y95.686 E3.75967
G1 X134.186 Y96.369 E3.77247
G1 X134.467 Y97.084 E3.78525
G1 X134.673 Y97.826 E3.79805
G1 X134.801 Y98.584 E3.81084
G1 X134.85 Y99.433 E3.82498
G1 X134.85 Y114.433 E4.07443
G1 X134.81 Y115.201 E4.08722
G1 X134.691 Y115.961 E4.10001
G1 X134.493 Y116.704 E4.1128
G1 X134.219 Y117.423 E4.1256
G1 X133.872 Y118.109 E4.13838
G1 X133.456 Y118.756 E4.15117
G1 X132.975 Y119.356 E4.16396
G1 X132.434 Y119.903 E4.17676
G1 X131.839 Y120.391 E4.18955
G1 X131.197 Y120.814 E4.20234
G1 X130.514 Y121.169 E4.21514
G1 X129.799 Y121.45 E4.22792
G1 X129.057 Y121.656 E4.24072
G1 X128.299 Y121.784 E4.25351
G1 X127.45 Y121.833 E4.26765
G1 X82.55 Y121.833 E5.01434
G1 X81.782 Y121.793 E5.02713
G1 X81.022 Y121.674 E5.03992
G1 X80.279 Y121.476 E5.05271
G1 X79.56 Y121.202 E5.0655
G1 X78.874 Y120.855 E5.07829
G1 X78.227 Y120.439 E5.09108
G1 X77.627 Y119.958 E5.10387
G1 X77.08 Y119.417 E5.11666
G1 X76.592 Y118.822 E5.12946
G1 X76.169 Y118.18 E5.14225
G1 X75.814 Y117.497 E5.15505
G1 X75.533 Y116.782 E5.16782
G1 X75.327 Y116.04 E5.18063
G1 X75.199 Y115.282 E5.19341
G1 X75.15 Y114.433 E5.20755
G1 X75.15 Y99.433 E5.45701
G1 X75.19 Y98.665 E5.4698
G1 X75.309 Y97.905 E5.48259
G1 X75.507 Y97.162 E5.49538
G1 X75.781 Y96.443 E5.50817
G1 X76.128 Y95.757 E5.52096
G1 X76.544 Y95.11 E5.53375
G1 X77.025 Y94.51 E5.54654
G1 X77.566 Y93.963 E5.55933
G1 X78.161 Y93.475 E5.57213
M205 X10 Y10
G0 F3000 X78.548 Y93.69
M205 X8 Y8
G1 F1200 X79.184 Y93.295 E5.58458
G1 X79.858 Y92.971 E5.59701
G1 X80.563 Y92.721 E5.60945
G1 X81.291 Y92.547 E5.6219
G1 X82.033 Y92.452 E5.63434
G1 X82.55 Y92.433 E5.64295
G1 X127.45 Y92.433 E6.38964
G1 X128.197 Y92.473 E6.40208
G1 X128.935 Y92.592 E6.41451
G1 X129.657 Y92.79 E6.42696
G1 X130.353 Y93.063 E6.43939
G1 X131.016 Y93.41 E6.45184
G1 X131.639 Y93.825 E6.46428
G1 X132.213 Y94.304 E6.47672
G1 X132.734 Y94.841 E6.48916
G1 X133.193 Y95.431 E6.50159
G1 X133.588 Y96.067 E6.51404
G1 X133.912 Y96.741 E6.52648
G1 X134.162 Y97.446 E6.53892
G1 X134.336 Y98.174 E6.55137
G1 X134.431 Y98.916 E6.56381
G1 X134.45 Y99.433 E6.57241
G1 X134.45 Y114.433 E6.82186
G1 X134.41 Y115.18 E6.8343
G1 X134.291 Y115.918 E6.84673
G1 X134.093 Y116.64 E6.85918
G1 X133.82 Y117.336 E6.87162
G1 X133.473 Y117.999 E6.88406
G1 X133.058 Y118.622 E6.89651
G1 X132.579 Y119.196 E6.90894
G1 X132.042 Y119.717 E6.92138
G1 X131.452 Y120.176 E6.93382
G1 X130.816 Y120.571 E6.94627
G1 X130.142 Y120.895 E6.9587
G1 X129.437 Y121.145 E6.97114
G1 X128.709 Y121.319 E6.98359
G1 X127.967 Y121.414 E6.99603
G1 X127.45 Y121.433 E7.00463
G1 X82.55 Y121.433 E7.75132
G1 X81.803 Y121.393 E7.76376
G1 X81.065 Y121.274 E7.7762
G1 X80.343 Y121.076 E7.78865
G1 X79.647 Y120.803 E7.80108
G1 X78.984 Y120.456 E7.81352
G1 X78.361 Y120.041 E7.82597
G1 X77.787 Y119.562 E7.8384
G1 X77.266 Y119.025 E7.85085
G1 X76.807 Y118.435 E7.86328
G1 X76.412 Y117.799 E7.87573
G1 X76.088 Y117.125 E7.88817
G1 X75.838 Y116.42 E7.90061
G1 X75.664 Y115.692 E7.91305
G1 X75.569 Y114.95 E7.92549
G1 X75.55 Y114.433 E7.9341
G1 X75.55 Y99.433 E8.18355
G1 X75.59 Y98.686 E8.19599
G1 X75.709 Y97.948 E8.20842
G1 X75.907 Y97.226 E8.22087
G1 X76.18 Y96.53 E8.2333
G1 X76.527 Y95.867 E8.24575
G1 X76.942 Y95.244 E8.2582
G1 X77.421 Y94.67 E8.27063
G1 X77.958 Y94.149 E8.28307
G1 X78.548 Y93.69 E8.2955
M205 X10 Y10
G0 F3000 X78.349 Y94.342
M205 X8 Y8
G1 F1200 X78.934 Y93.912 E8.30758
G1 X79.563 Y93.548 E8.31966
G1 X80.228 Y93.255 E8.33175
G1 X80.921 Y93.037 E8.34383
G1 X81.633 Y92.897 E8.3559
G1 X82.55 Y92.833 E8.37118
G1 X127.45 Y92.833 E9.11787
G1 X128.175 Y92.873 E9.12995
G1 X128.892 Y92.992 E9.14204
G1 X129.591 Y93.19 E9.15412
G1 X130.264 Y93.463 E9.16619
G1 X130.903 Y93.808 E9.17827
G1 X131.5 Y94.222 E9.19035
G1 X132.048 Y94.698 E9.20242
G1 X132.541 Y95.232 E9.21451
G1 X132.971 Y95.817 E9.22658
G1 X133.335 Y96.446 E9.23867
G1 X133.628 Y97.111 E9.25076
G1 X133.846 Y97.804 E9.26284
G1 X133.986 Y98.516 E9.2749
G1 X134.05 Y99.433 E9.29019
G1 X134.05 Y114.433 E9.53964
G1 X134.01 Y115.158 E9.55172
G1 X133.891 Y115.875 E9.5638
G1 X133.693 Y116.574 E9.57589
G1 X133.42 Y117.247 E9.58796
G1 X133.075 Y117.886 E9.60004
G1 X132.661 Y118.483 E9.61212
G1 X132.185 Y119.031 E9.62419
G1 X131.651 Y119.524 E9.63628
G1 X131.066 Y119.954 E9.64835
G1 X130.437 Y120.318 E9.66044
G1 X129.772 Y120.611 E9.67252
G1 X129.079 Y120.829 E9.6846
G1 X128.367 Y120.969 E9.69667
G1 X127.45 Y121.033 E9.71196
G1 X82.55 Y121.033 E10.45865
G1 X81.825 Y120.993 E10.47072
G1 X81.108 Y120.874 E10.48281
G1 X80.409 Y120.676 E10.49489
G1 X79.736 Y120.403 E10.50697
G1 X79.097 Y120.058 E10.51905
G1 X78.5 Y119.644 E10.53113
G1 X77.952 Y119.168 E10.5432
G1 X77.459 Y118.634 E10.55529
G1 X77.029 Y118.049 E10.56736
G1 X76.665 Y117.42 E10.57945
G1 X76.372 Y116.755 E10.59153
G1 X76.154 Y116.062 E10.60361
G1 X76.014 Y115.35 E10.61568
G1 X75.95 Y114.433 E10.63097
G1 X75.95 Y99.433 E10.88042
G1 X75.99 Y98.708 E10.89249
G1 X76.109 Y97.991 E10.90458
G1 X76.307 Y97.292 E10.91666
G1 X76.58 Y96.619 E10.92874
G1 X76.925 Y95.98 E10.94082
G1 X77.339 Y95.383 E10.9529
G1 X77.815 Y94.835 E10.96497
G1 X78.349 Y94.342 E10.97706
M205 X10 Y10
G0 F3000 X78.739 Y94.542
M205 X8 Y8
G1 F1200 X79.318 Y94.142 E10.98876
G1 X79.939 Y93.81 E11.00047
G1 X80.593 Y93.55 E11.01217
G1 X81.273 Y93.366 E11.02389
G1 X81.969 Y93.26 E11.0356
G1 X82.55 Y93.233 E11.04527
G1 X127.45 Y93.233 E11.79196
G1 X128.153 Y93.273 E11.80367
G1 X128.847 Y93.392 E11.81538
G1 X129.522 Y93.59 E11.82708
G1 X130.171 Y93.862 E11.83878
G1 X130.785 Y94.207 E11.85049
G1 X131.356 Y94.618 E11.86219
G1 X131.877 Y95.092 E11.8739
G1 X132.341 Y95.622 E11.88562
G1 X132.741 Y96.201 E11.89732
G1 X133.073 Y96.822 E11.90903
G1 X133.333 Y97.476 E11.92074
G1 X133.517 Y98.156 E11.93245
G1 X133.623 Y98.852 E11.94416
G1 X133.65 Y99.433 E11.95383
G1 X133.65 Y114.433 E12.20328
G1 X133.61 Y115.136 E12.21499
G1 X133.491 Y115.83 E12.2267
G1 X133.293 Y116.505 E12.2384
G1 X133.021 Y117.154 E12.2501
G1 X132.676 Y117.768 E12.26182
G1 X132.265 Y118.339 E12.27352
G1 X131.791 Y118.86 E12.28523
G1 X131.261 Y119.324 E12.29694
G1 X130.682 Y119.724 E12.30865
G1 X130.061 Y120.056 E12.32036
G1 X129.407 Y120.316 E12.33206
G1 X128.727 Y120.5 E12.34378
G1 X128.031 Y120.606 E12.35548
G1 X127.45 Y120.633 E12.36516
G1 X82.55 Y120.633 E13.11185
G1 X81.847 Y120.593 E13.12356
G1 X81.153 Y120.474 E13.13527
G1 X80.478 Y120.276 E13.14696
G1 X79.829 Y120.004 E13.15867
G1 X79.215 Y119.659 E13.17038
G1 X78.644 Y119.248 E13.18208
G1 X78.123 Y118.774 E13.19379
G1 X77.659 Y118.244 E13.20551
G1 X77.259 Y117.665 E13.21721
G1 X76.927 Y117.044 E13.22892
G1 X76.667 Y116.39 E13.24062
G1 X76.483 Y115.71 E13.25234
G1 X76.377 Y115.014 E13.26405
G1 X76.35 Y114.433 E13.27372
G1 X76.35 Y99.433 E13.52317
G1 X76.39 Y98.73 E13.53488
G1 X76.509 Y98.036 E13.54659
G1 X76.707 Y97.361 E13.55829
G1 X76.979 Y96.712 E13.56999
G1 X77.324 Y96.098 E13.5817
G1 X77.735 Y95.527 E13.5934
G1 X78.209 Y95.006 E13.60512
G1 X78.739 Y94.542 E13.61683
M205 X10 Y10
G0 F3000 X79.128 Y94.75
M205 X8 Y8
G1 F1200 X79.7 Y94.381 E13.62815
G1 X80.312 Y94.082 E13.63948
G1 X80.954 Y93.857 E13.65079
G1 X81.619 Y93.708 E13.66213
G1 X82.55 Y93.633 E13.67766
G1 X127.45 Y93.633 E14.42435
G1 X128.13 Y93.673 E14.43568
G1 X128.8 Y93.792 E14.44699
G1 X129.452 Y93.989 E14.45832
G1 X130.076 Y94.261 E14.46964
G1 X130.664 Y94.605 E14.48097
G1 X131.208 Y95.015 E14.4923
G1 X131.699 Y95.486 E14.50361
G1 X132.133 Y96.011 E14.51494
G1 X132.502 Y96.583 E14.52626
G1 X132.801 Y97.195 E14.53759
G1 X133.026 Y97.837 E14.5489
G1 X133.175 Y98.502 E14.56023
G1 X133.25 Y99.433 E14.57577
G1 X133.25 Y114.433 E14.82522
G1 X133.21 Y115.113 E14.83655
G1 X133.091 Y115.783 E14.84786
G1 X132.894 Y116.435 E14.85919
G1 X132.622 Y117.059 E14.87051
G1 X132.278 Y117.647 E14.88184
G1 X131.868 Y118.191 E14.89317
G1 X131.397 Y118.682 E14.90448
G1 X130.872 Y119.116 E14.91581
G1 X130.3 Y119.485 E14.92713
G1 X129.688 Y119.784 E14.93846
G1 X129.046 Y120.009 E14.94977
G1 X128.381 Y120.158 E14.9611
G1 X127.45 Y120.233 E14.97664
G1 X82.55 Y120.233 E15.72333
G1 X81.87 Y120.193 E15.73465
G1 X81.2 Y120.074 E15.74597
G1 X80.548 Y119.877 E15.7573
G1 X79.924 Y119.605 E15.76862
G1 X79.336 Y119.261 E15.77995
G1 X78.792 Y118.851 E15.79127
G1 X78.301 Y118.38 E15.80259
G1 X77.867 Y117.855 E15.81392
G1 X77.498 Y117.283 E15.82524
G1 X77.199 Y116.671 E15.83656
G1 X76.974 Y116.029 E15.84788
G1 X76.825 Y115.364 E15.85921
G1 X76.75 Y114.433 E15.87474
G1 X76.75 Y99.433 E16.12419
G1 X76.79 Y98.753 E16.13552
G1 X76.909 Y98.083 E16.14684
G1 X77.106 Y97.431 E16.15817
G1 X77.378 Y96.807 E16.16949
G1 X77.722 Y96.219 E16.18082
G1 X78.132 Y95.675 E16.19214
G1 X78.603 Y95.184 E16.20346
G1 X79.128 Y94.75 E16.21479
M205 X10 Y10
G0 F3000 X78.995 Y95.368
M205 X8 Y8
G1 F1200 X79.515 Y94.967 E16.22571
G1 X80.079 Y94.631 E16.23662
G1 X80.681 Y94.367 E16.24756
G1 X81.31 Y94.177 E16.25848
G1 X81.957 Y94.066 E16.2694
G1 X82.55 Y94.033 E16.27928
G1 X127.45 Y94.033 E17.02597
G1 X128.106 Y94.073 E17.0369
G1 X128.752 Y94.192 E17.04782
G1 X129.379 Y94.389 E17.05875
G1 X129.977 Y94.661 E17.06967
G1 X130.538 Y95.003 E17.0806
G1 X131.053 Y95.411 E17.09153
G1 X131.515 Y95.878 E17.10245
G1 X131.916 Y96.398 E17.11337
G1 X132.252 Y96.962 E17.12429
G1 X132.516 Y97.564 E17.13522
G1 X132.706 Y98.193 E17.14615
G1 X132.817 Y98.84 E17.15707
G1 X132.85 Y99.433 E17.16694
G1 X132.85 Y114.433 E17.41639
G1 X132.81 Y115.089 E17.42732
G1 X132.691 Y115.735 E17.43825
G1 X132.494 Y116.362 E17.44918
G1 X132.222 Y116.96 E17.4601
G1 X131.88 Y117.521 E17.47103
G1 X131.472 Y118.036 E17.48195
G1 X131.005 Y118.498 E17.49288
G1 X130.485 Y118.899 E17.5038
G1 X129.921 Y119.235 E17.51472
G1 X129.319 Y119.499 E17.52565
G1 X128.69 Y119.689 E17.53658
G1 X128.043 Y119.8 E17.54749
G1 X127.45 Y119.833 E17.55737
G1 X82.55 Y119.833 E18.30406
G1 X81.894 Y119.793 E18.31499
G1 X81.248 Y119.674 E18.32591
G1 X80.621 Y119.477 E18.33684
G1 X80.023 Y119.205 E18.34777
G1 X79.462 Y118.863 E18.35869
G1 X78.947 Y118.455 E18.36962
G1 X78.485 Y117.988 E18.38055
G1 X78.084 Y117.468 E18.39147
G1 X77.748 Y116.904 E18.40238
G1 X77.484 Y116.302 E18.41331
G1 X77.294 Y115.673 E18.42424
G1 X77.183 Y115.026 E18.43516
G1 X77.15 Y114.433 E18.44504
G1 X77.15 Y99.433 E18.69449
G1 X77.19 Y98.777 E18.70542
G1 X77.309 Y98.131 E18.71634
G1 X77.506 Y97.504 E18.72727
G1 X77.778 Y96.906 E18.73819
G1 X78.12 Y96.345 E18.74912
G1 X78.528 Y95.83 E18.76005
G1 X78.995 Y95.368 E18.77097
M205 X10 Y10
G0 F3000 X79.386 Y95.562
M205 X8 Y8
G1 F1200 X79.9 Y95.193 E18.78149
G1 X80.456 Y94.893 E18.792
G1 X81.045 Y94.665 E18.8025
G1 X81.659 Y94.513 E18.81302
G1 X82.55 Y94.433 E18.8279
G1 X127.45 Y94.433 E19.57459
G1 X128.081 Y94.473 E19.58511
G1 X128.702 Y94.592 E19.59562
G1 X129.302 Y94.789 E19.60612
G1 X129.874 Y95.06 E19.61665
G1 X130.406 Y95.4 E19.62715
G1 X130.891 Y95.806 E19.63767
G1 X131.321 Y96.269 E19.64817
G1 X131.69 Y96.783 E19.6587
G1 X131.99 Y97.339 E19.6692
G1 X132.218 Y97.928 E19.67971
G1 X132.37 Y98.542 E19.69023
G1 X132.45 Y99.433 E19.7051
G1 X132.45 Y114.433 E19.95455
G1 X132.41 Y115.064 E19.96507
G1 X132.291 Y115.685 E19.97558
G1 X132.094 Y116.285 E19.98609
G1 X131.823 Y116.857 E19.99661
G1 X131.483 Y117.389 E20.00711
G1 X131.077 Y117.874 E20.01763
G1 X130.614 Y118.304 E20.02814
G1 X130.1 Y118.673 E20.03866
G1 X129.544 Y118.973 E20.04917
G1 X128.955 Y119.201 E20.05967
G1 X128.341 Y119.353 E20.07019
G1 X127.45 Y119.433 E20.08507
G1 X82.55 Y119.433 E20.83176
G1 X81.919 Y119.393 E20.84227
G1 X81.298 Y119.274 E20.85279
G1 X80.698 Y119.077 E20.86329
G1 X80.126 Y118.806 E20.87381
G1 X79.594 Y118.466 E20.88431
G1 X79.109 Y118.06 E20.89483
G1 X78.679 Y117.597 E20.90534
G1 X78.31 Y117.083 E20.91586
G1 X78.01 Y116.527 E20.92637
G1 X77.782 Y115.938 E20.93687
G1 X77.63 Y115.324 E20.94739
G1 X77.55 Y114.433 E20.96227
G1 X77.55 Y99.433 E21.21172
G1 X77.59 Y98.802 E21.22224
G1 X77.709 Y98.181 E21.23275
G1 X77.906 Y97.581 E21.24325
G1 X78.177 Y97.009 E21.25378
G1 X78.517 Y96.477 E21.26428
G1 X78.923 Y95.992 E21.2748
G1 X79.386 Y95.562 E21.2853
M205 X10 Y10
G0 F3000 X79.775 Y95.764
M205 X8 Y8
