;FLAVOR:Marlin
;TIME:3339
;Filament used: 0.492995m
;Layer height: 0.1
;MINX:84.716
;MINY:71.275
;MINZ:0.3
;MAXX:139.004
;MAXY:137.92
;MAXZ:2.375
;Generated with Cura_SteamEngine 4.11.0
M82 ;absolute extrusion mode
G21                                        ; metric values 
G90                                        ; absolute positioning 
M82                                        ; set extruder to absolute mode 
M107                                       ; start with the fan off 
M140 S80           ; Start heating the bed 
G4 S60                                     ; wait 1 minute 
M104 S230.0         ; start heating the hot end 
M190 S80           ; wait for bed 
M109 S230.0         ; wait for hotend 
M300 S1000 P500                            ; BEEP heating done 
G28 X0 Y10 Z0                              ; move X/Y to min endstops 
M420 S1                                    ; Enable leveling 
M420 Z2.0                                  ; Set leveling fading height to 2 mm 
G0 Z0.15                                   ; lift nozzle a bit 
G92 E0                                     ; zero the extruded length 
G1 X50 E25 F500                            ; Extrude 25mm of filament in a 5cm line. 
G92 E0                                     ; zero the extruded length again 
G1 E-2 F500                                ; Retract a little 
G1 X120 F4000                              ; Quickly wipe away from the filament line`
G92 E0
G92 E0
G1 F1500 E-6
;LAYER_COUNT:22
;LAYER:0
M107
M205 X10 Y10
G1 F600 Z0.375
G0 F6000 X86.152 Y75.846 Z0.375
M205 X8 Y8
;TYPE:SKIRT
G1 F600 Z0.3
G1 F1500 E0
G1 F1200 X86.607 Y75.334 E0.02136
G1 X87.262 Y74.768 E0.04835
G1 X87.429 Y74.644 E0.05484
G1 X88.002 Y74.268 E0.07621
G1 X88.615 Y73.962 E0.09757
G1 X89.454 Y73.675 E0.12522
G1 X89.531 Y73.655 E0.1277
G1 X90.203 Y73.521 E0.14907
G1 X90.972 Y73.451 E0.17314
G1 X93.495 Y73.276 E0.252
G1 X95.131 Y73.126 E0.30323
G1 X95.74 Y73.064 E0.32232
G1 X96.451 Y73.025 E0.34452
G1 X96.755 Y73.022 E0.354
G1 X97.797 Y73.04 E0.3865
G1 X99.058 Y73.081 E0.42584
G1 X101.731 Y73.093 E0.50919
G1 X104.36 Y73.03 E0.59119
G1 X106.118 Y72.948 E0.64606
G1 X109.817 Y72.744 E0.76158
G1 X109.98 Y72.733 E0.76667
G1 X112.862 Y72.573 E0.85667
G1 X113.514 Y72.535 E0.87704
G1 X113.773 Y72.523 E0.88512
G1 X114.362 Y72.489 E0.90352
G1 X114.766 Y72.457 E0.91616
G1 X116.547 Y72.337 E0.97182
G1 X119.216 Y72.083 E1.05542
G1 X122.669 Y71.64 E1.16397
G1 X123.286 Y71.551 E1.18341
G1 X124.032 Y71.487 E1.20675
G1 X124.188 Y71.479 E1.21162
G1 X125.136 Y71.444 E1.2412
G1 X126.452 Y71.412 E1.28225
G1 X127.775 Y71.34 E1.32356
G1 X127.87 Y71.34 E1.32653
G1 X129.228 Y71.275 E1.36892
G1 X130.147 Y71.303 E1.39759
G1 X130.413 Y71.332 E1.40593
G1 X131.088 Y71.445 E1.42727
G1 X131.713 Y71.626 E1.44756
G1 X131.922 Y71.699 E1.45446
G1 X132.555 Y71.962 E1.47584
G1 X133.153 Y72.297 E1.49721
G1 X133.652 Y72.655 E1.51636
G1 X134.221 Y73.134 E1.53955
G1 X134.254 Y73.165 E1.54096
G1 X134.726 Y73.663 E1.56236
G1 X135.136 Y74.212 E1.58372
G1 X135.479 Y74.805 E1.60509
G1 X135.751 Y75.434 E1.62645
G1 X135.948 Y76.09 E1.64781
G1 X136.091 Y77.015 E1.677
G1 X136.204 Y78.551 E1.72502
G1 X136.309 Y80.085 E1.77296
G1 X136.46 Y81.737 E1.82469
G1 X136.514 Y82.302 E1.84239
G1 X136.548 Y82.811 E1.8583
G1 X136.561 Y83.193 E1.87021
G1 X136.568 Y83.751 E1.88761
G1 X136.651 Y86.206 E1.96421
G1 X136.711 Y87.916 E2.01756
G1 X136.757 Y88.756 E2.04379
G1 X138.404 Y118.34 E2.96769
G1 X138.667 Y121.881 E3.07841
G1 X138.802 Y123.34 E3.1241
G1 X138.838 Y124.034 E3.14577
G1 X138.842 Y124.196 E3.15082
G1 X138.85 Y124.795 E3.1695
G1 X138.925 Y127.547 E3.25534
G1 X138.953 Y128.116 E3.2731
G1 X139.004 Y129.338 E3.31124
G1 X138.992 Y130.023 E3.3326
G1 X138.901 Y130.702 E3.35396
G1 X138.732 Y131.366 E3.37533
G1 X138.486 Y132.006 E3.39671
G1 X138.167 Y132.613 E3.41809
G1 X137.78 Y133.178 E3.43944
G1 X137.374 Y133.656 E3.459
G1 X136.889 Y134.14 E3.48037
G1 X136.351 Y134.565 E3.50174
G1 X135.723 Y134.954 E3.52478
G1 X135.113 Y135.267 E3.54616
G1 X134.361 Y135.538 E3.57108
G1 X134.151 Y135.598 E3.57789
G1 X133.482 Y135.747 E3.59926
G1 X132.96 Y135.809 E3.61565
G1 X131.77 Y135.895 E3.65286
G1 X130.81 Y135.945 E3.68283
G1 X129.151 Y136.07 E3.73471
G1 X127.673 Y136.193 E3.78095
G1 X126.935 Y136.214 E3.80397
G1 X126.785 Y136.212 E3.80865
G1 X125.448 Y136.178 E3.85035
G1 X122.703 Y136.149 E3.93595
G1 X120.039 Y136.195 E4.01903
G1 X117.816 Y136.292 E4.08841
G1 X109.465 Y136.756 E4.34921
G1 X106.76 Y136.944 E4.43376
G1 X104.133 Y137.202 E4.51607
G1 X100.612 Y137.664 E4.6268
G1 X99.924 Y137.732 E4.64836
G1 X99.245 Y137.767 E4.66956
G1 X98.303 Y137.78 E4.69893
G1 X94.417 Y137.91 E4.82017
G1 X94.215 Y137.92 E4.82648
G1 X93.53 Y137.913 E4.84784
G1 X92.85 Y137.827 E4.86921
G1 X91.943 Y137.582 E4.8985
G1 X91.748 Y137.512 E4.90496
G1 X91.118 Y137.243 E4.92632
G1 X90.523 Y136.902 E4.94771
G1 X89.847 Y136.388 E4.97419
G1 X89.686 Y136.246 E4.98088
G1 X89.199 Y135.764 E5.00225
G1 X88.692 Y135.111 E5.02803
G1 X88.631 Y135.02 E5.03144
G1 X88.283 Y134.43 E5.0528
G1 X88.007 Y133.803 E5.07416
G1 X87.756 Y132.93 E5.10249
G1 X87.709 Y132.701 E5.10977
G1 X87.605 Y131.952 E5.13335
G1 X87.492 Y130.407 E5.18166
G1 X87.457 Y129.753 E5.20208
G1 X87.338 Y128.369 E5.24539
G1 X87.331 Y128.116 E5.25329
G1 X87.262 Y127.281 E5.27941
G1 X87.211 Y126.638 E5.29952
G1 X87.195 Y126.281 E5.31067
G1 X87.177 Y125.163 E5.34553
G1 X87.041 Y121.3 E5.46606
G1 X86.743 Y115.922 E5.63401
G1 X86.722 Y115.6 E5.64407
G1 X86.548 Y112.455 E5.74229
G1 X86.527 Y112.12 E5.75275
G1 X86.471 Y111.054 E5.78604
G1 X85.61 Y95.576 E6.26941
G1 X85.593 Y95.111 E6.28392
G1 X85.511 Y93.808 E6.32463
G1 X85.34 Y90.756 E6.41994
G1 X85.065 Y87.092 E6.53451
G1 X84.983 Y86.269 E6.5603
G1 X84.932 Y85.605 E6.58107
G1 X84.891 Y84.598 E6.61249
G1 X84.844 Y82.811 E6.66824
G1 X84.731 Y80.651 E6.73568
G1 X84.716 Y80.27 E6.74757
G1 X84.724 Y79.644 E6.76709
G1 X84.744 Y79.347 E6.77637
G1 X84.83 Y78.667 E6.79774
G1 X84.995 Y78.002 E6.81911
G1 X85.235 Y77.361 E6.84045
G1 X85.601 Y76.665 E6.86497
G1 X85.759 Y76.408 E6.87438
G1 X86.152 Y75.846 E6.89576
M205 X10 Y10
G0 F6000 X86.357 Y75.99
M205 X8 Y8
G1 F1200 X86.804 Y75.49 E6.91667
G1 X87.411 Y74.969 E6.94162
G1 X87.578 Y74.845 E6.9481
G1 X88.139 Y74.478 E6.96901
G1 X88.74 Y74.18 E6.98992
G1 X89.517 Y73.917 E7.0155
G1 X89.594 Y73.897 E7.01798
G1 X90.569 Y73.733 E7.04881
G1 X91.042 Y73.696 E7.0636
G1 X93.536 Y73.524 E7.14156
G1 X95.156 Y73.375 E7.19228
G1 X95.765 Y73.313 E7.21137
G1 X96.46 Y73.274 E7.23308
G1 X96.751 Y73.272 E7.24215
G1 X97.788 Y73.29 E7.27449
G1 X99.048 Y73.331 E7.3138
G1 X101.735 Y73.343 E7.39758
G1 X104.378 Y73.28 E7.48002
G1 X106.13 Y73.198 E7.53471
G1 X112.894 Y72.822 E7.74595
G1 X113.526 Y72.785 E7.76569
G1 X113.719 Y72.776 E7.77171
G1 X114.354 Y72.739 E7.79154
G1 X114.793 Y72.706 E7.80527
G1 X116.554 Y72.587 E7.86031
G1 X119.24 Y72.332 E7.94444
G1 X122.739 Y71.883 E8.05443
G1 X123.316 Y71.8 E8.07261
G1 X124.048 Y71.737 E8.09552
G1 X124.197 Y71.729 E8.10017
G1 X125.142 Y71.694 E8.12966
G1 X126.439 Y71.663 E8.17011
G1 X127.789 Y71.589 E8.21227
G1 X127.877 Y71.59 E8.21502
G1 X129.24 Y71.524 E8.25757
G1 X130.12 Y71.551 E8.28502
G1 X130.386 Y71.58 E8.29336
G1 X131.047 Y71.692 E8.31427
G1 X131.631 Y71.862 E8.33323
G1 X131.84 Y71.935 E8.34014
G1 X132.459 Y72.193 E8.36105
G1 X133.042 Y72.523 E8.38194
G1 X133.496 Y72.851 E8.3994
G1 X134.05 Y73.316 E8.42195
G1 X134.083 Y73.347 E8.42336
G1 X134.544 Y73.835 E8.4443
G1 X134.943 Y74.373 E8.46518
G1 X135.275 Y74.956 E8.4861
G1 X135.536 Y75.574 E8.50702
G1 X135.721 Y76.218 E8.52791
G1 X135.842 Y77.034 E8.55364
G1 X135.955 Y78.569 E8.60163
G1 X136.061 Y80.119 E8.65007
G1 X136.207 Y81.715 E8.70005
G1 X136.265 Y82.32 E8.719
G1 X136.299 Y82.821 E8.73465
G1 X136.312 Y83.197 E8.74639
G1 X136.32 Y83.828 E8.76606
G1 X136.401 Y86.209 E8.84035
G1 X136.461 Y87.938 E8.89429
G1 X136.507 Y88.766 E8.92015
G1 X138.151 Y118.301 E9.84252
G1 X138.419 Y121.924 E9.9558
G1 X138.553 Y123.363 E10.00086
G1 X138.588 Y124.044 E10.02212
G1 X138.593 Y124.2 E10.02699
G1 X138.602 Y124.87 E10.04789
G1 X138.675 Y127.567 E10.13201
G1 X138.703 Y128.126 E10.14946
G1 X138.754 Y129.348 E10.1876
G1 X138.742 Y130.019 E10.20853
G1 X138.65 Y130.683 E10.22943
G1 X138.48 Y131.332 E10.25035
G1 X138.234 Y131.955 E10.27123
G1 X137.916 Y132.545 E10.29213
G1 X137.334 Y133.325 E10.32248
G1 X137.187 Y133.49 E10.32937
G1 X136.712 Y133.963 E10.35027
G1 X136.184 Y134.376 E10.37117
G1 X135.596 Y134.739 E10.39272
G1 X134.999 Y135.044 E10.41363
G1 X134.292 Y135.298 E10.43705
G1 X134.082 Y135.358 E10.44386
G1 X133.428 Y135.503 E10.46475
G1 X132.942 Y135.559 E10.48
G1 X131.633 Y135.653 E10.52092
G1 X130.778 Y135.697 E10.54762
G1 X129.082 Y135.824 E10.60065
G1 X127.652 Y135.944 E10.6454
G1 X126.935 Y135.964 E10.66776
G1 X126.791 Y135.962 E10.67225
G1 X125.457 Y135.928 E10.71386
G1 X122.701 Y135.899 E10.7998
G1 X120.062 Y135.944 E10.8821
G1 X117.735 Y136.046 E10.95473
G1 X109.436 Y136.507 E11.2139
G1 X106.754 Y136.694 E11.29774
G1 X104.104 Y136.954 E11.38076
G1 X100.583 Y137.416 E11.49149
G1 X99.902 Y137.483 E11.51283
G1 X99.242 Y137.517 E11.53344
G1 X98.291 Y137.53 E11.56309
G1 X94.396 Y137.661 E11.68461
G1 X94.203 Y137.67 E11.69064
G1 X93.532 Y137.663 E11.71156
G1 X92.867 Y137.576 E11.73248
G1 X92.028 Y137.346 E11.7596
G1 X91.833 Y137.276 E11.76606
G1 X91.216 Y137.012 E11.78699
G1 X90.635 Y136.677 E11.8079
G1 X90.012 Y136.201 E11.83235
G1 X89.851 Y136.059 E11.83904
G1 X89.376 Y135.586 E11.85994
G1 X88.9 Y134.972 E11.88417
G1 X88.839 Y134.881 E11.88758
G1 X88.499 Y134.303 E11.90849
G1 X88.231 Y133.688 E11.92941
G1 X88.001 Y132.88 E11.95561
G1 X87.954 Y132.651 E11.9629
G1 X87.854 Y131.934 E11.98547
G1 X87.749 Y130.511 E12.02996
G1 X87.708 Y129.75 E12.05373
G1 X87.587 Y128.348 E12.0976
G1 X87.58 Y128.099 E12.10537
G1 X87.461 Y126.619 E12.15167
G1 X87.445 Y126.277 E12.16234
G1 X87.428 Y125.217 E12.1954
G1 X87.287 Y121.215 E12.32027
G1 X86.993 Y115.906 E12.48606
G1 X86.972 Y115.586 E12.49606
G1 X86.8 Y112.483 E12.59297
G1 X86.777 Y112.107 E12.60471
G1 X86.721 Y111.041 E12.638
G1 X85.854 Y95.433 E13.12543
G1 X85.844 Y95.119 E13.13522
G1 X85.761 Y93.794 E13.17662
G1 X85.592 Y90.774 E13.27093
G1 X85.31 Y87.028 E13.38807
G1 X85.232 Y86.247 E13.41254
G1 X85.181 Y85.59 E13.43309
G1 X85.143 Y84.666 E13.46193
G1 X85.094 Y82.801 E13.5201
G1 X84.98 Y80.641 E13.58755
G1 X84.965 Y80.26 E13.59944
G1 X84.974 Y79.661 E13.61812
G1 X84.994 Y79.364 E13.6274
G1 X85.079 Y78.699 E13.6483
G1 X85.242 Y78.049 E13.6692
G1 X85.482 Y77.422 E13.69013
G1 X85.814 Y76.796 E13.71223
G1 X85.972 Y76.539 E13.72163
G1 X86.357 Y75.99 E13.74254
M205 X10 Y10
G0 F6000 X86.562 Y76.134
M205 X8 Y8
G1 F1200 X87.001 Y75.647 E13.76299
G1 X87.56 Y75.17 E13.7859
G1 X87.727 Y75.046 E13.79238
G1 X88.276 Y74.688 E13.81282
G1 X88.864 Y74.399 E13.83325
G1 X89.58 Y74.159 E13.8568
G1 X89.657 Y74.139 E13.85928
G1 X90.589 Y73.982 E13.88875
G1 X91.06 Y73.946 E13.90348
G1 X93.486 Y73.778 E13.97931
G1 X95.235 Y73.619 E14.03407
G1 X95.791 Y73.562 E14.05149
G1 X96.469 Y73.524 E14.07267
G1 X96.747 Y73.522 E14.08134
G1 X97.78 Y73.54 E14.11355
G1 X99.039 Y73.581 E14.15283
G1 X101.74 Y73.593 E14.23705
G1 X104.394 Y73.53 E14.31983
G1 X106.095 Y73.45 E14.37293
G1 X112.908 Y73.071 E14.5857
G1 X113.537 Y73.035 E14.60534
G1 X113.75 Y73.025 E14.61199
G1 X114.429 Y72.986 E14.6332
G1 X114.799 Y72.956 E14.64477
G1 X116.595 Y72.835 E14.7009
G1 X119.265 Y72.581 E14.78453
G1 X122.757 Y72.133 E14.89431
G1 X123.346 Y72.048 E14.91286
G1 X124.064 Y71.986 E14.93534
G1 X125.074 Y71.946 E14.96685
G1 X126.458 Y71.912 E15.01002
G1 X127.802 Y71.839 E15.05199
G1 X127.888 Y71.84 E15.05467
G1 X129.252 Y71.774 E15.09725
G1 X130.093 Y71.8 E15.12349
G1 X130.359 Y71.829 E15.13183
G1 X131.005 Y71.939 E15.15227
G1 X131.548 Y72.098 E15.16991
G1 X131.757 Y72.171 E15.17681
G1 X132.362 Y72.424 E15.19726
G1 X132.931 Y72.749 E15.21769
G1 X133.34 Y73.046 E15.23345
G1 X133.879 Y73.498 E15.25539
G1 X133.912 Y73.529 E15.2568
G1 X134.362 Y74.006 E15.27725
G1 X134.75 Y74.535 E15.2977
G1 X135.071 Y75.106 E15.31813
G1 X135.319 Y75.713 E15.33857
G1 X135.493 Y76.345 E15.35901
G1 X135.592 Y77.052 E15.38128
G1 X135.705 Y78.586 E15.42924
G1 X135.81 Y80.116 E15.47706
G1 X135.958 Y81.74 E15.5279
G1 X136.015 Y82.339 E15.54667
G1 X136.058 Y83.056 E15.56906
G1 X136.062 Y83.2 E15.57356
G1 X136.07 Y83.839 E15.59348
G1 X136.151 Y86.213 E15.66755
G1 X136.21 Y87.913 E15.72059
G1 X136.257 Y88.777 E15.74757
G1 X137.907 Y118.404 E16.67281
G1 X138.167 Y121.91 E16.78244
G1 X138.304 Y123.386 E16.82866
G1 X138.339 Y124.054 E16.84951
G1 X138.343 Y124.203 E16.85416
G1 X138.352 Y124.881 E16.87531
G1 X138.426 Y127.585 E16.95965
G1 X138.453 Y128.137 E16.97688
G1 X138.504 Y129.359 E17.01502
G1 X138.492 Y130.014 E17.03545
G1 X138.399 Y130.663 E17.05589
G1 X138.229 Y131.296 E17.07633
G1 X137.982 Y131.903 E17.09676
G1 X137.664 Y132.476 E17.1172
G1 X137.147 Y133.158 E17.14388
G1 X137 Y133.323 E17.15077
G1 X136.535 Y133.785 E17.17121
G1 X136.017 Y134.187 E17.19166
G1 X135.47 Y134.523 E17.21167
G1 X134.885 Y134.82 E17.23213
G1 X134.224 Y135.057 E17.25403
G1 X134.014 Y135.117 E17.26084
G1 X133.374 Y135.258 E17.28127
G1 X132.924 Y135.31 E17.2954
G1 X131.621 Y135.403 E17.33613
G1 X130.789 Y135.445 E17.36211
G1 X129.064 Y135.575 E17.41605
G1 X127.846 Y135.677 E17.45416
G1 X127.181 Y135.714 E17.47493
G1 X126.798 Y135.712 E17.48687
G1 X125.467 Y135.678 E17.52838
G1 X122.699 Y135.649 E17.6147
G1 X120.048 Y135.695 E17.69737
G1 X117.772 Y135.794 E17.76841
G1 X109.403 Y136.259 E18.02977
G1 X106.713 Y136.446 E18.11385
G1 X104.078 Y136.705 E18.19641
G1 X100.553 Y137.168 E18.30727
G1 X99.88 Y137.234 E18.32835
G1 X99.238 Y137.268 E18.3484
G1 X98.229 Y137.282 E18.37986
G1 X94.44 Y137.409 E18.49808
G1 X94.19 Y137.421 E18.50588
G1 X93.535 Y137.413 E18.52631
G1 X92.885 Y137.325 E18.54676
G1 X92.112 Y137.111 E18.57177
G1 X91.917 Y137.041 E18.57823
G1 X91.315 Y136.782 E18.59866
G1 X90.748 Y136.452 E18.61912
G1 X90.178 Y136.013 E18.64155
G1 X90.017 Y135.871 E18.64825
G1 X89.552 Y135.408 E18.66871
G1 X89.107 Y134.833 E18.69138
G1 X89.046 Y134.742 E18.6948
G1 X88.715 Y134.176 E18.71524
G1 X88.455 Y133.574 E18.73569
G1 X88.246 Y132.83 E18.75978
G1 X88.199 Y132.601 E18.76707
G1 X88.104 Y131.916 E18.78864
G1 X87.991 Y130.38 E18.83666
G1 X87.956 Y129.714 E18.85746
G1 X87.836 Y128.326 E18.9009
G1 X87.829 Y128.066 E18.90901
G1 X87.774 Y127.382 E18.93041
G1 X87.752 Y127.143 E18.93789
G1 X87.71 Y126.6 E18.95487
G1 X87.695 Y126.273 E18.96508
G1 X87.678 Y125.208 E18.99829
G1 X87.539 Y121.255 E19.12163
G1 X87.238 Y115.824 E19.29123
G1 X87.221 Y115.572 E19.29911
G1 X87.047 Y112.427 E19.39732
G1 X87.026 Y112.094 E19.40773
G1 X86.97 Y111.028 E19.44101
G1 X86.109 Y95.549 E19.92442
G1 X86.093 Y95.097 E19.93852
G1 X86.01 Y93.78 E19.97967
G1 X85.84 Y90.745 E20.07445
G1 X85.557 Y86.985 E20.19202
G1 X85.481 Y86.225 E20.21584
G1 X85.431 Y85.575 E20.23617
G1 X85.393 Y84.656 E20.26485
G1 X85.344 Y82.819 E20.32215
G1 X85.23 Y80.631 E20.39046
G1 X85.215 Y80.25 E20.40235
G1 X85.223 Y79.678 E20.42019
G1 X85.243 Y79.381 E20.42947
G1 X85.327 Y78.731 E20.44991
G1 X85.489 Y78.096 E20.47034
G1 X85.728 Y77.485 E20.4908
G1 X86.027 Y76.927 E20.51054
G1 X86.185 Y76.67 E20.51995
G1 X86.562 Y76.134 E20.54038
M205 X10 Y10
G0 F6000 X86.767 Y76.278
M205 X8 Y8
G1 F1200 X87.198 Y75.804 E20.56036
G1 X87.709 Y75.37 E20.58126
G1 X87.876 Y75.246 E20.58775
G1 X88.412 Y74.898 E20.60768
G1 X88.988 Y74.618 E20.62765
G1 X89.643 Y74.401 E20.64916
G1 X89.72 Y74.381 E20.65164
G1 X90.608 Y74.232 E20.67972
G1 X91.077 Y74.195 E20.69439
G1 X93.528 Y74.026 E20.77099
G1 X95.239 Y73.869 E20.82457
G1 X95.816 Y73.81 E20.84266
G1 X96.477 Y73.774 E20.8633
G1 X96.742 Y73.772 E20.87156
G1 X97.772 Y73.79 E20.90368
G1 X99.03 Y73.831 E20.94293
G1 X101.71 Y73.843 E21.0265
G1 X104.455 Y73.778 E21.11211
G1 X106.109 Y73.7 E21.16374
G1 X112.922 Y73.321 E21.37651
G1 X113.549 Y73.284 E21.3961
G1 X113.808 Y73.273 E21.40418
G1 X114.419 Y73.237 E21.42326
G1 X114.825 Y73.205 E21.43596
G1 X116.597 Y73.086 E21.49134
G1 X119.289 Y72.83 E21.57566
G1 X122.775 Y72.383 E21.68525
G1 X123.375 Y72.296 E21.70415
