;FLAVOR:Marlin
;TIME:9142
;Filament used: 4.11889m
;Layer height: 0.1
;MINX:52.56
;MINY:94.94
;MINZ:0.3
;MAXX:157.44
;MAXY:173.82
;MAXZ:9.2
;Generated with Cura_SteamEngine 4.11.0
M82 ;absolute extrusion mode
G21                                        ; metric values 
G90                                        ; absolute positioning 
M82                                        ; set extruder to absolute mode 
M107                                       ; start with the fan off 
M140 S70           ; Start heating the bed 
G4 S60                                     ; wait 1 minute 
M104 S225         ; start heating the hot end 
M190 S70           ; wait for bed 
M109 S225         ; wait for hotend 
M300 S1000 P500                            ; BEEP heating done 
G28 X0 Y10 Z0                              ; move X/Y to min endstops 
M420 S1                                    ; Enable leveling 
M420 Z2.0                                  ; Set leveling fading height to 2 mm 
G0 Z0.15                                   ; lift nozzle a bit 
G92 E0                                     ; zero the extruded length 
G1 X50 E25 F500                            ; Extrude 25mm of filament in a 5cm line. 
G92 E0                                     ; zero the extruded length again 
G1 E-2 F500                                ; Retract a little 
G1 X120 F4000                              ; Quickly wipe away from the filament line`
G92 E0
G92 E0
G1 F1500 E-6
;LAYER_COUNT:88
;LAYER:0
M107
M205 X10 Y10
G1 F600 Z0.5
G0 F6000 X56.23 Y96.123 Z0.5
M205 X8 Y8
;TYPE:SKIRT
G1 F600 Z0.3
G1 F1500 E0
G1 F900 X56.921 Y95.739 E0.03944
G1 X57.646 Y95.427 E0.07882
G1 X58.399 Y95.19 E0.1182
G1 X59.173 Y95.031 E0.15762
G1 X59.958 Y94.95 E0.19699
G1 X60.36 Y94.94 E0.21706
G1 X149.64 Y94.94 E4.67125
G1 X150.429 Y94.98 E4.71067
G1 X151.209 Y95.099 E4.75003
G1 X151.974 Y95.297 E4.78946
G1 X152.714 Y95.571 E4.82882
G1 X153.423 Y95.919 E4.86823
G1 X154.094 Y96.337 E4.90767
G1 X154.718 Y96.82 E4.94704
G1 X155.291 Y97.363 E4.98642
G1 X155.806 Y97.962 E5.02583
G1 X156.257 Y98.61 E5.06522
G1 X156.641 Y99.301 E5.10466
G1 X156.953 Y100.026 E5.14404
G1 X157.19 Y100.779 E5.18342
G1 X157.349 Y101.553 E5.22284
G1 X157.43 Y102.338 E5.26221
G1 X157.44 Y102.74 E5.28228
G1 X157.44 Y166.02 E8.43933
G1 X157.4 Y166.809 E8.47874
G1 X157.281 Y167.589 E8.51811
G1 X157.083 Y168.354 E8.55753
G1 X156.809 Y169.094 E8.5969
G1 X156.461 Y169.803 E8.6363
G1 X156.043 Y170.474 E8.67574
G1 X155.56 Y171.098 E8.71511
G1 X155.017 Y171.671 E8.75449
G1 X154.418 Y172.186 E8.79391
G1 X153.77 Y172.637 E8.83329
G1 X153.079 Y173.021 E8.87273
G1 X152.354 Y173.333 E8.91211
G1 X151.601 Y173.57 E8.95149
G1 X150.827 Y173.729 E8.99092
G1 X150.042 Y173.81 E9.03029
G1 X149.64 Y173.82 E9.05035
G1 X60.36 Y173.82 E13.50455
G1 X59.571 Y173.78 E13.54396
G1 X58.791 Y173.661 E13.58333
G1 X58.026 Y173.463 E13.62275
G1 X57.286 Y173.189 E13.66212
G1 X56.577 Y172.841 E13.70152
G1 X55.906 Y172.423 E13.74096
G1 X55.282 Y171.94 E13.78033
G1 X54.709 Y171.397 E13.81971
G1 X54.194 Y170.798 E13.85912
G1 X53.743 Y170.15 E13.89851
G1 X53.359 Y169.459 E13.93795
G1 X53.047 Y168.734 E13.97733
G1 X52.81 Y167.981 E14.01671
G1 X52.651 Y167.207 E14.05614
G1 X52.57 Y166.422 E14.09551
G1 X52.56 Y166.02 E14.11557
G1 X52.56 Y102.74 E17.27262
G1 X52.6 Y101.951 E17.31204
G1 X52.719 Y101.171 E17.3514
G1 X52.917 Y100.406 E17.39082
G1 X53.191 Y99.666 E17.43019
G1 X53.539 Y98.957 E17.46959
G1 X53.957 Y98.286 E17.50904
G1 X54.44 Y97.662 E17.5484
G1 X54.983 Y97.089 E17.58779
G1 X55.582 Y96.574 E17.6272
G1 X56.23 Y96.123 E17.66659
M205 X10 Y10
G0 F6000 X56.613 Y96.359
M205 X8 Y8
G1 F900 X57.296 Y96.004 E17.70499
G1 X58.011 Y95.723 E17.74332
G1 X58.753 Y95.517 E17.78174
G1 X59.511 Y95.389 E17.82009
G1 X60.36 Y95.34 E17.86252
G1 X149.64 Y95.34 E22.31671
G1 X150.408 Y95.38 E22.35508
G1 X151.168 Y95.499 E22.39346
G1 X151.911 Y95.697 E22.43182
G1 X152.63 Y95.971 E22.47021
G1 X153.316 Y96.318 E22.50856
G1 X153.963 Y96.734 E22.54694
G1 X154.563 Y97.215 E22.5853
G1 X155.11 Y97.756 E22.62369
G1 X155.598 Y98.351 E22.66208
G1 X156.021 Y98.993 E22.70043
G1 X156.376 Y99.676 E22.73884
G1 X156.657 Y100.391 E22.77716
G1 X156.863 Y101.133 E22.81558
G1 X156.991 Y101.891 E22.85394
G1 X157.04 Y102.74 E22.89636
G1 X157.04 Y166.02 E26.05342
G1 X157 Y166.788 E26.09178
G1 X156.881 Y167.548 E26.13016
G1 X156.683 Y168.291 E26.16852
G1 X156.409 Y169.01 E26.20691
G1 X156.062 Y169.696 E26.24526
G1 X155.646 Y170.343 E26.28364
G1 X155.165 Y170.943 E26.32201
G1 X154.624 Y171.49 E26.36039
G1 X154.029 Y171.978 E26.39878
G1 X153.387 Y172.401 E26.43714
G1 X152.704 Y172.756 E26.47554
G1 X151.989 Y173.037 E26.51387
G1 X151.247 Y173.243 E26.55229
G1 X150.489 Y173.371 E26.59064
G1 X149.64 Y173.42 E26.63307
G1 X60.36 Y173.42 E31.08726
G1 X59.592 Y173.38 E31.12563
G1 X58.832 Y173.261 E31.16401
G1 X58.089 Y173.063 E31.20237
G1 X57.37 Y172.789 E31.24076
G1 X56.684 Y172.442 E31.27911
G1 X56.037 Y172.026 E31.31749
G1 X55.437 Y171.545 E31.35585
G1 X54.89 Y171.004 E31.39424
G1 X54.402 Y170.409 E31.43263
G1 X53.979 Y169.767 E31.47098
G1 X53.624 Y169.084 E31.50939
G1 X53.343 Y168.369 E31.54772
G1 X53.137 Y167.627 E31.58613
G1 X53.009 Y166.869 E31.62449
G1 X52.96 Y166.02 E31.66691
G1 X52.96 Y102.74 E34.82397
G1 X53 Y101.972 E34.86233
G1 X53.119 Y101.212 E34.90071
G1 X53.317 Y100.469 E34.93907
G1 X53.591 Y99.75 E34.97746
G1 X53.938 Y99.064 E35.01582
G1 X54.354 Y98.417 E35.05419
G1 X54.835 Y97.817 E35.09256
G1 X55.376 Y97.27 E35.13094
G1 X55.971 Y96.782 E35.16933
G1 X56.613 Y96.359 E35.20769
M205 X10 Y10
G0 F6000 X56.358 Y96.997
M205 X8 Y8
G1 F900 X56.994 Y96.602 E35.24504
G1 X57.668 Y96.278 E35.28235
G1 X58.373 Y96.028 E35.31967
G1 X59.101 Y95.854 E35.35701
G1 X59.843 Y95.759 E35.39433
G1 X60.36 Y95.74 E35.42014
G1 X149.64 Y95.74 E39.87434
G1 X150.387 Y95.78 E39.91166
G1 X151.125 Y95.899 E39.94896
G1 X151.847 Y96.097 E39.98631
G1 X152.543 Y96.37 E40.0236
G1 X153.206 Y96.717 E40.06094
G1 X153.829 Y97.132 E40.09828
G1 X154.403 Y97.611 E40.13558
G1 X154.924 Y98.148 E40.17291
G1 X155.383 Y98.738 E40.2102
G1 X155.778 Y99.374 E40.24756
G1 X156.102 Y100.048 E40.28487
G1 X156.352 Y100.753 E40.32218
G1 X156.526 Y101.481 E40.35953
G1 X156.621 Y102.223 E40.39685
G1 X156.64 Y102.74 E40.42266
G1 X156.64 Y166.02 E43.57971
G1 X156.6 Y166.767 E43.61703
G1 X156.481 Y167.505 E43.65433
G1 X156.283 Y168.227 E43.69168
G1 X156.01 Y168.923 E43.72898
G1 X155.663 Y169.586 E43.76631
G1 X155.248 Y170.209 E43.80366
G1 X154.769 Y170.783 E43.84096
G1 X154.232 Y171.304 E43.87828
G1 X153.642 Y171.763 E43.91558
G1 X153.006 Y172.158 E43.95293
G1 X152.332 Y172.482 E43.99024
G1 X151.627 Y172.732 E44.02756
G1 X150.899 Y172.906 E44.0649
G1 X150.157 Y173.001 E44.10222
G1 X149.64 Y173.02 E44.12803
G1 X60.36 Y173.02 E48.58223
G1 X59.613 Y172.98 E48.61955
G1 X58.875 Y172.861 E48.65684
G1 X58.153 Y172.663 E48.6942
G1 X57.457 Y172.39 E48.73149
G1 X56.794 Y172.043 E48.76883
G1 X56.171 Y171.628 E48.80617
G1 X55.597 Y171.149 E48.84347
G1 X55.076 Y170.612 E48.8808
G1 X54.617 Y170.022 E48.91809
G1 X54.222 Y169.386 E48.95545
G1 X53.898 Y168.712 E48.99276
G1 X53.648 Y168.007 E49.03007
G1 X53.474 Y167.279 E49.06742
G1 X53.379 Y166.537 E49.10474
G1 X53.36 Y166.02 E49.13055
G1 X53.36 Y102.74 E52.2876
G1 X53.4 Y101.993 E52.32492
G1 X53.519 Y101.255 E52.36222
G1 X53.717 Y100.533 E52.39957
G1 X53.99 Y99.837 E52.43687
G1 X54.337 Y99.174 E52.4742
G1 X54.752 Y98.551 E52.51155
G1 X55.231 Y97.977 E52.54884
G1 X55.768 Y97.456 E52.58617
G1 X56.358 Y96.997 E52.62347
M205 X10 Y10
G0 F6000 X56.744 Y97.219
M205 X8 Y8
G1 F900 X57.373 Y96.855 E52.65972
G1 X58.038 Y96.562 E52.69598
G1 X58.731 Y96.344 E52.73222
G1 X59.443 Y96.204 E52.76842
G1 X60.36 Y96.14 E52.81428
G1 X149.64 Y96.14 E57.26848
G1 X150.365 Y96.18 E57.30471
G1 X151.082 Y96.299 E57.34097
G1 X151.781 Y96.497 E57.37721
G1 X152.454 Y96.77 E57.41345
G1 X153.093 Y97.115 E57.44968
G1 X153.69 Y97.529 E57.48592
G1 X154.238 Y98.005 E57.52214
G1 X154.731 Y98.539 E57.55839
G1 X155.161 Y99.124 E57.59462
G1 X155.525 Y99.753 E57.63087
G1 X155.818 Y100.418 E57.66713
G1 X156.036 Y101.111 E57.70337
G1 X156.176 Y101.823 E57.73957
G1 X156.24 Y102.74 E57.78543
G1 X156.24 Y166.02 E60.94249
G1 X156.2 Y166.745 E60.97871
G1 X156.081 Y167.462 E61.01497
G1 X155.883 Y168.161 E61.05122
G1 X155.61 Y168.834 E61.08745
G1 X155.265 Y169.473 E61.12368
G1 X154.851 Y170.07 E61.15993
G1 X154.375 Y170.618 E61.19614
G1 X153.841 Y171.111 E61.2324
G1 X153.256 Y171.541 E61.26862
G1 X152.627 Y171.905 E61.30488
G1 X151.962 Y172.198 E61.34113
G1 X151.269 Y172.416 E61.37738
G1 X150.557 Y172.556 E61.41358
G1 X149.64 Y172.62 E61.45944
G1 X60.36 Y172.62 E65.91364
G1 X59.635 Y172.58 E65.94986
G1 X58.918 Y172.461 E65.98612
G1 X58.219 Y172.263 E66.02237
G1 X57.546 Y171.99 E66.0586
G1 X56.907 Y171.645 E66.09483
G1 X56.31 Y171.231 E66.13108
G1 X55.762 Y170.755 E66.16729
G1 X55.269 Y170.221 E66.20355
G1 X54.839 Y169.636 E66.23977
G1 X54.475 Y169.007 E66.27603
G1 X54.182 Y168.342 E66.31228
G1 X53.964 Y167.649 E66.34853
G1 X53.824 Y166.937 E66.38473
G1 X53.76 Y166.02 E66.43059
G1 X53.76 Y102.74 E69.58764
G1 X53.8 Y102.015 E69.62387
G1 X53.919 Y101.298 E69.66013
G1 X54.117 Y100.599 E69.69637
G1 X54.39 Y99.926 E69.7326
G1 X54.735 Y99.287 E69.76883
G1 X55.149 Y98.69 E69.80508
G1 X55.625 Y98.142 E69.84129
G1 X56.159 Y97.649 E69.87755
G1 X56.744 Y97.219 E69.91377
M205 X10 Y10
G0 F6000 X57.128 Y97.449
M205 X8 Y8
G1 F900 X57.749 Y97.117 E69.94891
G1 X58.403 Y96.857 E69.98402
G1 X59.083 Y96.673 E70.01916
G1 X59.779 Y96.567 E70.05429
G1 X60.36 Y96.54 E70.0833
G1 X149.64 Y96.54 E74.5375
G1 X150.343 Y96.58 E74.57263
G1 X151.037 Y96.699 E74.60776
G1 X151.712 Y96.897 E74.64286
G1 X152.361 Y97.169 E74.67796
G1 X152.975 Y97.514 E74.7131
G1 X153.546 Y97.925 E74.7482
G1 X154.067 Y98.399 E74.78334
G1 X154.531 Y98.929 E74.81848
G1 X154.931 Y99.508 E74.85359
G1 X155.263 Y100.129 E74.88872
G1 X155.523 Y100.783 E74.92384
G1 X155.707 Y101.463 E74.95898
G1 X155.813 Y102.159 E74.99411
G1 X155.84 Y102.74 E75.02312
G1 X155.84 Y166.02 E78.18018
G1 X155.8 Y166.723 E78.2153
G1 X155.681 Y167.417 E78.25043
G1 X155.483 Y168.092 E78.28553
G1 X155.211 Y168.741 E78.32064
G1 X154.866 Y169.355 E78.35577
G1 X154.455 Y169.926 E78.39087
G1 X153.981 Y170.447 E78.42601
G1 X153.451 Y170.911 E78.46116
G1 X152.872 Y171.311 E78.49627
G1 X152.251 Y171.643 E78.5314
G1 X151.597 Y171.903 E78.56651
G1 X150.917 Y172.087 E78.60165
G1 X150.221 Y172.193 E78.63678
G1 X149.64 Y172.22 E78.6658
G1 X60.36 Y172.22 E83.11999
G1 X59.657 Y172.18 E83.15512
G1 X58.963 Y172.061 E83.19025
G1 X58.288 Y171.863 E83.22535
G1 X57.639 Y171.591 E83.26045
G1 X57.025 Y171.246 E83.29559
G1 X56.454 Y170.835 E83.33069
G1 X55.933 Y170.361 E83.36583
G1 X55.469 Y169.831 E83.40097
G1 X55.069 Y169.252 E83.43608
G1 X54.737 Y168.631 E83.47122
G1 X54.477 Y167.977 E83.50633
G1 X54.293 Y167.297 E83.54147
G1 X54.187 Y166.601 E83.5766
G1 X54.16 Y166.02 E83.60561
G1 X54.16 Y102.74 E86.76267
G1 X54.2 Y102.037 E86.7978
G1 X54.319 Y101.343 E86.83293
G1 X54.517 Y100.668 E86.86802
G1 X54.789 Y100.019 E86.90313
G1 X55.134 Y99.405 E86.93826
G1 X55.545 Y98.834 E86.97336
G1 X56.019 Y98.313 E87.0085
G1 X56.549 Y97.849 E87.04365
G1 X57.128 Y97.449 E87.07876
M205 X10 Y10
G0 F6000 X57.51 Y97.688
M205 X8 Y8
G1 F900 X58.122 Y97.389 E87.11274
G1 X58.764 Y97.164 E87.14668
G1 X59.429 Y97.015 E87.18068
G1 X60.36 Y96.94 E87.22728
G1 X149.64 Y96.94 E91.68147
G1 X150.32 Y96.98 E91.71546
G1 X150.99 Y97.099 E91.74941
G1 X151.642 Y97.296 E91.78339
G1 X152.266 Y97.568 E91.81735
G1 X152.854 Y97.912 E91.85134
G1 X153.398 Y98.322 E91.88532
G1 X153.889 Y98.793 E91.91927
G1 X154.323 Y99.318 E91.95325
G1 X154.692 Y99.89 E91.98721
G1 X154.991 Y100.502 E92.02119
G1 X155.216 Y101.144 E92.05513
G1 X155.365 Y101.809 E92.08913
G1 X155.44 Y102.74 E92.13573
G1 X155.44 Y166.02 E95.29278
G1 X155.4 Y166.7 E95.32676
G1 X155.281 Y167.37 E95.36071
G1 X155.084 Y168.022 E95.39469
G1 X154.812 Y168.646 E95.42865
G1 X154.468 Y169.234 E95.46264
G1 X154.058 Y169.778 E95.49663
G1 X153.587 Y170.269 E95.53057
G1 X153.062 Y170.703 E95.56455
G1 X152.49 Y171.072 E95.59851
G1 X151.878 Y171.371 E95.6325
G1 X151.236 Y171.596 E95.66644
G1 X150.571 Y171.745 E95.70044
G1 X149.64 Y171.82 E95.74703
G1 X60.36 Y171.82 E100.20123
G1 X59.68 Y171.78 E100.23522
G1 X59.01 Y171.661 E100.26917
G1 X58.358 Y171.464 E100.30315
G1 X57.734 Y171.192 E100.33711
G1 X57.146 Y170.848 E100.37109
G1 X56.602 Y170.438 E100.40508
G1 X56.111 Y169.967 E100.43902
G1 X55.677 Y169.442 E100.47301
G1 X55.308 Y168.87 E100.50697
G1 X55.009 Y168.258 E100.54095
G1 X54.784 Y167.616 E100.57489
G1 X54.635 Y166.951 E100.60889
G1 X54.56 Y166.02 E100.65549
G1 X54.56 Y102.74 E103.81254
G1 X54.6 Y102.06 E103.84652
G1 X54.719 Y101.39 E103.88047
G1 X54.916 Y100.738 E103.91445
G1 X55.188 Y100.114 E103.94841
G1 X55.532 Y99.526 E103.9824
G1 X55.942 Y98.982 E104.01638
G1 X56.413 Y98.491 E104.05033
G1 X56.938 Y98.057 E104.08431
G1 X57.51 Y97.688 E104.11827
M205 X10 Y10
G0 F6000 X57.325 Y98.274
M205 X8 Y8
G1 F900 X57.889 Y97.938 E104.15103
G1 X58.491 Y97.674 E104.18382
G1 X59.12 Y97.484 E104.2166
G1 X59.767 Y97.373 E104.24935
G1 X60.36 Y97.34 E104.27898
G1 X149.64 Y97.34 E108.73318
G1 X150.296 Y97.38 E108.76597
G1 X150.942 Y97.499 E108.79874
G1 X151.569 Y97.696 E108.83153
G1 X152.167 Y97.968 E108.8643
G1 X152.728 Y98.31 E108.89708
G1 X153.243 Y98.718 E108.92986
G1 X153.705 Y99.185 E108.96264
G1 X154.106 Y99.705 E108.9954
G1 X154.442 Y100.269 E109.02815
G1 X154.706 Y100.871 E109.06095
G1 X154.896 Y101.5 E109.09373
G1 X155.007 Y102.147 E109.12648
G1 X155.04 Y102.74 E109.15611
G1 X155.04 Y166.02 E112.31316
G1 X155 Y166.676 E112.34595
G1 X154.881 Y167.322 E112.37872
G1 X154.684 Y167.949 E112.41151
G1 X154.412 Y168.547 E112.44428
G1 X154.07 Y169.108 E112.47706
G1 X153.662 Y169.623 E112.50984
G1 X153.195 Y170.085 E112.54262
G1 X152.675 Y170.486 E112.57538
G1 X152.111 Y170.822 E112.60813
G1 X151.509 Y171.086 E112.64093
G1 X150.88 Y171.276 E112.67371
G1 X150.233 Y171.387 E112.70646
G1 X149.64 Y171.42 E112.73609
G1 X60.36 Y171.42 E117.19029
G1 X59.704 Y171.38 E117.22307
G1 X59.058 Y171.261 E117.25585
G1 X58.431 Y171.064 E117.28863
G1 X57.833 Y170.792 E117.32141
G1 X57.272 Y170.45 E117.35419
G1 X56.757 Y170.042 E117.38697
G1 X56.295 Y169.575 E117.41974
G1 X55.894 Y169.055 E117.4525
G1 X55.558 Y168.491 E117.48526
G1 X55.294 Y167.889 E117.51805
G1 X55.104 Y167.26 E117.55083
G1 X54.993 Y166.613 E117.58358
G1 X54.96 Y166.02 E117.61321
G1 X54.96 Y102.74 E120.77027
G1 X55 Y102.084 E120.80305
G1 X55.119 Y101.438 E120.83583
G1 X55.316 Y100.811 E120.86861
G1 X55.588 Y100.213 E120.90139
G1 X55.93 Y99.652 E120.93417
G1 X56.338 Y99.137 E120.96695
G1 X56.805 Y98.675 E120.99972
G1 X57.325 Y98.274 E121.03248
M205 X10 Y10
G0 F6000 X57.71 Y98.5
M205 X8 Y8
G1 F900 X58.266 Y98.2 E121.064
G1 X58.855 Y97.972 E121.09551
G1 X59.469 Y97.82 E121.12707
G1 X60.36 Y97.74 E121.1717
G1 X149.64 Y97.74 E125.6259
G1 X150.271 Y97.78 E125.65744
G1 X150.892 Y97.899 E125.68899
G1 X151.492 Y98.096 E125.72049
G1 X152.064 Y98.367 E125.75207
G1 X152.596 Y98.707 E125.78357
G1 X153.081 Y99.113 E125.81513
G1 X153.511 Y99.576 E125.84665
G1 X153.88 Y100.09 E125.87822
G1 X154.18 Y100.646 E125.90974
G1 X154.408 Y101.235 E125.94125
G1 X154.56 Y101.849 E125.9728
G1 X154.64 Y102.74 E126.01744
G1 X154.64 Y166.02 E129.17449
G1 X154.6 Y166.651 E129.20603
G1 X154.481 Y167.272 E129.23758
G1 X154.284 Y167.872 E129.26908
G1 X154.013 Y168.444 E129.30066
G1 X153.673 Y168.976 E129.33216
G1 X153.267 Y169.461 E129.36372
G1 X152.804 Y169.891 E129.39524
G1 X152.29 Y170.26 E129.42681
G1 X151.734 Y170.56 E129.45833
G1 X151.145 Y170.788 E129.48984
G1 X150.531 Y170.94 E129.52139
G1 X149.64 Y171.02 E129.56603
G1 X60.36 Y171.02 E134.02022
G1 X59.729 Y170.98 E134.05177
G1 X59.108 Y170.861 E134.08331
G1 X58.508 Y170.664 E134.11482
G1 X57.936 Y170.393 E134.1464
G1 X57.404 Y170.053 E134.1779
G1 X56.919 Y169.647 E134.20945
G1 X56.489 Y169.184 E134.24098
G1 X56.12 Y168.67 E134.27254
G1 X55.82 Y168.114 E134.30406
G1 X55.592 Y167.525 E134.33557
G1 X55.44 Y166.911 E134.36713
G1 X55.36 Y166.02 E134.41176
G1 X55.36 Y102.74 E137.56881
